; generated by Slic3r 1.3.0 on 2020-12-25 at 12:14:21

; external perimeters extrusion width = 0.55mm (4.37mm^3/s)
; perimeters extrusion width = 0.70mm (11.44mm^3/s)
; infill extrusion width = 0.62mm (13.45mm^3/s)
; solid infill extrusion width = 0.70mm (3.81mm^3/s)
; top infill extrusion width = 0.70mm (2.86mm^3/s)

M107
M104 S200 ; set temperature
G28 ; home all axes
G1 Z5 F5000 ; lift nozzle

; Filament gcode

M109 S200 ; set temperature and wait for it to be reached
G21 ; set units to millimeters
G90 ; use absolute coordinates
M82 ; use absolute distances for extrusion
G92 E0
G1 Z0.350 F7800.000
G1 E-2.00000 F2400.00000
G92 E0
G1 X66.415 Y66.753 F7800.000
G1 E2.00000 F2400.00000
G1 F1800
G1 X68.168 Y65.274 E2.20854
G1 X70.320 Y64.481 E2.41708
G1 X71.500 Y64.375 E2.52479
G1 X128.500 Y64.375 E7.70778
G1 X130.759 Y64.772 E7.91632
G1 X132.747 Y65.915 E8.12486
G1 X134.226 Y67.668 E8.33341
G1 X135.019 Y69.820 E8.54195
G1 X135.125 Y71.000 E8.64966
G1 X135.125 Y129.000 E13.92357
G1 X134.728 Y131.259 E14.13212
G1 X133.585 Y133.247 E14.34066
G1 X131.832 Y134.726 E14.54920
G1 X129.680 Y135.519 E14.75774
G1 X128.500 Y135.625 E14.86545
G1 X71.500 Y135.625 E20.04844
G1 X69.241 Y135.228 E20.25698
G1 X67.253 Y134.085 E20.46552
G1 X65.774 Y132.332 E20.67407
G1 X64.981 Y130.180 E20.88261
G1 X64.875 Y129.000 E20.99032
G1 X64.875 Y71.000 E26.26423
G1 X65.272 Y68.741 E26.47277
G1 X66.378 Y66.818 E26.67450
G1 E24.67450 F2400.00000
G92 E0
G1 X84.900 Y79.400 F7800.000
G1 E2.00000 F2400.00000
G1 F1800
G1 X73.100 Y79.400 E3.07301
G1 X73.100 Y72.600 E3.69137
G1 X84.900 Y72.600 E4.76438
G1 X84.900 Y79.325 E5.37592
G1 X85.525 Y80.025 F7800.000
G1 F1800
G1 X72.475 Y80.025 E6.56257
G1 X72.475 Y71.975 E7.29458
G1 X85.525 Y71.975 E8.48123
G1 X85.525 Y79.950 E9.20641
G1 X86.150 Y80.650 F7800.000
G1 F1800
G1 X71.850 Y80.650 E10.50671
G1 X71.850 Y71.350 E11.35235
G1 X86.150 Y71.350 E12.65264
G1 X86.150 Y80.575 E13.49147
G1 X85.659 Y80.554 F7800.000
G1 E11.49147 F2400.00000
G92 E0
G1 X84.032 Y79.018 F7800.000
G1 E2.00000 F2400.00000
G1 F1800
G1 X84.518 Y78.532 E2.06328
G1 X84.518 Y77.638 E2.14561
G1 X83.138 Y79.018 E2.32533
G1 X82.243 Y79.018 E2.40766
G1 X84.518 Y76.743 E2.70380
G1 X84.518 Y75.849 E2.78613
G1 X81.349 Y79.018 E3.19871
G1 X80.454 Y79.018 E3.28104
G1 X84.518 Y74.954 E3.81005
G1 X84.518 Y74.060 E3.89238
G1 X79.560 Y79.018 E4.53782
G1 X78.665 Y79.018 E4.62015
G1 X84.518 Y73.165 E5.38202
G1 X84.518 Y72.982 E5.39891
G1 X83.807 Y72.982 E5.46435
G1 X77.771 Y79.018 E6.25011
G1 X76.876 Y79.018 E6.33244
G1 X82.913 Y72.982 E7.11820
G1 X82.018 Y72.982 E7.20053
G1 X75.982 Y79.018 E7.98629
G1 X75.087 Y79.018 E8.06861
G1 X81.124 Y72.982 E8.85437
G1 X80.229 Y72.982 E8.93670
G1 X74.193 Y79.018 E9.72246
G1 X73.482 Y79.018 E9.78790
G1 X73.482 Y78.835 E9.80479
G1 X79.335 Y72.982 E10.56667
G1 X78.440 Y72.982 E10.64899
G1 X73.482 Y77.940 E11.29444
G1 X73.482 Y77.046 E11.37677
G1 X77.546 Y72.982 E11.90578
G1 X76.651 Y72.982 E11.98810
G1 X73.482 Y76.151 E12.40068
G1 X73.482 Y75.257 E12.48301
G1 X75.757 Y72.982 E12.77916
G1 X74.862 Y72.982 E12.86149
G1 X73.482 Y74.362 E13.04121
G1 X73.482 Y73.468 E13.12353
G1 X73.968 Y72.982 E13.18682
G1 E11.18682 F2400.00000
G92 E0
G1 X126.900 Y79.400 F7800.000
G1 E2.00000 F2400.00000
G1 F1800
G1 X115.100 Y79.400 E3.07301
G1 X115.100 Y72.600 E3.69137
G1 X126.900 Y72.600 E4.76438
G1 X126.900 Y79.325 E5.37592
G1 X127.525 Y80.025 F7800.000
G1 F1800
G1 X114.475 Y80.025 E6.56257
G1 X114.475 Y71.975 E7.29458
G1 X127.525 Y71.975 E8.48123
G1 X127.525 Y79.950 E9.20641
G1 X128.150 Y80.650 F7800.000
G1 F1800
G1 X113.850 Y80.650 E10.50671
G1 X113.850 Y71.350 E11.35235
G1 X128.150 Y71.350 E12.65264
G1 X128.150 Y80.575 E13.49147
G1 X127.659 Y80.554 F7800.000
G1 E11.49147 F2400.00000
G92 E0
G1 X126.032 Y79.018 F7800.000
G1 E2.00000 F2400.00000
G1 F1800
G1 X126.518 Y78.532 E2.06328
G1 X126.518 Y77.638 E2.14561
G1 X125.138 Y79.018 E2.32533
G1 X124.243 Y79.018 E2.40766
G1 X126.518 Y76.743 E2.70380
G1 X126.518 Y75.849 E2.78613
G1 X123.349 Y79.018 E3.19871
G1 X122.454 Y79.018 E3.28104
G1 X126.518 Y74.954 E3.81005
G1 X126.518 Y74.060 E3.89238
G1 X121.560 Y79.018 E4.53782
G1 X120.665 Y79.018 E4.62015
G1 X126.518 Y73.165 E5.38202
G1 X126.518 Y72.982 E5.39891
G1 X125.807 Y72.982 E5.46435
G1 X119.771 Y79.018 E6.25011
G1 X118.876 Y79.018 E6.33244
G1 X124.913 Y72.982 E7.11820
G1 X124.018 Y72.982 E7.20053
G1 X117.982 Y79.018 E7.98629
G1 X117.087 Y79.018 E8.06861
G1 X123.124 Y72.982 E8.85437
G1 X122.229 Y72.982 E8.93670
G1 X116.193 Y79.018 E9.72246
G1 X115.482 Y79.018 E9.78790
G1 X115.482 Y78.835 E9.80479
G1 X121.335 Y72.982 E10.56667
G1 X120.440 Y72.982 E10.64899
G1 X115.482 Y77.940 E11.29444
G1 X115.482 Y77.046 E11.37677
G1 X119.546 Y72.982 E11.90578
G1 X118.651 Y72.982 E11.98810
G1 X115.482 Y76.151 E12.40068
G1 X115.482 Y75.257 E12.48301
G1 X117.757 Y72.982 E12.77916
G1 X116.862 Y72.982 E12.86149
G1 X115.482 Y74.362 E13.04121
G1 X115.482 Y73.468 E13.12353
G1 X115.968 Y72.982 E13.18682
G1 E11.18682 F2400.00000
G92 E0
G1 X126.900 Y127.400 F7800.000
G1 E2.00000 F2400.00000
G1 F1800
G1 X115.100 Y127.400 E3.07301
G1 X115.100 Y120.600 E3.69137
G1 X126.900 Y120.600 E4.76438
G1 X126.900 Y127.325 E5.37592
G1 X127.525 Y128.025 F7800.000
G1 F1800
G1 X114.475 Y128.025 E6.56257
G1 X114.475 Y119.975 E7.29458
G1 X127.525 Y119.975 E8.48123
G1 X127.525 Y127.950 E9.20641
G1 X128.150 Y128.650 F7800.000
G1 F1800
G1 X113.850 Y128.650 E10.50671
G1 X113.850 Y119.350 E11.35235
G1 X128.150 Y119.350 E12.65264
G1 X128.150 Y128.575 E13.49147
G1 X127.659 Y128.554 F7800.000
G1 E11.49147 F2400.00000
G92 E0
G1 X126.032 Y127.018 F7800.000
G1 E2.00000 F2400.00000
G1 F1800
G1 X126.518 Y126.532 E2.06328
G1 X126.518 Y125.638 E2.14561
G1 X125.138 Y127.018 E2.32533
G1 X124.243 Y127.018 E2.40766
G1 X126.518 Y124.743 E2.70380
G1 X126.518 Y123.849 E2.78613
G1 X123.349 Y127.018 E3.19871
G1 X122.454 Y127.018 E3.28104
G1 X126.518 Y122.954 E3.81005
G1 X126.518 Y122.060 E3.89238
G1 X121.560 Y127.018 E4.53782
G1 X120.665 Y127.018 E4.62015
G1 X126.518 Y121.165 E5.38202
G1 X126.518 Y120.982 E5.39891
G1 X125.807 Y120.982 E5.46435
G1 X119.771 Y127.018 E6.25011
G1 X118.876 Y127.018 E6.33244
G1 X124.913 Y120.982 E7.11820
G1 X124.018 Y120.982 E7.20053
G1 X117.982 Y127.018 E7.98629
G1 X117.087 Y127.018 E8.06861
G1 X123.124 Y120.982 E8.85437
G1 X122.229 Y120.982 E8.93670
G1 X116.193 Y127.018 E9.72246
G1 X115.482 Y127.018 E9.78790
G1 X115.482 Y126.835 E9.80479
G1 X121.335 Y120.982 E10.56667
G1 X120.440 Y120.982 E10.64899
G1 X115.482 Y125.940 E11.29444
G1 X115.482 Y125.046 E11.37677
G1 X119.546 Y120.982 E11.90578
G1 X118.651 Y120.982 E11.98810
G1 X115.482 Y124.151 E12.40068
G1 X115.482 Y123.257 E12.48301
G1 X117.757 Y120.982 E12.77916
G1 X116.862 Y120.982 E12.86149
G1 X115.482 Y122.362 E13.04121
G1 X115.482 Y121.468 E13.12353
G1 X115.968 Y120.982 E13.18682
G1 E11.18682 F2400.00000
G92 E0
G1 X84.900 Y127.400 F7800.000
G1 E2.00000 F2400.00000
G1 F1800
G1 X73.100 Y127.400 E3.07301
G1 X73.100 Y120.600 E3.69137
G1 X84.900 Y120.600 E4.76438
G1 X84.900 Y127.325 E5.37592
G1 X85.525 Y128.025 F7800.000
G1 F1800
G1 X72.475 Y128.025 E6.56257
G1 X72.475 Y119.975 E7.29458
G1 X85.525 Y119.975 E8.48123
G1 X85.525 Y127.950 E9.20641
G1 X86.150 Y128.650 F7800.000
G1 F1800
G1 X71.850 Y128.650 E10.50671
G1 X71.850 Y119.350 E11.35235
G1 X86.150 Y119.350 E12.65264
G1 X86.150 Y128.575 E13.49147
G1 X85.659 Y128.554 F7800.000
G1 E11.49147 F2400.00000
G92 E0
G1 X84.032 Y127.018 F7800.000
G1 E2.00000 F2400.00000
G1 F1800
G1 X84.518 Y126.532 E2.06328
G1 X84.518 Y125.638 E2.14561
G1 X83.138 Y127.018 E2.32533
G1 X82.243 Y127.018 E2.40766
G1 X84.518 Y124.743 E2.70380
G1 X84.518 Y123.849 E2.78613
G1 X81.349 Y127.018 E3.19871
G1 X80.454 Y127.018 E3.28104
G1 X84.518 Y122.954 E3.81005
G1 X84.518 Y122.060 E3.89238
G1 X79.560 Y127.018 E4.53782
G1 X78.665 Y127.018 E4.62015
G1 X84.518 Y121.165 E5.38202
G1 X84.518 Y120.982 E5.39891
G1 X83.807 Y120.982 E5.46435
G1 X77.771 Y127.018 E6.25011
G1 X76.876 Y127.018 E6.33244
G1 X82.913 Y120.982 E7.11820
G1 X82.018 Y120.982 E7.20053
G1 X75.982 Y127.018 E7.98629
G1 X75.087 Y127.018 E8.06861
G1 X81.124 Y120.982 E8.85437
G1 X80.229 Y120.982 E8.93670
G1 X74.193 Y127.018 E9.72246
G1 X73.482 Y127.018 E9.78790
G1 X73.482 Y126.835 E9.80479
G1 X79.335 Y120.982 E10.56667
G1 X78.440 Y120.982 E10.64899
G1 X73.482 Y125.940 E11.29444
G1 X73.482 Y125.046 E11.37677
G1 X77.546 Y120.982 E11.90578
G1 X76.651 Y120.982 E11.98810
G1 X73.482 Y124.151 E12.40068
G1 X73.482 Y123.257 E12.48301
G1 X75.757 Y120.982 E12.77916
G1 X74.862 Y120.982 E12.86149
G1 X73.482 Y122.362 E13.04121
G1 X73.482 Y121.468 E13.12353
G1 X73.968 Y120.982 E13.18682
G1 Z0.650 F7800.000
G1 E11.18682 F2400.00000
G92 E0
G1 X85.029 Y79.529 F7800.000
G1 E2.00000 F2400.00000
G1 F900
G1 X72.971 Y79.529 E2.95590
G1 X72.971 Y72.471 E3.51540
G1 X85.029 Y72.471 E4.47130
G1 X85.029 Y79.454 E5.02486
G1 X85.664 Y80.164 F7800.000
G1 F3600
G1 X72.336 Y80.164 E6.08154
G1 X72.336 Y71.836 E6.74182
G1 X85.664 Y71.836 E7.79850
G1 X85.664 Y80.089 E8.45284
G1 X86.225 Y80.725 F7800.000
G1 F1800
G1 X71.775 Y80.725 E9.32807
G1 X71.775 Y71.275 E9.90044
G1 X86.225 Y71.275 E10.77567
G1 X86.225 Y80.650 E11.34350
G1 X85.734 Y80.629 F7800.000
G1 X84.640 Y73.354 F7800.000
G1 F1200
G1 X84.146 Y72.860 E11.40029
G1 X83.225 Y72.860 E11.47505
G1 X84.640 Y74.275 E11.63757
G1 X84.640 Y75.196 E11.71232
G1 X82.304 Y72.860 E11.98056
G1 X81.384 Y72.860 E12.05532
G1 X84.640 Y76.116 E12.42929
G1 X84.640 Y77.037 E12.50405
G1 X80.463 Y72.860 E12.98374
G1 X79.542 Y72.860 E13.05850
G1 X84.640 Y77.958 E13.64391
G1 X84.640 Y78.878 E13.71867
G1 X78.622 Y72.860 E14.40981
G1 X77.701 Y72.860 E14.48457
G1 X83.982 Y79.140 E15.20581
G1 X83.061 Y79.140 E15.28057
G1 X76.780 Y72.860 E16.00180
G1 X75.860 Y72.860 E16.07656
G1 X82.140 Y79.140 E16.79780
G1 X81.220 Y79.140 E16.87256
G1 X74.939 Y72.860 E17.59379
G1 X74.018 Y72.860 E17.66855
G1 X80.299 Y79.140 E18.38979
G1 X79.378 Y79.140 E18.46455
G1 X73.360 Y73.122 E19.15569
G1 X73.360 Y74.042 E19.23045
G1 X78.458 Y79.140 E19.81586
G1 X77.537 Y79.140 E19.89062
G1 X73.360 Y74.963 E20.37031
G1 X73.360 Y75.884 E20.44507
G1 X76.616 Y79.140 E20.81904
G1 X75.696 Y79.140 E20.89380
G1 X73.360 Y76.804 E21.16204
G1 X73.360 Y77.725 E21.23680
G1 X74.775 Y79.140 E21.39931
G1 X73.854 Y79.140 E21.47407
G1 X73.360 Y78.646 E21.53086
G1 E19.53086 F2400.00000
G92 E0
G1 X127.029 Y79.529 F7800.000
G1 E2.00000 F2400.00000
G1 F900
G1 X114.971 Y79.529 E2.95590
G1 X114.971 Y72.471 E3.51540
G1 X127.029 Y72.471 E4.47130
G1 X127.029 Y79.454 E5.02486
G1 X127.664 Y80.164 F7800.000
G1 F3600
G1 X114.336 Y80.164 E6.08154
G1 X114.336 Y71.836 E6.74182
G1 X127.664 Y71.836 E7.79850
G1 X127.664 Y80.089 E8.45284
G1 X128.225 Y80.725 F7800.000
G1 F1800
G1 X113.775 Y80.725 E9.32807
G1 X113.775 Y71.275 E9.90044
G1 X128.225 Y71.275 E10.77567
G1 X128.225 Y80.650 E11.34350
G1 X127.734 Y80.629 F7800.000
G1 X126.640 Y73.354 F7800.000
G1 F1200
G1 X126.146 Y72.860 E11.40029
G1 X125.225 Y72.860 E11.47505
G1 X126.640 Y74.275 E11.63757
G1 X126.640 Y75.196 E11.71232
G1 X124.304 Y72.860 E11.98056
G1 X123.384 Y72.860 E12.05532
G1 X126.640 Y76.116 E12.42929
G1 X126.640 Y77.037 E12.50405
G1 X122.463 Y72.860 E12.98374
G1 X121.542 Y72.860 E13.05850
G1 X126.640 Y77.958 E13.64391
G1 X126.640 Y78.878 E13.71867
G1 X120.622 Y72.860 E14.40981
G1 X119.701 Y72.860 E14.48457
G1 X125.982 Y79.140 E15.20581
G1 X125.061 Y79.140 E15.28057
G1 X118.780 Y72.860 E16.00180
G1 X117.860 Y72.860 E16.07656
G1 X124.140 Y79.140 E16.79780
G1 X123.220 Y79.140 E16.87256
G1 X116.939 Y72.860 E17.59379
G1 X116.018 Y72.860 E17.66855
G1 X122.299 Y79.140 E18.38979
G1 X121.378 Y79.140 E18.46455
G1 X115.360 Y73.122 E19.15569
G1 X115.360 Y74.042 E19.23045
G1 X120.458 Y79.140 E19.81586
G1 X119.537 Y79.140 E19.89062
G1 X115.360 Y74.963 E20.37031
G1 X115.360 Y75.884 E20.44507
G1 X118.616 Y79.140 E20.81904
G1 X117.696 Y79.140 E20.89380
G1 X115.360 Y76.804 E21.16204
G1 X115.360 Y77.725 E21.23680
G1 X116.775 Y79.140 E21.39931
G1 X115.854 Y79.140 E21.47407
G1 X115.360 Y78.646 E21.53086
G1 E19.53086 F2400.00000
G92 E0
G1 X127.029 Y127.529 F7800.000
G1 E2.00000 F2400.00000
G1 F900
G1 X114.971 Y127.529 E2.95590
G1 X114.971 Y120.471 E3.51540
G1 X127.029 Y120.471 E4.47130
G1 X127.029 Y127.454 E5.02486
G1 X127.664 Y128.164 F7800.000
G1 F3600
G1 X114.336 Y128.164 E6.08154
G1 X114.336 Y119.836 E6.74182
G1 X127.664 Y119.836 E7.79850
G1 X127.664 Y128.089 E8.45284
G1 X128.225 Y128.725 F7800.000
G1 F1800
G1 X113.775 Y128.725 E9.32807
G1 X113.775 Y119.275 E9.90044
G1 X128.225 Y119.275 E10.77567
G1 X128.225 Y128.650 E11.34350
G1 X127.734 Y128.629 F7800.000
G1 X126.640 Y121.354 F7800.000
G1 F1200
G1 X126.146 Y120.860 E11.40029
G1 X125.225 Y120.860 E11.47505
G1 X126.640 Y122.275 E11.63757
G1 X126.640 Y123.196 E11.71232
G1 X124.304 Y120.860 E11.98056
G1 X123.384 Y120.860 E12.05532
G1 X126.640 Y124.116 E12.42929
G1 X126.640 Y125.037 E12.50405
G1 X122.463 Y120.860 E12.98374
G1 X121.542 Y120.860 E13.05850
G1 X126.640 Y125.958 E13.64391
G1 X126.640 Y126.878 E13.71867
G1 X120.622 Y120.860 E14.40981
G1 X119.701 Y120.860 E14.48457
G1 X125.982 Y127.140 E15.20581
G1 X125.061 Y127.140 E15.28057
G1 X118.780 Y120.860 E16.00180
G1 X117.860 Y120.860 E16.07656
G1 X124.140 Y127.140 E16.79780
G1 X123.220 Y127.140 E16.87256
G1 X116.939 Y120.860 E17.59379
G1 X116.018 Y120.860 E17.66855
G1 X122.299 Y127.140 E18.38979
G1 X121.378 Y127.140 E18.46455
G1 X115.360 Y121.122 E19.15569
G1 X115.360 Y122.042 E19.23045
G1 X120.458 Y127.140 E19.81586
G1 X119.537 Y127.140 E19.89062
G1 X115.360 Y122.963 E20.37031
G1 X115.360 Y123.884 E20.44507
G1 X118.616 Y127.140 E20.81904
G1 X117.696 Y127.140 E20.89380
G1 X115.360 Y124.804 E21.16204
G1 X115.360 Y125.725 E21.23680
G1 X116.775 Y127.140 E21.39931
G1 X115.854 Y127.140 E21.47407
G1 X115.360 Y126.646 E21.53086
G1 E19.53086 F2400.00000
G92 E0
G1 X85.029 Y127.529 F7800.000
G1 E2.00000 F2400.00000
G1 F900
G1 X72.971 Y127.529 E2.95590
G1 X72.971 Y120.471 E3.51540
G1 X85.029 Y120.471 E4.47130
G1 X85.029 Y127.454 E5.02486
G1 X85.664 Y128.164 F7800.000
G1 F3600
G1 X72.336 Y128.164 E6.08154
G1 X72.336 Y119.836 E6.74182
G1 X85.664 Y119.836 E7.79850
G1 X85.664 Y128.089 E8.45284
G1 X86.225 Y128.725 F7800.000
G1 F1800
G1 X71.775 Y128.725 E9.32807
G1 X71.775 Y119.275 E9.90044
G1 X86.225 Y119.275 E10.77567
G1 X86.225 Y128.650 E11.34350
G1 X85.734 Y128.629 F7800.000
G1 X84.640 Y121.354 F7800.000
G1 F1200
G1 X84.146 Y120.860 E11.40029
G1 X83.225 Y120.860 E11.47505
G1 X84.640 Y122.275 E11.63757
G1 X84.640 Y123.196 E11.71232
G1 X82.304 Y120.860 E11.98056
G1 X81.384 Y120.860 E12.05532
G1 X84.640 Y124.116 E12.42929
G1 X84.640 Y125.037 E12.50405
G1 X80.463 Y120.860 E12.98374
G1 X79.542 Y120.860 E13.05850
G1 X84.640 Y125.958 E13.64391
G1 X84.640 Y126.878 E13.71867
G1 X78.622 Y120.860 E14.40981
G1 X77.701 Y120.860 E14.48457
G1 X83.982 Y127.140 E15.20581
G1 X83.061 Y127.140 E15.28057
G1 X76.780 Y120.860 E16.00180
G1 X75.860 Y120.860 E16.07656
G1 X82.140 Y127.140 E16.79780
G1 X81.220 Y127.140 E16.87256
G1 X74.939 Y120.860 E17.59379
G1 X74.018 Y120.860 E17.66855
G1 X80.299 Y127.140 E18.38979
G1 X79.378 Y127.140 E18.46455
G1 X73.360 Y121.122 E19.15569
G1 X73.360 Y122.042 E19.23045
G1 X78.458 Y127.140 E19.81586
G1 X77.537 Y127.140 E19.89062
G1 X73.360 Y122.963 E20.37031
G1 X73.360 Y123.884 E20.44507
G1 X76.616 Y127.140 E20.81904
G1 X75.696 Y127.140 E20.89380
G1 X73.360 Y124.804 E21.16204
G1 X73.360 Y125.725 E21.23680
G1 X74.775 Y127.140 E21.39931
G1 X73.854 Y127.140 E21.47407
G1 X73.360 Y126.646 E21.53086
G1 Z0.950 F7800.000
G1 E19.53086 F2400.00000
G92 E0
G1 X85.029 Y79.529 F7800.000
G1 E2.00000 F2400.00000
G1 F900
G1 X72.971 Y79.529 E2.95590
G1 X72.971 Y72.471 E3.51540
G1 X85.029 Y72.471 E4.47130
G1 X85.029 Y79.454 E5.02486
G1 X85.664 Y80.164 F7800.000
G1 F3600
G1 X72.336 Y80.164 E6.08154
G1 X72.336 Y71.836 E6.74182
G1 X85.664 Y71.836 E7.79850
G1 X85.664 Y80.089 E8.45284
G1 X86.225 Y80.725 F7800.000
G1 F1800
G1 X71.775 Y80.725 E9.32807
G1 X71.775 Y71.275 E9.90044
G1 X86.225 Y71.275 E10.77567
G1 X86.225 Y80.650 E11.34350
G1 X85.734 Y80.629 F7800.000
G1 X84.146 Y79.140 F7800.000
