; generated by Slic3r 1.3.0 on 2020-11-26 at 20:38:00

; external perimeters extrusion width = 0.55mm (11.65mm^3/s)
; perimeters extrusion width = 0.70mm (30.51mm^3/s)
; infill extrusion width = 0.62mm (30.27mm^3/s)
; solid infill extrusion width = 0.70mm (20.59mm^3/s)
; top infill extrusion width = 0.70mm (10.30mm^3/s)
; support material extrusion width = 0.55mm (8.74mm^3/s)

M107
M104 S200 ; set temperature
G28 ; home all axes
G1 Z5 F5000 ; lift nozzle

; Filament gcode

M109 S200 ; set temperature and wait for it to be reached
G21 ; set units to millimeters
G90 ; use absolute coordinates
M82 ; use absolute distances for extrusion
G92 E0
G1 Z0.350 F10800.000
G1 E-2.00000 F2400.00000
G92 E0
G1 X53.772 Y17.741 F10800.000
G1 E2.00000 F2400.00000
G1 F1800
G1 X54.915 Y15.753 E2.17691
G1 X56.668 Y14.274 E2.35383
G1 X58.820 Y13.481 E2.53074
G1 X60.000 Y13.375 E2.62212
G1 X160.000 Y13.375 E10.33602
G1 X162.259 Y13.772 E10.51293
G1 X164.247 Y14.915 E10.68985
G1 X165.726 Y16.668 E10.86676
G1 X166.519 Y18.820 E11.04368
G1 X166.625 Y20.000 E11.13505
G1 X166.625 Y200.000 E25.02007
G1 X166.228 Y202.259 E25.19699
G1 X165.085 Y204.247 E25.37390
G1 X163.332 Y205.726 E25.55081
G1 X161.180 Y206.519 E25.72773
G1 X160.000 Y206.625 E25.81910
G1 X60.000 Y206.625 E33.53300
G1 X57.741 Y206.228 E33.70992
G1 X55.753 Y205.085 E33.88683
G1 X54.274 Y203.332 E34.06375
G1 X53.481 Y201.180 E34.24066
G1 X53.375 Y200.000 E34.33204
G1 X53.375 Y20.000 E48.21706
G1 X53.759 Y17.815 E48.38819
G1 E46.38819 F2400.00000
G92 E0
G1 X71.306 Y185.979 F10800.000
G1 E2.00000 F2400.00000
G1 F1800
G1 X74.227 Y190.000 E2.38336
G1 X71.306 Y194.021 E2.76671
G1 X66.580 Y192.485 E3.15006
G1 X66.580 Y187.515 E3.53351
G1 X71.235 Y186.002 E3.91107
G1 X71.068 Y186.714 F10800.000
G1 F1800
G1 X73.455 Y190.000 E4.22438
G1 X71.068 Y193.286 E4.53769
G1 X67.205 Y192.031 E4.85100
G1 X67.205 Y187.969 E5.16439
G1 X70.996 Y186.737 E5.47191
G1 X70.829 Y187.449 F10800.000
G1 F1800
G1 X72.683 Y190.000 E5.71519
G1 X70.829 Y192.551 E5.95846
G1 X67.830 Y191.577 E6.20172
G1 X67.830 Y188.423 E6.44506
G1 X70.758 Y187.472 E6.68254
G1 X71.262 Y187.199 F10800.000
G1 E4.68254 F2400.00000
G92 E0
G1 X71.306 Y174.021 F10800.000
G1 E2.00000 F2400.00000
G1 F1800
G1 X66.580 Y172.485 E2.38335
G1 X66.580 Y167.515 E2.76680
G1 X71.306 Y165.979 E3.15015
G1 X74.227 Y170.000 E3.53350
G1 X71.351 Y173.960 E3.91106
G1 X71.068 Y173.286 F10800.000
G1 F1800
G1 X67.205 Y172.031 E4.22437
G1 X67.205 Y167.969 E4.53777
G1 X71.068 Y166.714 E4.85107
G1 X73.455 Y170.000 E5.16438
G1 X71.112 Y173.225 E5.47191
G1 X70.829 Y172.551 F10800.000
G1 F1800
G1 X67.830 Y171.577 E5.71517
G1 X67.830 Y168.423 E5.95851
G1 X70.829 Y167.449 E6.20177
G1 X72.683 Y170.000 E6.44504
G1 X70.873 Y172.491 E6.68253
G1 X70.725 Y173.041 F10800.000
G1 E4.68253 F2400.00000
G92 E0
G1 X146.580 Y172.485 F10800.000
G1 E2.00000 F2400.00000
G1 F1800
G1 X146.580 Y167.515 E2.38345
G1 X151.306 Y165.979 E2.76680
G1 X154.227 Y170.000 E3.15015
G1 X151.306 Y174.021 E3.53350
G1 X146.651 Y172.509 E3.91106
G1 X147.205 Y172.031 F10800.000
G1 F1800
G1 X147.205 Y167.969 E4.22446
G1 X151.068 Y166.714 E4.53776
G1 X153.455 Y170.000 E4.85108
G1 X151.068 Y173.286 E5.16439
G1 X147.276 Y172.055 E5.47191
G1 X147.830 Y171.577 F10800.000
G1 F1800
G1 X147.830 Y168.423 E5.71525
G1 X150.829 Y167.449 E5.95851
G1 X152.683 Y170.000 E6.20178
G1 X150.829 Y172.551 E6.44505
G1 X147.901 Y171.600 E6.68253
G1 X147.332 Y171.630 F10800.000
G1 E4.68253 F2400.00000
G92 E0
G1 X151.306 Y185.979 F10800.000
G1 E2.00000 F2400.00000
G1 F1800
G1 X154.227 Y190.000 E2.38336
G1 X151.306 Y194.021 E2.76670
G1 X146.580 Y192.485 E3.15005
G1 X146.580 Y187.515 E3.53350
G1 X151.235 Y186.003 E3.91107
G1 X151.068 Y186.714 F10800.000
G1 F1800
G1 X153.455 Y190.000 E4.22438
G1 X151.068 Y193.286 E4.53769
G1 X147.205 Y192.031 E4.85100
G1 X147.205 Y187.969 E5.16439
G1 X150.996 Y186.737 E5.47191
G1 X150.829 Y187.449 F10800.000
G1 F1800
G1 X152.683 Y190.000 E5.71518
G1 X150.829 Y192.551 E5.95846
G1 X147.830 Y191.577 E6.20172
G1 X147.830 Y188.423 E6.44506
G1 X150.758 Y187.472 E6.68253
G1 X151.262 Y187.199 F10800.000
G1 E4.68253 F2400.00000
G92 E0
G1 X151.306 Y54.021 F10800.000
G1 E2.00000 F2400.00000
G1 F1800
G1 X146.580 Y52.485 E2.38336
G1 X146.580 Y47.515 E2.76670
G1 X151.306 Y45.979 E3.15006
G1 X154.227 Y50.000 E3.53341
G1 X151.350 Y53.960 E3.91098
G1 X151.068 Y53.286 F10800.000
G1 F1800
G1 X147.205 Y52.031 E4.22430
G1 X147.205 Y47.969 E4.53760
G1 X151.068 Y46.714 E4.85091
G1 X153.455 Y50.000 E5.16423
G1 X151.112 Y53.225 E5.47175
G1 X150.829 Y52.551 F10800.000
G1 F1800
G1 X147.830 Y51.577 E5.71502
G1 X147.830 Y48.423 E5.95828
G1 X150.829 Y47.449 E6.20155
G1 X152.683 Y50.000 E6.44482
G1 X150.873 Y52.491 E6.68230
G1 X150.725 Y53.040 F10800.000
G1 E4.68230 F2400.00000
G92 E0
G1 X151.306 Y34.021 F10800.000
G1 E2.00000 F2400.00000
G1 F1800
G1 X146.580 Y32.485 E2.38336
G1 X146.580 Y27.515 E2.76671
G1 X151.306 Y25.979 E3.15006
G1 X154.227 Y30.000 E3.53341
G1 X151.350 Y33.960 E3.91098
G1 X151.068 Y33.286 F10800.000
G1 F1800
G1 X147.205 Y32.031 E4.22430
G1 X147.205 Y27.969 E4.53760
G1 X151.068 Y26.714 E4.85092
G1 X153.455 Y30.000 E5.16422
G1 X151.112 Y33.225 E5.47175
G1 X150.829 Y32.551 F10800.000
G1 F1800
G1 X147.830 Y31.577 E5.71502
G1 X147.830 Y28.423 E5.95828
G1 X150.829 Y27.449 E6.20155
G1 X152.683 Y30.000 E6.44482
G1 X150.873 Y32.491 E6.68230
G1 X150.725 Y33.040 F10800.000
G1 E4.68230 F2400.00000
G92 E0
G1 X74.227 Y30.000 F10800.000
G1 E2.00000 F2400.00000
G1 F1800
G1 X71.306 Y34.021 E2.38336
G1 X66.580 Y32.485 E2.76671
G1 X66.580 Y27.515 E3.15006
G1 X71.306 Y25.979 E3.53342
G1 X74.183 Y29.939 E3.91098
G1 X73.455 Y30.000 F10800.000
G1 F1800
G1 X71.068 Y33.286 E4.22430
G1 X67.205 Y32.031 E4.53761
G1 X67.205 Y27.969 E4.85091
G1 X71.068 Y26.714 E5.16423
G1 X73.411 Y29.939 E5.47175
G1 X72.683 Y30.000 F10800.000
G1 F1800
G1 X70.829 Y32.551 E5.71502
G1 X67.830 Y31.577 E5.95829
G1 X67.830 Y28.423 E6.20155
G1 X70.829 Y27.449 E6.44482
G1 X72.639 Y29.939 E6.68230
G1 X73.064 Y30.324 F10800.000
G1 E4.68230 F2400.00000
G92 E0
G1 X71.306 Y45.979 F10800.000
G1 E2.00000 F2400.00000
G1 F1800
G1 X74.227 Y50.000 E2.38335
G1 X71.306 Y54.021 E2.76671
G1 X66.580 Y52.485 E3.15006
G1 X66.580 Y47.515 E3.53341
G1 X71.235 Y46.003 E3.91098
G1 X71.068 Y46.714 F10800.000
G1 F1800
G1 X73.455 Y50.000 E4.22429
G1 X71.068 Y53.286 E4.53761
G1 X67.205 Y52.031 E4.85092
G1 X67.205 Y47.969 E5.16422
G1 X70.996 Y46.737 E5.47175
G1 X70.829 Y47.449 F10800.000
G1 F1800
G1 X72.683 Y50.000 E5.71502
G1 X70.829 Y52.551 E5.95829
G1 X67.830 Y51.577 E6.20155
G1 X67.830 Y48.423 E6.44482
G1 X70.758 Y47.472 E6.68230
G1 X71.262 Y47.199 F10800.000
G1 E4.68230 F2400.00000
G92 E0
G1 X61.600 Y21.600 F10800.000
G1 E2.00000 F2400.00000
G1 F1800
G1 X158.400 Y21.600 E9.46709
G1 X158.400 Y198.400 E23.10530
G1 X61.600 Y198.400 E30.57239
G1 X61.600 Y21.675 E44.20482
G1 X60.975 Y20.975 F10800.000
G1 F1800
G1 X159.025 Y20.975 E51.76832
G1 X159.025 Y199.025 E65.50294
G1 X60.975 Y199.025 E73.06643
G1 X60.975 Y21.050 E86.79527
G1 X60.350 Y20.350 F10800.000
G1 F1800
G1 X159.650 Y20.350 E94.45517
G1 X159.650 Y199.650 E108.28619
G1 X60.350 Y199.650 E115.94610
G1 X60.350 Y20.425 E129.77134
G1 X60.819 Y20.524 F10800.000
G1 E127.77134 F2400.00000
G92 E0
G1 X62.468 Y21.982 F10800.000
G1 E2.00000 F2400.00000
G1 F1800
G1 X61.982 Y22.468 E2.05319
G1 X61.982 Y23.354 E2.12170
G1 X63.354 Y21.982 E2.27178
G1 X64.240 Y21.982 E2.34029
G1 X61.982 Y24.240 E2.58726
G1 X61.982 Y25.126 E2.65578
G1 X65.126 Y21.982 E2.99964
G1 X66.012 Y21.982 E3.06815
G1 X61.982 Y26.012 E3.50891
G1 X61.982 Y26.898 E3.57742
G1 X66.898 Y21.982 E4.11507
G1 X67.784 Y21.982 E4.18359
G1 X61.982 Y27.784 E4.81813
G1 X61.982 Y28.670 E4.88664
G1 X68.670 Y21.982 E5.61808
G1 X69.556 Y21.982 E5.68659
G1 X61.982 Y29.556 E6.51492
G1 X61.982 Y30.441 E6.58343
G1 X70.441 Y21.982 E7.50865
G1 X71.327 Y21.982 E7.57716
G1 X66.146 Y27.163 E8.14386
G1 X67.458 Y26.737 E8.25057
G1 X72.213 Y21.982 E8.77063
G1 X73.099 Y21.982 E8.83914
G1 X68.771 Y26.310 E9.31257
G1 X70.083 Y25.884 E9.41928
G1 X73.985 Y21.982 E9.84607
G1 X74.871 Y21.982 E9.91458
G1 X71.329 Y25.524 E10.30204
G1 X71.701 Y26.038 E10.35109
G1 X75.757 Y21.982 E10.79466
G1 X76.643 Y21.982 E10.86318
G1 X72.074 Y26.551 E11.36287
G1 X72.447 Y27.064 E11.41192
G1 X77.529 Y21.982 E11.96774
G1 X78.415 Y21.982 E12.03625
G1 X72.820 Y27.577 E12.64818
G1 X73.193 Y28.090 E12.69723
G1 X79.301 Y21.982 E13.36529
G1 X80.187 Y21.982 E13.43380
G1 X73.565 Y28.603 E14.15797
G1 X73.938 Y29.116 E14.20702
G1 X81.073 Y21.982 E14.98731
G1 X81.959 Y21.982 E15.05583
G1 X74.311 Y29.629 E15.89224
G1 X74.684 Y30.143 E15.94129
G1 X82.845 Y21.982 E16.83382
G1 X83.731 Y21.982 E16.90234
G1 X72.864 Y32.849 E18.09083
G1 E16.09083 F2400.00000
G92 E0
G1 X66.198 Y27.111 F10800.000
G1 E2.00000 F2400.00000
G1 F1800
G1 X61.982 Y31.327 E2.46114
G1 X61.982 Y32.213 E2.52965
G1 X66.198 Y27.997 E2.99079
G1 X66.198 Y28.883 E3.05930
G1 X61.982 Y33.099 E3.52044
G1 X61.982 Y33.985 E3.58895
G1 X66.198 Y29.769 E4.05009
G1 X66.198 Y30.655 E4.11860
G1 X61.982 Y34.871 E4.57974
G1 X61.982 Y35.757 E4.64825
G1 X66.198 Y31.541 E5.10939
G1 X66.198 Y32.427 E5.17790
G1 X61.982 Y36.643 E5.63904
G1 X61.982 Y37.529 E5.70755
G1 X66.664 Y32.847 E6.21961
G1 X67.332 Y33.064 E6.27398
G1 X61.982 Y38.415 E6.85917
G1 X61.982 Y39.301 E6.92768
G1 X68.001 Y33.282 E7.58600
G1 X68.670 Y33.499 E7.64037
G1 X61.982 Y40.187 E8.37182
G1 X61.982 Y41.073 E8.44033
G1 X69.338 Y33.716 E9.24491
G1 X70.007 Y33.933 E9.29928
G1 X61.982 Y41.959 E10.17699
G1 X61.982 Y42.845 E10.24550
G1 X70.676 Y34.151 E11.19634
G1 X71.344 Y34.368 E11.25071
G1 X61.982 Y43.731 E12.27468
G1 X61.982 Y44.617 E12.34319
G1 X84.617 Y21.982 E14.81869
G1 X85.503 Y21.982 E14.88720
G1 X61.982 Y45.503 E17.45960
G1 X61.982 Y46.389 E17.52811
G1 X86.389 Y21.982 E20.19740
G1 X87.275 Y21.982 E20.26591
G1 X61.982 Y47.275 E23.03209
G1 X61.982 Y48.161 E23.10060
G1 X88.161 Y21.982 E25.96367
G1 X89.046 Y21.982 E26.03218
G1 X61.982 Y49.046 E28.99215
G1 X61.982 Y49.932 E29.06066
G1 X89.932 Y21.982 E32.11752
G1 X90.818 Y21.982 E32.18603
G1 X61.982 Y50.818 E35.33978
G1 X61.982 Y51.704 E35.40829
G1 X65.712 Y47.974 E35.81627
G1 X65.712 Y47.304 E35.86806
G1 X66.704 Y46.982 E35.94872
G1 X91.704 Y21.982 E38.68289
G1 X92.590 Y21.982 E38.75140
G1 X68.016 Y46.555 E41.43894
G1 X69.329 Y46.129 E41.54565
G1 X93.476 Y21.982 E44.18655
G1 X94.362 Y21.982 E44.25506
G1 X70.641 Y45.703 E46.84932
G1 X71.302 Y45.488 E46.90306
G1 X71.487 Y45.743 E46.92741
G1 X95.248 Y21.982 E49.52604
G1 X96.134 Y21.982 E49.59456
G1 X71.860 Y46.256 E52.24932
G1 X72.233 Y46.769 E52.29837
G1 X97.020 Y21.982 E55.00924
G1 X97.906 Y21.982 E55.07776
G1 X72.606 Y47.282 E57.84475
G1 X72.978 Y47.795 E57.89380
G1 X98.792 Y21.982 E60.71692
G1 X99.678 Y21.982 E60.78544
G1 X73.351 Y48.308 E63.66467
G1 X73.724 Y48.821 E63.71372
G1 X100.564 Y21.982 E66.64908
G1 X101.450 Y21.982 E66.71759
G1 X74.097 Y49.335 E69.70907
G1 X74.470 Y49.848 E69.75812
G1 X102.336 Y21.982 E72.80572
G1 X103.222 Y21.982 E72.87423
G1 X74.216 Y50.987 E76.04644
G1 X71.862 Y54.227 E76.35612
G1 X104.108 Y21.982 E79.88264
G1 X104.994 Y21.982 E79.95115
G1 X61.982 Y64.994 E84.65518
G1 X61.982 Y65.880 E84.72369
G1 X105.880 Y21.982 E89.52461
G1 X106.765 Y21.982 E89.59313
G1 X61.982 Y66.765 E94.49094
G1 X61.982 Y67.651 E94.55945
G1 X107.651 Y21.982 E99.55416
G1 X108.537 Y21.982 E99.62267
G1 X61.982 Y68.537 E104.71427
G1 X61.982 Y69.423 E104.78279
G1 X109.423 Y21.982 E109.97128
G1 X110.309 Y21.982 E110.03979
G1 X61.982 Y70.309 E115.32518
G1 X61.982 Y71.195 E115.39369
G1 X111.195 Y21.982 E120.77597
G1 X112.081 Y21.982 E120.84448
G1 X61.982 Y72.081 E126.32365
G1 X61.982 Y72.967 E126.39216
G1 X112.967 Y21.982 E131.96822
G1 X113.853 Y21.982 E132.03674
G1 X61.982 Y73.853 E137.70969
G1 X61.982 Y74.739 E137.77820
G1 X114.739 Y21.982 E143.54805
G1 X115.625 Y21.982 E143.61656
G1 X61.982 Y75.625 E149.48330
G1 X61.982 Y76.511 E149.55182
G1 X116.511 Y21.982 E155.51545
G1 X117.397 Y21.982 E155.58396
G1 X61.982 Y77.397 E161.64449
G1 X61.982 Y78.283 E161.71300
G1 X118.283 Y21.982 E167.87042
G1 X119.169 Y21.982 E167.93893
G1 X61.982 Y79.169 E174.19324
G1 X61.982 Y80.055 E174.26175
G1 X120.055 Y21.982 E180.61296
G1 X120.941 Y21.982 E180.68147
G1 X61.982 Y80.941 E187.12956
G1 X61.982 Y81.827 E187.19808
G1 X121.827 Y21.982 E193.74306
G1 X122.713 Y21.982 E193.81158
G1 X61.982 Y82.713 E200.45346
G1 X61.982 Y83.599 E200.52197
G1 X123.599 Y21.982 E207.26074
G1 X124.485 Y21.982 E207.32926
G1 X61.982 Y84.484 E214.16492
G1 X61.982 Y85.370 E214.23343
G1 X125.370 Y21.982 E221.16599
G1 X126.256 Y21.982 E221.23451
G1 X61.982 Y86.256 E228.26395
G1 X61.982 Y87.142 E228.33247
G1 X127.142 Y21.982 E235.45881
G1 X128.028 Y21.982 E235.52732
G1 X61.982 Y88.028 E242.75056
G1 X61.982 Y88.914 E242.81907
G1 X128.914 Y21.982 E250.13920
G1 X129.800 Y21.982 E250.20771
G1 X61.982 Y89.800 E257.62473
G1 X61.982 Y90.686 E257.69325
G1 X130.686 Y21.982 E265.20716
G1 X131.572 Y21.982 E265.27567
G1 X61.982 Y91.572 E272.88648
G1 X61.982 Y92.458 E272.95499
G1 X132.458 Y21.982 E280.66269
G1 X133.344 Y21.982 E280.73120
G1 X61.982 Y93.344 E288.53579
G1 X61.982 Y94.230 E288.60431
G1 X134.230 Y21.982 E296.50579
G1 X135.116 Y21.982 E296.57430
G1 X61.982 Y95.116 E304.57268
G1 X61.982 Y96.002 E304.64119
G1 X136.002 Y21.982 E312.73646
G1 X136.888 Y21.982 E312.80497
G1 X61.982 Y96.888 E320.99713
G1 X61.982 Y97.774 E321.06565
G1 X137.774 Y21.982 E329.35470
G1 X138.660 Y21.982 E329.42321
G1 X61.982 Y98.660 E337.80916
G1 X61.982 Y99.546 E337.87767
G1 X139.546 Y21.982 E346.36051
G1 X140.432 Y21.982 E346.42902
G1 X61.982 Y100.432 E355.00875
G1 X61.982 Y101.318 E355.07727
G1 X141.318 Y21.982 E363.75389
G1 X142.204 Y21.982 E363.82240
G1 X61.982 Y102.204 E372.59592
G1 X61.982 Y103.089 E372.66443
G1 X143.089 Y21.982 E381.53484
G1 X143.975 Y21.982 E381.60336
G1 X61.982 Y103.975 E390.57066
G1 X61.982 Y104.861 E390.63917
G1 X144.861 Y21.982 E399.70336
G1 X145.747 Y21.982 E399.77188
G1 X61.982 Y105.747 E408.93296
G1 X61.982 Y106.633 E409.00148
G1 X146.633 Y21.982 E418.25945
G1 X147.519 Y21.982 E418.32797
G1 X61.982 Y107.519 E427.68284
G1 X61.982 Y108.405 E427.75135
G1 X148.405 Y21.982 E437.20312
G1 X149.291 Y21.982 E437.27163
G1 X61.982 Y109.291 E446.82029
G1 X61.982 Y110.177 E446.88880
G1 X150.177 Y21.982 E456.53435
G1 X151.063 Y21.982 E456.60286
G1 X145.754 Y27.291 E457.18347
G1 X147.067 Y26.864 E457.29019
G1 X151.949 Y21.982 E457.82416
G1 X152.835 Y21.982 E457.89268
G1 X148.379 Y26.438 E458.38002
G1 X149.691 Y26.011 E458.48673
G1 X153.721 Y21.982 E458.92744
G1 X154.607 Y21.982 E458.99595
G1 X151.004 Y25.585 E459.39002
G1 X151.302 Y25.488 E459.41428
G1 X151.590 Y25.884 E459.45218
G1 X155.493 Y21.982 E459.87901
G1 X156.379 Y21.982 E459.94752
G1 X151.963 Y26.398 E460.43047
G1 X152.336 Y26.911 E460.47952
G1 X157.265 Y21.982 E461.01858
G1 X158.018 Y21.982 E461.07687
G1 X158.018 Y22.114 E461.08710
G1 X152.708 Y27.424 E461.66782
G1 X153.081 Y27.937 E461.71687
G1 X158.018 Y23.000 E462.25681
G1 X158.018 Y23.886 E462.32533
G1 X153.454 Y28.450 E462.82450
G1 X153.827 Y28.963 E462.87355
G1 X158.018 Y24.772 E463.33195
G1 X158.018 Y25.658 E463.40046
G1 X154.200 Y29.476 E463.81809
G1 X154.573 Y29.989 E463.86714
G1 X158.018 Y26.544 E464.24399
G1 X158.018 Y27.430 E464.31250
G1 X153.566 Y31.882 E464.79944
G1 E462.79944 F2400.00000
G92 E0
G1 X146.198 Y26.847 F10800.000
G1 E2.00000 F2400.00000
G1 F1800
G1 X61.982 Y111.063 E11.21038
G1 X61.982 Y111.949 E11.27889
G1 X146.198 Y27.733 E20.48927
G1 X146.198 Y28.618 E20.55779
G1 X61.982 Y112.835 E29.76817
G1 X61.982 Y113.721 E29.83668
G1 X146.198 Y29.504 E39.04706
G1 X146.198 Y30.390 E39.11558
G1 X61.982 Y114.607 E48.32596
G1 X61.982 Y115.493 E48.39447
G1 X146.198 Y31.276 E57.60485
G1 X146.198 Y32.162 E57.67336
G1 X61.982 Y116.379 E66.88374
G1 X61.982 Y117.265 E66.95226
G1 X146.464 Y32.782 E76.19174
G1 X147.133 Y32.999 E76.24611
G1 X61.982 Y118.151 E85.55872
G1 X61.982 Y119.037 E85.62723
G1 X147.801 Y33.217 E95.01297
G1 X148.470 Y33.434 E95.06734
G1 X61.982 Y119.923 E104.52621
G1 X61.982 Y120.808 E104.59472
G1 X149.139 Y33.651 E114.12672
