; generated by Slic3r 1.3.0 on 2020-11-27 at 16:52:09

; external perimeters extrusion width = 0.55mm (11.65mm^3/s)
; perimeters extrusion width = 0.70mm (30.51mm^3/s)
; infill extrusion width = 0.62mm (30.27mm^3/s)
; solid infill extrusion width = 0.70mm (20.59mm^3/s)
; top infill extrusion width = 0.70mm (10.30mm^3/s)
; support material extrusion width = 0.55mm (8.74mm^3/s)

M107
M104 S200 ; set temperature
G28 ; home all axes
G1 Z5 F5000 ; lift nozzle

; Filament gcode

M109 S200 ; set temperature and wait for it to be reached
G21 ; set units to millimeters
G90 ; use absolute coordinates
M82 ; use absolute distances for extrusion
G92 E0
G1 Z0.350 F10800.000
G1 E-2.00000 F2400.00000
G92 E0
G1 X56.668 Y84.274 F10800.000
G1 E2.00000 F2400.00000
G1 F1800
G1 X58.820 Y83.481 E2.17691
G1 X60.000 Y83.375 E2.26829
G1 X160.000 Y83.375 E9.98219
G1 X162.259 Y83.772 E10.15910
G1 X164.247 Y84.915 E10.33602
G1 X165.726 Y86.668 E10.51293
G1 X166.519 Y88.820 E10.68985
G1 X166.625 Y90.000 E10.78122
G1 X166.625 Y130.000 E13.86678
G1 X166.228 Y132.259 E14.04370
G1 X165.085 Y134.247 E14.22061
G1 X163.332 Y135.726 E14.39752
G1 X161.180 Y136.519 E14.57444
G1 X160.000 Y136.625 E14.66581
G1 X60.000 Y136.625 E22.37971
G1 X57.741 Y136.228 E22.55663
G1 X55.753 Y135.085 E22.73354
G1 X54.274 Y133.332 E22.91046
G1 X53.481 Y131.180 E23.08737
G1 X53.375 Y130.000 E23.17874
G1 X53.375 Y90.000 E26.26431
G1 X53.772 Y87.741 E26.44122
G1 X54.915 Y85.753 E26.61813
G1 X56.611 Y84.322 E26.78926
G1 E24.78926 F2400.00000
G92 E0
G1 X148.071 Y123.342 F10800.000
G1 E2.00000 F2400.00000
G1 F1800
G1 X147.418 Y122.867 E2.06222
G1 X146.878 Y122.268 E2.12444
G1 X146.475 Y121.569 E2.18667
G1 X146.226 Y120.802 E2.24891
G1 X146.141 Y120.000 E2.31113
G1 X146.226 Y119.198 E2.37335
G1 X146.475 Y118.431 E2.43558
G1 X146.878 Y117.732 E2.49781
G1 X147.418 Y117.133 E2.56003
G1 X148.071 Y116.658 E2.62225
G1 X148.808 Y116.330 E2.68448
G1 X149.597 Y116.163 E2.74670
G1 X150.403 Y116.163 E2.80893
G1 X151.192 Y116.330 E2.87115
G1 X151.929 Y116.658 E2.93338
G1 X152.582 Y117.133 E2.99561
G1 X153.122 Y117.732 E3.05783
G1 X153.525 Y118.431 E3.12006
G1 X153.774 Y119.198 E3.18229
G1 X153.859 Y120.000 E3.24451
G1 X153.774 Y120.802 E3.30673
G1 X153.525 Y121.569 E3.36896
G1 X153.122 Y122.268 E3.43119
G1 X152.582 Y122.867 E3.49341
G1 X151.929 Y123.342 E3.55563
G1 X151.192 Y123.670 E3.61786
G1 X150.403 Y123.837 E3.68009
G1 X149.597 Y123.837 E3.74232
G1 X148.808 Y123.670 E3.80454
G1 X148.139 Y123.372 E3.86098
G1 X148.385 Y122.798 F10800.000
G1 F1800
G1 X147.839 Y122.401 E3.91307
G1 X147.387 Y121.899 E3.96516
G1 X147.049 Y121.314 E4.01726
G1 X146.840 Y120.672 E4.06935
G1 X146.770 Y120.000 E4.12144
G1 X146.840 Y119.328 E4.17353
G1 X147.049 Y118.686 E4.22563
G1 X147.387 Y118.101 E4.27773
G1 X147.839 Y117.599 E4.32982
G1 X148.385 Y117.202 E4.38191
G1 X149.002 Y116.928 E4.43400
G1 X149.662 Y116.787 E4.48609
G1 X150.338 Y116.787 E4.53819
G1 X150.998 Y116.928 E4.59028
G1 X151.615 Y117.202 E4.64237
G1 X152.161 Y117.599 E4.69446
G1 X152.613 Y118.101 E4.74655
G1 X152.951 Y118.686 E4.79865
G1 X153.160 Y119.328 E4.85075
G1 X153.230 Y120.000 E4.90284
G1 X153.160 Y120.672 E4.95493
G1 X152.951 Y121.314 E5.00702
G1 X152.613 Y121.899 E5.05912
G1 X152.161 Y122.401 E5.11121
G1 X151.615 Y122.798 E5.16330
G1 X150.998 Y123.072 E5.21539
G1 X150.338 Y123.213 E5.26748
G1 X149.662 Y123.213 E5.31958
G1 X149.002 Y123.072 E5.37167
G1 X148.453 Y122.828 E5.41798
G1 X148.699 Y122.253 F10800.000
G1 F1800
G1 X148.259 Y121.934 E5.45994
G1 X147.895 Y121.529 E5.50190
G1 X147.623 Y121.058 E5.54386
G1 X147.455 Y120.541 E5.58582
G1 X147.398 Y120.000 E5.62778
G1 X147.455 Y119.459 E5.66974
G1 X147.623 Y118.942 E5.71170
G1 X147.895 Y118.471 E5.75366
G1 X148.259 Y118.066 E5.79562
G1 X148.699 Y117.747 E5.83758
G1 X149.196 Y117.525 E5.87954
G1 X149.728 Y117.412 E5.92150
G1 X150.272 Y117.412 E5.96346
G1 X150.804 Y117.525 E6.00542
G1 X151.301 Y117.747 E6.04738
G1 X151.741 Y118.066 E6.08934
G1 X152.105 Y118.471 E6.13130
G1 X152.377 Y118.942 E6.17326
G1 X152.545 Y119.459 E6.21522
G1 X152.602 Y120.000 E6.25718
G1 X152.545 Y120.541 E6.29914
G1 X152.377 Y121.058 E6.34110
G1 X152.105 Y121.529 E6.38306
G1 X151.741 Y121.934 E6.42502
G1 X151.301 Y122.253 E6.46698
G1 X150.804 Y122.475 E6.50894
G1 X150.272 Y122.588 E6.55090
G1 X149.728 Y122.588 E6.59286
G1 X149.196 Y122.475 E6.63482
G1 X148.768 Y122.284 E6.67099
G1 X148.699 Y122.253 F10800.000
G1 E4.67099 F2400.00000
G92 E0
G1 X149.597 Y103.837 F10800.000
G1 E2.00000 F2400.00000
G1 F1800
G1 X148.808 Y103.670 E2.06222
G1 X148.071 Y103.342 E2.12445
G1 X147.418 Y102.867 E2.18668
G1 X146.878 Y102.268 E2.24889
G1 X146.475 Y101.569 E2.31113
G1 X146.226 Y100.802 E2.37336
G1 X146.141 Y100.000 E2.43558
G1 X146.226 Y99.198 E2.49780
G1 X146.475 Y98.431 E2.56002
G1 X146.878 Y97.732 E2.62226
G1 X147.418 Y97.133 E2.68448
G1 X148.071 Y96.658 E2.74670
G1 X148.808 Y96.330 E2.80893
G1 X149.597 Y96.163 E2.87115
G1 X150.403 Y96.163 E2.93338
G1 X151.192 Y96.330 E2.99560
G1 X151.929 Y96.658 E3.05783
G1 X152.582 Y97.133 E3.12005
G1 X153.122 Y97.732 E3.18227
G1 X153.525 Y98.431 E3.24451
G1 X153.774 Y99.198 E3.30673
G1 X153.859 Y100.000 E3.36896
G1 X153.774 Y100.802 E3.43118
G1 X153.525 Y101.569 E3.49341
G1 X153.122 Y102.268 E3.55564
G1 X152.582 Y102.867 E3.61786
G1 X151.929 Y103.342 E3.68008
G1 X151.192 Y103.670 E3.74231
G1 X150.403 Y103.837 E3.80453
G1 X149.672 Y103.837 E3.86098
G1 X149.662 Y103.213 F10800.000
G1 F1800
G1 X149.002 Y103.072 E3.91307
G1 X148.385 Y102.798 E3.96516
G1 X147.839 Y102.401 E4.01725
G1 X147.387 Y101.899 E4.06934
G1 X147.049 Y101.314 E4.12144
G1 X146.840 Y100.672 E4.17353
G1 X146.770 Y100.000 E4.22562
G1 X146.840 Y99.328 E4.27771
G1 X147.049 Y98.686 E4.32981
G1 X147.387 Y98.101 E4.38191
G1 X147.839 Y97.599 E4.43400
G1 X148.385 Y97.203 E4.48608
G1 X149.002 Y96.928 E4.53818
G1 X149.662 Y96.787 E4.59027
G1 X150.338 Y96.787 E4.64237
G1 X150.998 Y96.928 E4.69446
G1 X151.615 Y97.203 E4.74655
G1 X152.161 Y97.599 E4.79864
G1 X152.613 Y98.101 E4.85073
G1 X152.951 Y98.686 E4.90283
G1 X153.160 Y99.328 E4.95492
G1 X153.230 Y100.000 E5.00701
G1 X153.160 Y100.672 E5.05910
G1 X152.951 Y101.314 E5.11120
G1 X152.613 Y101.899 E5.16329
G1 X152.161 Y102.401 E5.21538
G1 X151.615 Y102.798 E5.26747
G1 X150.998 Y103.072 E5.31957
G1 X150.338 Y103.213 E5.37166
G1 X149.737 Y103.213 E5.41797
G1 X149.728 Y102.588 F10800.000
G1 F1800
G1 X149.196 Y102.475 E5.45993
G1 X148.699 Y102.253 E5.50189
G1 X148.259 Y101.934 E5.54385
G1 X147.895 Y101.529 E5.58581
G1 X147.623 Y101.058 E5.62777
G1 X147.455 Y100.541 E5.66973
G1 X147.398 Y100.000 E5.71169
G1 X147.455 Y99.459 E5.75365
G1 X147.623 Y98.942 E5.79561
G1 X147.895 Y98.471 E5.83757
G1 X148.259 Y98.066 E5.87953
G1 X148.699 Y97.747 E5.92149
G1 X149.196 Y97.525 E5.96345
G1 X149.728 Y97.412 E6.00541
G1 X150.272 Y97.412 E6.04737
G1 X150.804 Y97.525 E6.08933
G1 X151.301 Y97.747 E6.13129
G1 X151.741 Y98.066 E6.17324
G1 X152.105 Y98.471 E6.21520
G1 X152.377 Y98.942 E6.25717
G1 X152.545 Y99.459 E6.29913
G1 X152.602 Y100.000 E6.34109
G1 X152.545 Y100.541 E6.38304
G1 X152.377 Y101.058 E6.42501
G1 X152.105 Y101.529 E6.46697
G1 X151.741 Y101.934 E6.50893
G1 X151.301 Y102.253 E6.55089
G1 X150.804 Y102.475 E6.59285
G1 X150.272 Y102.588 E6.63480
G1 X149.803 Y102.588 E6.67098
G1 X149.728 Y102.588 F10800.000
G1 E4.67098 F2400.00000
G92 E0
G1 X158.400 Y91.600 F10800.000
G1 E2.00000 F2400.00000
G1 F1800
G1 X158.400 Y128.400 E4.83875
G1 X139.600 Y128.400 E6.28900
G1 X139.600 Y91.600 E9.12775
G1 X158.325 Y91.600 E10.57221
G1 X159.025 Y90.975 F10800.000
G1 F1800
G1 X159.025 Y129.025 E13.50737
G1 X138.975 Y129.025 E15.05402
G1 X138.975 Y90.975 E17.98918
G1 X158.950 Y90.975 E19.53005
G1 X159.650 Y90.350 F10800.000
G1 F1800
G1 X159.650 Y129.650 E22.56161
G1 X138.350 Y129.650 E24.20467
G1 X138.350 Y90.350 E27.23623
G1 X159.575 Y90.350 E28.87351
G1 X159.568 Y90.843 F10800.000
G1 E26.87351 F2400.00000
G92 E0
G1 X154.079 Y101.381 F10800.000
G1 E2.00000 F2400.00000
G1 F1800
G1 X158.018 Y97.442 E2.43035
G1 X158.018 Y96.557 E2.49872
G1 X154.234 Y100.341 E2.91222
G1 X154.244 Y100.243 E2.91986
G1 X154.168 Y99.522 E2.97588
G1 X158.018 Y95.672 E3.39653
G1 X158.018 Y94.787 E3.46489
G1 X153.986 Y98.819 E3.90542
G1 X153.856 Y98.418 E3.93796
G1 X153.726 Y98.194 E3.95799
G1 X158.018 Y93.902 E4.42689
G1 X158.018 Y93.017 E4.49526
G1 X153.402 Y97.632 E4.99956
G1 X152.988 Y97.162 E5.04800
G1 X158.018 Y92.131 E5.59761
G1 X158.018 Y91.982 E5.60919
G1 X157.283 Y91.982 E5.66598
G1 X152.526 Y96.739 E6.18573
G1 X152.013 Y96.367 E6.23467
G1 X156.398 Y91.982 E6.71373
G1 X155.513 Y91.982 E6.78210
G1 X151.403 Y96.091 E7.23110
G1 X151.144 Y95.976 E7.25307
G1 X150.723 Y95.886 E7.28625
G1 X154.628 Y91.982 E7.71286
G1 X153.743 Y91.982 E7.78123
G1 X149.944 Y95.781 E8.19628
G1 X149.288 Y95.781 E8.24697
G1 X148.997 Y95.842 E8.26992
G1 X152.858 Y91.982 E8.69172
G1 X151.973 Y91.982 E8.76009
G1 X147.665 Y96.290 E9.23077
G1 X147.513 Y96.357 E9.24357
G1 X146.755 Y96.909 E9.31603
G1 X146.127 Y97.606 E9.38849
G1 X145.824 Y98.131 E9.43537
G1 E7.43537 F2400.00000
G92 E0
G1 X140.468 Y91.982 F10800.000
G1 E2.00000 F2400.00000
G1 F1800
G1 X139.982 Y92.468 E2.05313
G1 X139.982 Y93.353 E2.12149
G1 X141.353 Y91.982 E2.27131
G1 X142.238 Y91.982 E2.33968
G1 X139.982 Y94.238 E2.58618
G1 X139.982 Y95.123 E2.65455
G1 X143.123 Y91.982 E2.99774
G1 X144.008 Y91.982 E3.06611
G1 X139.982 Y96.008 E3.50599
G1 X139.982 Y96.893 E3.57436
G1 X144.893 Y91.982 E4.11092
G1 X145.778 Y91.982 E4.17929
G1 X139.982 Y97.778 E4.81255
G1 X139.982 Y98.663 E4.88092
G1 X146.663 Y91.982 E5.61086
G1 X147.548 Y91.982 E5.67923
G1 X139.982 Y99.548 E6.50587
G1 X139.982 Y100.433 E6.57423
G1 X148.433 Y91.982 E7.49756
G1 X149.318 Y91.982 E7.56592
G1 X139.982 Y101.318 E8.58593
G1 X139.982 Y102.203 E8.65430
G1 X150.203 Y91.982 E9.77100
G1 X151.088 Y91.982 E9.83937
G1 X139.982 Y103.088 E11.05276
G1 X139.982 Y103.973 E11.12113
G1 X146.310 Y97.645 E11.81247
G1 X146.144 Y97.932 E11.83806
G1 X145.854 Y98.824 E11.91053
G1 X145.835 Y99.005 E11.92454
G1 X139.982 Y104.858 E12.56404
G1 X139.982 Y105.743 E12.63241
G1 X145.776 Y99.949 E13.26548
G1 X145.870 Y100.739 E13.32701
G1 X139.982 Y106.628 E13.97036
G1 X139.982 Y107.513 E14.03872
G1 X146.087 Y101.408 E14.70577
G1 X146.144 Y101.582 E14.71994
G1 X146.383 Y101.996 E14.75692
G1 X139.982 Y108.398 E15.45631
G1 X139.982 Y109.283 E15.52468
G1 X146.735 Y102.530 E16.26249
G1 X147.154 Y102.995 E16.31091
G1 X139.982 Y110.168 E17.09453
G1 X139.982 Y111.053 E17.16290
G1 X147.648 Y103.387 E18.00043
G1 X148.000 Y103.643 E18.03402
G1 X148.192 Y103.728 E18.05026
G1 X139.982 Y111.938 E18.94721
G1 X139.982 Y112.823 E19.01558
G1 X148.804 Y104.001 E19.97942
G1 X149.524 Y104.166 E20.03648
G1 X139.982 Y113.708 E21.07896
G1 X139.982 Y114.593 E21.14733
G1 X150.356 Y104.219 E22.28070
G1 X150.712 Y104.219 E22.30823
G1 X151.383 Y104.077 E22.36125
G1 X139.982 Y115.478 E23.60689
G1 X139.982 Y116.363 E23.67526
G1 X158.018 Y98.327 E25.64578
G1 X158.018 Y99.212 E25.71415
G1 X139.982 Y117.248 E27.68467
G1 X139.982 Y118.133 E27.75304
G1 X158.018 Y100.097 E29.72356
G1 X158.018 Y100.982 E29.79193
G1 X139.982 Y119.018 E31.76245
G1 X139.982 Y119.903 E31.83082
G1 X158.018 Y101.867 E33.80135
G1 X158.018 Y102.752 E33.86971
G1 X139.982 Y120.788 E35.84024
G1 X139.982 Y121.673 E35.90861
G1 X158.018 Y103.637 E37.87913
G1 X158.018 Y104.522 E37.94750
G1 X139.982 Y122.558 E39.91802
G1 X139.982 Y123.444 E39.98639
G1 X158.018 Y105.407 E41.95691
G1 X158.018 Y106.292 E42.02528
G1 X148.306 Y116.005 E43.08641
G1 X148.370 Y115.976 E43.09190
G1 X149.288 Y115.781 E43.16436
G1 X149.414 Y115.781 E43.17413
G1 X158.018 Y107.177 E44.11411
G1 X158.018 Y108.062 E44.18248
G1 X150.287 Y115.794 E45.02718
G1 X151.016 Y115.949 E45.08482
G1 X158.018 Y108.947 E45.84978
G1 X158.018 Y109.832 E45.91815
G1 X151.649 Y116.201 E46.61397
G1 X152.000 Y116.357 E46.64367
G1 X152.219 Y116.516 E46.66455
G1 X158.018 Y110.717 E47.29812
G1 X158.018 Y111.602 E47.36649
G1 X152.732 Y116.889 E47.94406
G1 X153.156 Y117.349 E47.99244
G1 X158.018 Y112.487 E48.52366
G1 X158.018 Y113.372 E48.59203
G1 X153.533 Y117.858 E49.08211
G1 X153.856 Y118.419 E49.13216
G1 X158.018 Y114.257 E49.58687
G1 X158.018 Y115.142 E49.65524
G1 X154.073 Y119.087 E50.08624
G1 X154.146 Y119.310 E50.10437
G1 X154.202 Y119.843 E50.14579
G1 X158.018 Y116.027 E50.56274
G1 X158.018 Y116.912 E50.63111
G1 X154.192 Y120.739 E51.04917
G1 X154.146 Y121.176 E51.08313
G1 X153.908 Y121.907 E51.14253
G1 X158.018 Y117.797 E51.59156
G1 X158.018 Y118.682 E51.65993
G1 X148.682 Y128.018 E52.67993
G1 X149.567 Y128.018 E52.74830
G1 X158.018 Y119.567 E53.67161
G1 X158.018 Y120.452 E53.73998
G1 X150.452 Y128.018 E54.56660
G1 X151.337 Y128.018 E54.63497
G1 X158.018 Y121.337 E55.36491
G1 X158.018 Y122.222 E55.43328
G1 X152.222 Y128.018 E56.06653
G1 X153.107 Y128.018 E56.13490
G1 X158.018 Y123.107 E56.67145
G1 X158.018 Y123.992 E56.73982
G1 X153.992 Y128.018 E57.17969
G1 X154.877 Y128.018 E57.24806
G1 X158.018 Y124.877 E57.59125
G1 X158.018 Y125.762 E57.65961
G1 X155.762 Y128.018 E57.90611
G1 X156.647 Y128.018 E57.97448
G1 X158.018 Y126.647 E58.12428
G1 X158.018 Y127.532 E58.19265
G1 X157.532 Y128.018 E58.24577
G1 E56.24577 F2400.00000
G92 E0
G1 X147.797 Y128.018 F10800.000
G1 E2.00000 F2400.00000
G1 F1800
G1 X151.921 Y123.895 E2.45052
G1 X151.630 Y124.024 E2.47514
G1 X150.711 Y124.219 E2.54768
G1 X146.912 Y128.018 E2.96273
G1 X146.027 Y128.018 E3.03110
G1 X149.826 Y124.219 E3.44614
G1 X149.087 Y124.073 E3.50434
G1 X145.142 Y128.018 E3.93534
G1 X144.257 Y128.018 E4.00371
G1 X148.438 Y123.838 E4.46044
G1 X148.000 Y123.643 E4.49748
G1 X147.854 Y123.537 E4.51142
G1 X143.372 Y128.018 E5.00104
G1 X142.487 Y128.018 E5.06941
G1 X147.341 Y123.164 E5.59972
G1 X147.241 Y123.091 E5.60930
G1 X146.903 Y122.717 E5.64824
G1 X141.602 Y128.018 E6.22744
G1 X140.717 Y128.018 E6.29581
G1 X146.513 Y122.222 E6.92909
G1 X146.189 Y121.661 E6.97914
G1 X139.982 Y127.869 E7.65734
G1 X139.982 Y126.984 E7.72571
G1 X145.957 Y121.008 E8.37858
G1 X145.854 Y120.690 E8.40440
G1 X145.810 Y120.270 E8.43700
G1 X139.982 Y126.099 E9.07376
G1 X139.982 Y125.214 E9.14213
G1 X145.793 Y119.402 E9.77708
G1 X145.854 Y118.824 E9.82194
G1 X146.031 Y118.279 E9.86623
G1 X139.982 Y124.329 E10.52716
G1 X139.982 Y123.444 E10.59553
G1 E8.59553 F2400.00000
G92 E0
G1 X73.525 Y118.431 F10800.000
G1 E2.00000 F2400.00000
G1 F1800
G1 X73.774 Y119.198 E2.06223
G1 X73.859 Y120.000 E2.12445
G1 X73.774 Y120.802 E2.18667
G1 X73.525 Y121.569 E2.24890
G1 X73.122 Y122.268 E2.31113
G1 X72.582 Y122.867 E2.37335
G1 X71.929 Y123.342 E2.43557
G1 X71.192 Y123.670 E2.49780
G1 X70.403 Y123.837 E2.56003
G1 X69.597 Y123.837 E2.62225
G1 X68.808 Y123.670 E2.68448
G1 X68.071 Y123.342 E2.74670
G1 X67.418 Y122.867 E2.80893
G1 X66.878 Y122.268 E2.87116
G1 X66.475 Y121.569 E2.93338
G1 X66.226 Y120.802 E2.99561
G1 X66.141 Y120.000 E3.05783
G1 X66.226 Y119.198 E3.12005
G1 X66.475 Y118.431 E3.18229
G1 X66.878 Y117.732 E3.24451
G1 X67.418 Y117.133 E3.30673
G1 X68.071 Y116.658 E3.36896
G1 X68.808 Y116.330 E3.43119
G1 X69.597 Y116.163 E3.49341
G1 X70.403 Y116.163 E3.55564
G1 X71.192 Y116.330 E3.61786
G1 X71.929 Y116.658 E3.68009
G1 X72.582 Y117.133 E3.74231
G1 X73.122 Y117.732 E3.80453
G1 X73.488 Y118.366 E3.86098
G1 X72.951 Y118.686 F10800.000
G1 F1800
G1 X73.160 Y119.328 E3.91307
G1 X73.230 Y120.000 E3.96516
G1 X73.160 Y120.672 E4.01725
G1 X72.951 Y121.314 E4.06935
G1 X72.613 Y121.899 E4.12145
G1 X72.161 Y122.401 E4.17354
G1 X71.615 Y122.798 E4.22563
G1 X70.998 Y123.072 E4.27772
G1 X70.338 Y123.213 E4.32981
G1 X69.662 Y123.213 E4.38191
G1 X69.002 Y123.072 E4.43400
G1 X68.385 Y122.798 E4.48609
G1 X67.839 Y122.401 E4.53819
G1 X67.387 Y121.899 E4.59028
G1 X67.049 Y121.314 E4.64237
G1 X66.840 Y120.672 E4.69447
G1 X66.770 Y120.000 E4.74656
G1 X66.840 Y119.328 E4.79865
G1 X67.049 Y118.686 E4.85074
G1 X67.387 Y118.101 E4.90283
G1 X67.839 Y117.599 E4.95492
G1 X68.385 Y117.202 E5.00702
G1 X69.002 Y116.928 E5.05911
G1 X69.662 Y116.787 E5.11121
G1 X70.338 Y116.787 E5.16330
G1 X70.998 Y116.928 E5.21539
G1 X71.615 Y117.202 E5.26749
G1 X72.161 Y117.599 E5.31958
