; generated by Slic3r 1.3.0 on 2020-12-23 at 22:24:33

; external perimeters extrusion width = 0.55mm (4.37mm^3/s)
; perimeters extrusion width = 0.70mm (11.44mm^3/s)
; infill extrusion width = 0.62mm (13.45mm^3/s)
; solid infill extrusion width = 0.70mm (3.81mm^3/s)
; top infill extrusion width = 0.70mm (2.86mm^3/s)

M107
M104 S200 ; set temperature
G28 ; home all axes
G1 Z5 F5000 ; lift nozzle

; Filament gcode

M109 S200 ; set temperature and wait for it to be reached
G21 ; set units to millimeters
G90 ; use absolute coordinates
M82 ; use absolute distances for extrusion
G92 E0
G1 Z0.350 F7800.000
G1 E-2.00000 F2400.00000
G92 E0
G1 X23.820 Y75.481 F7800.000
G1 E2.00000 F2400.00000
G1 F1800
G1 X25.000 Y75.375 E2.10771
G1 X175.000 Y75.375 E15.74715
G1 X177.259 Y75.772 E15.95569
G1 X179.247 Y76.915 E16.16423
G1 X180.726 Y78.668 E16.37277
G1 X181.519 Y80.820 E16.58132
G1 X181.625 Y82.000 E16.68902
G1 X181.625 Y118.000 E19.96249
G1 X181.228 Y120.259 E20.17103
G1 X180.085 Y122.247 E20.37957
G1 X178.332 Y123.726 E20.58812
G1 X176.180 Y124.519 E20.79666
G1 X175.000 Y124.625 E20.90437
G1 X25.000 Y124.625 E34.54380
G1 X22.741 Y124.228 E34.75235
G1 X20.753 Y123.085 E34.96089
G1 X19.274 Y121.332 E35.16943
G1 X18.481 Y119.180 E35.37797
G1 X18.375 Y118.000 E35.48568
G1 X18.375 Y82.000 E38.75915
G1 X18.772 Y79.741 E38.96769
G1 X19.915 Y77.753 E39.17623
G1 X21.668 Y76.274 E39.38477
G1 X23.750 Y75.507 E39.58650
G1 E37.58650 F2400.00000
G92 E0
G1 X26.600 Y116.400 F7800.000
G1 E2.00000 F2400.00000
G1 F1800
G1 X26.600 Y104.600 E3.07301
G1 X173.400 Y104.600 E16.42151
G1 X173.400 Y116.400 E17.49452
G1 X26.675 Y116.400 E30.83620
G1 X25.975 Y117.025 F7800.000
G1 F1800
G1 X25.975 Y103.975 E32.02286
G1 X174.025 Y103.975 E45.48500
G1 X174.025 Y117.025 E46.67165
G1 X26.050 Y117.025 E60.12698
G1 X25.350 Y117.650 F7800.000
G1 F1800
G1 X25.350 Y103.350 E61.42727
G1 X174.650 Y103.350 E75.00306
G1 X174.650 Y117.650 E76.30335
G1 X25.425 Y117.650 E89.87232
G1 X25.586 Y117.209 F7800.000
G1 E87.87232 F2400.00000
G92 E0
G1 X27.468 Y104.982 F7800.000
G1 E2.00000 F2400.00000
G1 F1800
G1 X26.982 Y105.468 E2.06278
G1 X26.982 Y106.355 E2.14372
G1 X28.355 Y104.982 E2.32097
G1 X29.242 Y104.982 E2.40191
G1 X26.982 Y107.242 E2.69363
G1 X26.982 Y108.129 E2.77457
G1 X30.129 Y104.982 E3.18076
G1 X31.016 Y104.982 E3.26170
G1 X26.982 Y109.016 E3.78235
G1 X26.982 Y109.903 E3.86330
G1 X31.903 Y104.982 E4.49842
G1 X32.790 Y104.982 E4.57936
G1 X26.982 Y110.790 E5.32895
G1 X26.982 Y111.677 E5.40990
G1 X33.677 Y104.982 E6.27396
G1 X34.564 Y104.982 E6.35490
G1 X26.982 Y112.564 E7.33343
G1 X26.982 Y113.450 E7.41437
G1 X35.450 Y104.982 E8.50737
G1 X36.337 Y104.982 E8.58831
G1 X26.982 Y114.337 E9.79578
G1 X26.982 Y115.224 E9.87672
G1 X37.224 Y104.982 E11.19866
G1 X38.111 Y104.982 E11.27960
G1 X27.075 Y116.018 E12.70402
G1 X27.961 Y116.018 E12.78496
G1 X38.998 Y104.982 E14.20937
G1 X39.885 Y104.982 E14.29031
G1 X28.848 Y116.018 E15.71473
G1 X29.735 Y116.018 E15.79567
G1 X40.772 Y104.982 E17.22008
G1 X41.659 Y104.982 E17.30103
G1 X30.622 Y116.018 E18.72544
G1 X31.509 Y116.018 E18.80638
G1 X42.546 Y104.982 E20.23080
G1 X43.433 Y104.982 E20.31174
G1 X32.396 Y116.018 E21.73615
G1 X33.283 Y116.018 E21.81709
G1 X44.320 Y104.982 E23.24151
G1 X45.207 Y104.982 E23.32245
G1 X34.170 Y116.018 E24.74686
G1 X35.057 Y116.018 E24.82781
G1 X46.094 Y104.982 E26.25222
G1 X46.981 Y104.982 E26.33316
G1 X35.944 Y116.018 E27.75758
G1 X36.831 Y116.018 E27.83852
G1 X47.868 Y104.982 E29.26293
G1 X48.755 Y104.982 E29.34387
G1 X37.718 Y116.018 E30.76829
G1 X38.605 Y116.018 E30.84923
G1 X49.641 Y104.982 E32.27364
G1 X50.528 Y104.982 E32.35459
G1 X39.492 Y116.018 E33.77900
G1 X40.379 Y116.018 E33.85994
G1 X51.415 Y104.982 E35.28436
G1 X52.302 Y104.982 E35.36530
G1 X41.266 Y116.018 E36.78971
G1 X42.152 Y116.018 E36.87065
G1 X53.189 Y104.982 E38.29507
G1 X54.076 Y104.982 E38.37601
G1 X43.039 Y116.018 E39.80043
G1 X43.926 Y116.018 E39.88137
G1 X54.963 Y104.982 E41.30578
G1 X55.850 Y104.982 E41.38672
G1 X44.813 Y116.018 E42.81114
G1 X45.700 Y116.018 E42.89208
G1 X56.737 Y104.982 E44.31649
G1 X57.624 Y104.982 E44.39744
G1 X46.587 Y116.018 E45.82185
G1 X47.474 Y116.018 E45.90279
G1 X58.511 Y104.982 E47.32721
G1 X59.398 Y104.982 E47.40815
G1 X48.361 Y116.018 E48.83256
G1 X49.248 Y116.018 E48.91350
G1 X60.285 Y104.982 E50.33792
G1 X61.172 Y104.982 E50.41886
G1 X50.135 Y116.018 E51.84327
G1 X51.022 Y116.018 E51.92422
G1 X62.059 Y104.982 E53.34863
G1 X62.946 Y104.982 E53.42957
G1 X51.909 Y116.018 E54.85399
G1 X52.796 Y116.018 E54.93493
G1 X63.832 Y104.982 E56.35934
G1 X64.719 Y104.982 E56.44028
G1 X53.683 Y116.018 E57.86470
G1 X54.570 Y116.018 E57.94564
G1 X65.606 Y104.982 E59.37005
G1 X66.493 Y104.982 E59.45100
G1 X55.457 Y116.018 E60.87541
G1 X56.343 Y116.018 E60.95635
G1 X67.380 Y104.982 E62.38077
G1 X68.267 Y104.982 E62.46171
G1 X57.230 Y116.018 E63.88612
G1 X58.117 Y116.018 E63.96706
G1 X69.154 Y104.982 E65.39148
G1 X70.041 Y104.982 E65.47242
G1 X59.004 Y116.018 E66.89683
G1 X59.891 Y116.018 E66.97778
G1 X70.928 Y104.982 E68.40219
G1 X71.815 Y104.982 E68.48313
G1 X60.778 Y116.018 E69.90755
G1 X61.665 Y116.018 E69.98849
G1 X72.702 Y104.982 E71.41290
G1 X73.589 Y104.982 E71.49384
G1 X62.552 Y116.018 E72.91826
G1 X63.439 Y116.018 E72.99920
G1 X74.476 Y104.982 E74.42361
G1 X75.363 Y104.982 E74.50456
G1 X64.326 Y116.018 E75.92897
G1 X65.213 Y116.018 E76.00991
G1 X76.250 Y104.982 E77.43433
G1 X77.137 Y104.982 E77.51527
G1 X66.100 Y116.018 E78.93968
G1 X66.987 Y116.018 E79.02062
G1 X78.023 Y104.982 E80.44504
G1 X78.910 Y104.982 E80.52598
G1 X67.874 Y116.018 E81.95039
G1 X68.761 Y116.018 E82.03134
G1 X79.797 Y104.982 E83.45575
G1 X80.684 Y104.982 E83.53669
G1 X69.648 Y116.018 E84.96111
G1 X70.534 Y116.018 E85.04205
G1 X81.571 Y104.982 E86.46646
G1 X82.458 Y104.982 E86.54740
G1 X71.421 Y116.018 E87.97182
G1 X72.308 Y116.018 E88.05276
G1 X83.345 Y104.982 E89.47717
G1 X84.232 Y104.982 E89.55811
G1 X73.195 Y116.018 E90.98253
G1 X74.082 Y116.018 E91.06347
G1 X85.119 Y104.982 E92.48788
G1 X86.006 Y104.982 E92.56883
G1 X74.969 Y116.018 E93.99324
G1 X75.856 Y116.018 E94.07418
G1 X86.893 Y104.982 E95.49860
G1 X87.780 Y104.982 E95.57954
G1 X76.743 Y116.018 E97.00395
G1 X77.630 Y116.018 E97.08489
G1 X88.667 Y104.982 E98.50931
G1 X89.554 Y104.982 E98.59025
G1 X78.517 Y116.018 E100.01466
G1 X79.404 Y116.018 E100.09561
G1 X90.441 Y104.982 E101.52002
G1 X91.328 Y104.982 E101.60096
G1 X80.291 Y116.018 E103.02538
G1 X81.178 Y116.018 E103.10632
G1 X92.214 Y104.982 E104.53073
G1 X93.101 Y104.982 E104.61167
G1 X82.065 Y116.018 E106.03609
G1 X82.952 Y116.018 E106.11703
G1 X93.988 Y104.982 E107.54144
G1 X94.875 Y104.982 E107.62238
G1 X83.838 Y116.018 E109.04680
G1 X84.725 Y116.018 E109.12774
G1 X95.762 Y104.982 E110.55216
G1 X96.649 Y104.982 E110.63310
G1 X85.612 Y116.018 E112.05751
G1 X86.499 Y116.018 E112.13845
G1 X97.536 Y104.982 E113.56287
G1 X98.423 Y104.982 E113.64381
G1 X87.386 Y116.018 E115.06822
G1 X88.273 Y116.018 E115.14916
G1 X99.310 Y104.982 E116.57358
G1 X100.197 Y104.982 E116.65452
G1 X89.160 Y116.018 E118.07893
G1 X90.047 Y116.018 E118.15988
G1 X101.084 Y104.982 E119.58429
G1 X101.971 Y104.982 E119.66523
G1 X90.934 Y116.018 E121.08965
G1 X91.821 Y116.018 E121.17059
G1 X102.858 Y104.982 E122.59500
G1 X103.745 Y104.982 E122.67594
G1 X92.708 Y116.018 E124.10036
G1 X93.595 Y116.018 E124.18130
G1 X104.632 Y104.982 E125.60571
G1 X105.519 Y104.982 E125.68666
G1 X94.482 Y116.018 E127.11107
G1 X95.369 Y116.018 E127.19201
G1 X106.405 Y104.982 E128.61643
G1 X107.292 Y104.982 E128.69737
G1 X96.256 Y116.018 E130.12178
G1 X97.143 Y116.018 E130.20272
G1 X108.179 Y104.982 E131.62714
G1 X109.066 Y104.982 E131.70808
G1 X98.029 Y116.018 E133.13249
G1 X98.916 Y116.018 E133.21344
G1 X109.953 Y104.982 E134.63785
G1 X110.840 Y104.982 E134.71879
G1 X99.803 Y116.018 E136.14321
G1 X100.690 Y116.018 E136.22415
G1 X111.727 Y104.982 E137.64856
G1 X112.614 Y104.982 E137.72950
G1 X101.577 Y116.018 E139.15392
G1 X102.464 Y116.018 E139.23486
G1 X113.501 Y104.982 E140.65927
G1 X114.388 Y104.982 E140.74022
G1 X103.351 Y116.018 E142.16463
G1 X104.238 Y116.018 E142.24557
G1 X115.275 Y104.982 E143.66999
G1 X116.162 Y104.982 E143.75093
G1 X105.125 Y116.018 E145.17534
G1 X106.012 Y116.018 E145.25628
G1 X117.049 Y104.982 E146.68070
G1 X117.936 Y104.982 E146.76164
G1 X106.899 Y116.018 E148.18605
G1 X107.786 Y116.018 E148.26700
G1 X118.823 Y104.982 E149.69141
G1 X119.709 Y104.982 E149.77235
G1 X108.673 Y116.018 E151.19677
G1 X109.560 Y116.018 E151.27771
G1 X120.596 Y104.982 E152.70212
G1 X121.483 Y104.982 E152.78306
G1 X110.447 Y116.018 E154.20748
G1 X111.334 Y116.018 E154.28842
G1 X122.370 Y104.982 E155.71283
G1 X123.257 Y104.982 E155.79377
G1 X112.220 Y116.018 E157.21819
G1 X113.107 Y116.018 E157.29913
G1 X124.144 Y104.982 E158.72354
G1 X125.031 Y104.982 E158.80449
G1 X113.994 Y116.018 E160.22890
G1 X114.881 Y116.018 E160.30984
G1 X125.918 Y104.982 E161.73426
G1 X126.805 Y104.982 E161.81520
G1 X115.768 Y116.018 E163.23961
G1 X116.655 Y116.018 E163.32055
G1 X127.692 Y104.982 E164.74497
G1 X128.579 Y104.982 E164.82591
G1 X117.542 Y116.018 E166.25032
G1 X118.429 Y116.018 E166.33127
G1 X129.466 Y104.982 E167.75568
G1 X130.353 Y104.982 E167.83662
G1 X119.316 Y116.018 E169.26104
G1 X120.203 Y116.018 E169.34198
G1 X131.240 Y104.982 E170.76639
G1 X132.127 Y104.982 E170.84733
G1 X121.090 Y116.018 E172.27175
G1 X121.977 Y116.018 E172.35269
G1 X133.014 Y104.982 E173.77710
G1 X133.900 Y104.982 E173.85805
G1 X122.864 Y116.018 E175.28246
G1 X123.751 Y116.018 E175.36340
G1 X134.787 Y104.982 E176.78782
G1 X135.674 Y104.982 E176.86876
G1 X124.638 Y116.018 E178.29317
G1 X125.525 Y116.018 E178.37411
G1 X136.561 Y104.982 E179.79853
G1 X137.448 Y104.982 E179.87947
G1 X126.411 Y116.018 E181.30388
G1 X127.298 Y116.018 E181.38482
G1 X138.335 Y104.982 E182.80924
G1 X139.222 Y104.982 E182.89018
G1 X128.185 Y116.018 E184.31459
G1 X129.072 Y116.018 E184.39554
G1 X140.109 Y104.982 E185.81995
G1 X140.996 Y104.982 E185.90089
G1 X129.959 Y116.018 E187.32531
G1 X130.846 Y116.018 E187.40625
G1 X141.883 Y104.982 E188.83066
G1 X142.770 Y104.982 E188.91160
G1 X131.733 Y116.018 E190.33602
G1 X132.620 Y116.018 E190.41696
G1 X143.657 Y104.982 E191.84137
G1 X144.544 Y104.982 E191.92232
G1 X133.507 Y116.018 E193.34673
G1 X134.394 Y116.018 E193.42767
G1 X145.431 Y104.982 E194.85209
G1 X146.318 Y104.982 E194.93303
G1 X135.281 Y116.018 E196.35744
G1 X136.168 Y116.018 E196.43838
G1 X147.205 Y104.982 E197.86280
G1 X148.091 Y104.982 E197.94374
G1 X137.055 Y116.018 E199.36815
G1 X137.942 Y116.018 E199.44910
G1 X148.978 Y104.982 E200.87351
G1 X149.865 Y104.982 E200.95445
G1 X138.829 Y116.018 E202.37887
G1 X139.716 Y116.018 E202.45981
G1 X150.752 Y104.982 E203.88422
G1 X151.639 Y104.982 E203.96516
G1 X140.602 Y116.018 E205.38958
G1 X141.489 Y116.018 E205.47052
G1 X152.526 Y104.982 E206.89493
G1 X153.413 Y104.982 E206.97588
G1 X142.376 Y116.018 E208.40029
G1 X143.263 Y116.018 E208.48123
G1 X154.300 Y104.982 E209.90565
G1 X155.187 Y104.982 E209.98659
G1 X144.150 Y116.018 E211.41100
G1 X145.037 Y116.018 E211.49194
G1 X156.074 Y104.982 E212.91636
G1 X156.961 Y104.982 E212.99730
G1 X145.924 Y116.018 E214.42171
G1 X146.811 Y116.018 E214.50266
G1 X157.848 Y104.982 E215.92707
G1 X158.735 Y104.982 E216.00801
G1 X147.698 Y116.018 E217.43243
G1 X148.585 Y116.018 E217.51337
G1 X159.622 Y104.982 E218.93778
G1 X160.509 Y104.982 E219.01872
G1 X149.472 Y116.018 E220.44314
G1 X150.359 Y116.018 E220.52408
G1 X161.396 Y104.982 E221.94849
G1 X162.282 Y104.982 E222.02943
G1 X151.246 Y116.018 E223.45385
G1 X152.133 Y116.018 E223.53479
G1 X163.169 Y104.982 E224.95920
G1 X164.056 Y104.982 E225.04015
G1 X153.020 Y116.018 E226.46456
G1 X153.907 Y116.018 E226.54550
G1 X164.943 Y104.982 E227.96992
G1 X165.830 Y104.982 E228.05086
G1 X154.793 Y116.018 E229.47527
G1 X155.680 Y116.018 E229.55621
G1 X166.717 Y104.982 E230.98063
G1 X167.604 Y104.982 E231.06157
G1 X156.567 Y116.018 E232.48598
G1 X157.454 Y116.018 E232.56693
G1 X168.491 Y104.982 E233.99134
G1 X169.378 Y104.982 E234.07228
G1 X158.341 Y116.018 E235.49669
G1 X159.228 Y116.018 E235.57764
G1 X170.265 Y104.982 E237.00205
G1 X171.152 Y104.982 E237.08299
G1 X160.115 Y116.018 E238.50741
G1 X161.002 Y116.018 E238.58835
G1 X172.039 Y104.982 E240.01276
G1 X172.926 Y104.982 E240.09370
G1 X161.889 Y116.018 E241.51812
G1 X162.776 Y116.018 E241.59906
G1 X173.018 Y105.776 E242.92097
G1 X173.018 Y106.663 E243.00191
G1 X163.663 Y116.018 E244.20934
G1 X164.550 Y116.018 E244.29029
G1 X173.018 Y107.550 E245.38325
G1 X173.018 Y108.437 E245.46419
G1 X165.437 Y116.018 E246.44269
G1 X166.324 Y116.018 E246.52363
G1 X173.018 Y109.324 E247.38766
G1 X173.018 Y110.211 E247.46861
G1 X167.211 Y116.018 E248.21817
G1 X168.098 Y116.018 E248.29911
G1 X173.018 Y111.098 E248.93420
G1 X173.018 Y111.984 E249.01514
G1 X168.984 Y116.018 E249.53577
G1 X169.871 Y116.018 E249.61671
G1 X173.018 Y112.871 E250.02286
G1 X173.018 Y113.758 E250.10380
G1 X170.758 Y116.018 E250.39549
G1 X171.645 Y116.018 E250.47643
G1 X173.018 Y114.645 E250.65365
G1 X173.018 Y115.532 E250.73459
G1 X172.532 Y116.018 E250.79734
G1 E248.79734 F2400.00000
G92 E0
G1 X26.600 Y95.400 F7800.000
G1 E2.00000 F2400.00000
G1 F1800
G1 X26.600 Y83.600 E3.07301
G1 X173.400 Y83.600 E16.42151
G1 X173.400 Y95.400 E17.49452
G1 X26.675 Y95.400 E30.83620
G1 X25.975 Y96.025 F7800.000
G1 F1800
G1 X25.975 Y82.975 E32.02286
G1 X174.025 Y82.975 E45.48500
G1 X174.025 Y96.025 E46.67165
G1 X26.050 Y96.025 E60.12698
G1 X25.350 Y96.650 F7800.000
G1 F1800
G1 X25.350 Y82.350 E61.42727
G1 X174.650 Y82.350 E75.00306
G1 X174.650 Y96.650 E76.30335
G1 X25.425 Y96.650 E89.87232
G1 X25.586 Y96.209 F7800.000
G1 E87.87232 F2400.00000
G92 E0
G1 X27.468 Y83.982 F7800.000
G1 E2.00000 F2400.00000
G1 F1800
G1 X26.982 Y84.468 E2.06278
G1 X26.982 Y85.355 E2.14372
G1 X28.355 Y83.982 E2.32097
G1 X29.242 Y83.982 E2.40191
G1 X26.982 Y86.242 E2.69363
G1 X26.982 Y87.129 E2.77457
G1 X30.129 Y83.982 E3.18076
G1 X31.016 Y83.982 E3.26170
G1 X26.982 Y88.016 E3.78235
G1 X26.982 Y88.903 E3.86330
G1 X31.903 Y83.982 E4.49842
G1 X32.790 Y83.982 E4.57936
G1 X26.982 Y89.790 E5.32895
G1 X26.982 Y90.677 E5.40990
G1 X33.677 Y83.982 E6.27396
G1 X34.564 Y83.982 E6.35490
G1 X26.982 Y91.564 E7.33343
G1 X26.982 Y92.450 E7.41437
G1 X35.450 Y83.982 E8.50737
G1 X36.337 Y83.982 E8.58831
G1 X26.982 Y93.337 E9.79578
G1 X26.982 Y94.224 E9.87672
G1 X37.224 Y83.982 E11.19866
G1 X38.111 Y83.982 E11.27960
G1 X27.075 Y95.018 E12.70402
G1 X27.961 Y95.018 E12.78496
G1 X38.998 Y83.982 E14.20937
G1 X39.885 Y83.982 E14.29031
G1 X28.848 Y95.018 E15.71473
G1 X29.735 Y95.018 E15.79567
G1 X40.772 Y83.982 E17.22008
G1 X41.659 Y83.982 E17.30103
G1 X30.622 Y95.018 E18.72544
G1 X31.509 Y95.018 E18.80638
G1 X42.546 Y83.982 E20.23080
G1 X43.433 Y83.982 E20.31174
G1 X32.396 Y95.018 E21.73615
G1 X33.283 Y95.018 E21.81709
G1 X44.320 Y83.982 E23.24151
G1 X45.207 Y83.982 E23.32245
G1 X34.170 Y95.018 E24.74686
G1 X35.057 Y95.018 E24.82781
G1 X46.094 Y83.982 E26.25222
G1 X46.981 Y83.982 E26.33316
G1 X35.944 Y95.018 E27.75758
G1 X36.831 Y95.018 E27.83852
G1 X47.868 Y83.982 E29.26293
G1 X48.755 Y83.982 E29.34387
G1 X37.718 Y95.018 E30.76829
G1 X38.605 Y95.018 E30.84923
G1 X49.641 Y83.982 E32.27364
G1 X50.528 Y83.982 E32.35459
G1 X39.492 Y95.018 E33.77900
G1 X40.379 Y95.018 E33.85994
G1 X51.415 Y83.982 E35.28436
G1 X52.302 Y83.982 E35.36530
G1 X41.266 Y95.018 E36.78971
G1 X42.152 Y95.018 E36.87065
G1 X53.189 Y83.982 E38.29507
G1 X54.076 Y83.982 E38.37601
G1 X43.039 Y95.018 E39.80043
G1 X43.926 Y95.018 E39.88137
G1 X54.963 Y83.982 E41.30578
G1 X55.850 Y83.982 E41.38672
G1 X44.813 Y95.018 E42.81114
G1 X45.700 Y95.018 E42.89208
G1 X56.737 Y83.982 E44.31649
G1 X57.624 Y83.982 E44.39744
G1 X46.587 Y95.018 E45.82185
G1 X47.474 Y95.018 E45.90279
G1 X58.511 Y83.982 E47.32721
G1 X59.398 Y83.982 E47.40815
G1 X48.361 Y95.018 E48.83256
G1 X49.248 Y95.018 E48.91350
G1 X60.285 Y83.982 E50.33792
G1 X61.172 Y83.982 E50.41886
G1 X50.135 Y95.018 E51.84327
G1 X51.022 Y95.018 E51.92422
G1 X62.059 Y83.982 E53.34863
G1 X62.946 Y83.982 E53.42957
