; generated by Slic3r 1.3.0 on 2020-12-25 at 15:00:14

; external perimeters extrusion width = 0.55mm (4.37mm^3/s)
; perimeters extrusion width = 0.70mm (11.44mm^3/s)
; infill extrusion width = 0.62mm (13.45mm^3/s)
; solid infill extrusion width = 0.70mm (3.81mm^3/s)
; top infill extrusion width = 0.70mm (2.86mm^3/s)

M107
M104 S200 ; set temperature
G28 ; home all axes
G1 Z5 F5000 ; lift nozzle

; Filament gcode

M109 S200 ; set temperature and wait for it to be reached
G21 ; set units to millimeters
G90 ; use absolute coordinates
M82 ; use absolute distances for extrusion
G92 E0
G1 Z0.350 F7800.000
G1 E-2.00000 F2400.00000
G92 E0
G1 X78.226 Y49.694 F7800.000
G1 E2.00000 F2400.00000
G1 F1800
G1 X78.715 Y49.021 E2.07565
G1 X80.316 Y47.086 E2.30404
G1 X80.885 Y46.480 E2.37965
G1 X82.716 Y44.760 E2.60805
G1 X83.358 Y44.230 E2.68373
G1 X85.390 Y42.754 E2.91210
G1 X86.092 Y42.308 E2.98773
G1 X88.293 Y41.098 E3.21611
G1 X89.046 Y40.744 E3.29176
G1 X91.381 Y39.819 E3.52014
G1 X92.172 Y39.562 E3.59580
G1 X94.605 Y38.938 E3.82418
G1 X95.421 Y38.782 E3.89976
G1 X97.914 Y38.467 E4.12821
G1 X98.744 Y38.415 E4.20386
G1 X101.256 Y38.415 E4.43224
G1 X102.086 Y38.467 E4.50787
G1 X104.578 Y38.782 E4.73627
G1 X105.395 Y38.937 E4.81187
G1 X107.828 Y39.562 E5.04029
G1 X108.619 Y39.819 E5.11594
G1 X110.954 Y40.744 E5.34433
G1 X111.707 Y41.098 E5.41999
G1 X113.908 Y42.308 E5.64837
G1 X114.610 Y42.754 E5.72397
G1 X116.642 Y44.230 E5.95236
G1 X117.284 Y44.760 E6.02805
G1 X119.115 Y46.480 E6.25643
G1 X119.684 Y47.086 E6.33208
G1 X121.285 Y49.021 E6.56045
G1 X121.774 Y49.694 E6.63609
G1 X123.120 Y51.815 E6.86448
G1 X123.520 Y52.544 E6.94013
G1 X124.590 Y54.817 E7.16851
G1 X124.896 Y55.590 E7.24414
G1 X125.672 Y57.979 E7.47253
G1 X125.879 Y58.785 E7.54820
G1 X126.350 Y61.253 E7.77666
G1 X126.454 Y62.077 E7.85222
G1 X126.625 Y65.000 E8.11843
G1 X126.625 Y135.000 E14.48350
G1 X126.454 Y137.923 E14.74971
G1 X126.350 Y138.748 E14.82535
G1 X125.879 Y141.215 E15.05373
G1 X125.672 Y142.021 E15.12940
G1 X124.896 Y144.410 E15.35779
G1 X124.590 Y145.183 E15.43342
G1 X123.520 Y147.456 E15.66186
G1 X123.120 Y148.185 E15.73746
G1 X121.773 Y150.306 E15.96592
G1 X121.285 Y150.978 E16.04147
G1 X119.693 Y152.902 E16.26851
G1 X119.115 Y153.520 E16.34542
G1 X117.284 Y155.240 E16.57388
G1 X116.642 Y155.770 E16.64956
G1 X114.610 Y157.246 E16.87794
G1 X113.908 Y157.692 E16.95356
G1 X111.707 Y158.902 E17.18193
G1 X110.954 Y159.256 E17.25760
G1 X108.619 Y160.181 E17.48598
G1 X107.828 Y160.438 E17.56163
G1 X105.395 Y161.062 E17.79001
G1 X104.579 Y161.218 E17.86551
G1 X102.086 Y161.533 E18.09404
G1 X101.256 Y161.585 E18.16969
G1 X98.744 Y161.585 E18.39807
G1 X97.914 Y161.533 E18.47372
G1 X95.422 Y161.218 E18.70210
G1 X94.606 Y161.063 E18.77760
G1 X92.172 Y160.438 E19.00612
G1 X91.381 Y160.181 E19.08173
G1 X89.046 Y159.256 E19.31016
G1 X88.281 Y158.895 E19.38707
G1 X86.092 Y157.692 E19.61419
G1 X85.390 Y157.247 E19.68974
G1 X83.358 Y155.770 E19.91820
G1 X82.716 Y155.240 E19.99388
G1 X80.885 Y153.520 E20.22226
G1 X80.316 Y152.914 E20.29790
G1 X78.715 Y150.979 E20.52628
G1 X78.226 Y150.306 E20.60192
G1 X76.880 Y148.185 E20.83030
G1 X76.479 Y147.456 E20.90596
G1 X75.410 Y145.183 E21.13435
G1 X75.104 Y144.410 E21.20998
G1 X74.332 Y142.035 E21.43703
G1 X74.121 Y141.215 E21.51401
G1 X73.650 Y138.748 E21.74244
G1 X73.546 Y137.923 E21.81804
G1 X73.375 Y135.000 E22.08425
G1 X73.375 Y65.000 E28.44932
G1 X73.388 Y64.584 E28.48717
G1 X73.546 Y62.077 E28.71555
G1 X73.650 Y61.252 E28.79120
G1 X74.121 Y58.785 E29.01958
G1 X74.328 Y57.979 E29.09523
G1 X75.104 Y55.590 E29.32366
G1 X75.410 Y54.817 E29.39926
G1 X76.480 Y52.544 E29.62765
G1 X76.880 Y51.815 E29.70329
G1 X78.186 Y49.758 E29.92485
G1 E27.92485 F2400.00000
G92 E0
G1 X113.400 Y94.734 F7800.000
G1 E2.00000 F2400.00000
G1 F1800
G1 X113.400 Y122.393 E4.51506
G1 X114.883 Y124.186 E4.72666
G1 X116.121 Y126.137 E4.93673
G1 X117.105 Y128.228 E5.14681
G1 X117.819 Y130.425 E5.35689
G1 X118.252 Y132.694 E5.56696
G1 X118.397 Y135.000 E5.77704
G1 X118.252 Y137.306 E5.98712
G1 X117.819 Y139.575 E6.19720
G1 X117.105 Y141.772 E6.40728
G1 X116.127 Y143.850 E6.61608
G1 X114.883 Y145.814 E6.82747
G1 X113.411 Y147.594 E7.03749
G1 X111.727 Y149.175 E7.24757
G1 X109.858 Y150.533 E7.45765
G1 X107.833 Y151.646 E7.66772
G1 X105.685 Y152.497 E7.87780
G1 X103.447 Y153.071 E8.08788
G1 X101.155 Y153.361 E8.29795
G1 X98.845 Y153.361 E8.50803
G1 X96.553 Y153.071 E8.71805
G1 X94.302 Y152.491 E8.92945
G1 X92.167 Y151.646 E9.13825
G1 X90.142 Y150.533 E9.34833
G1 X88.273 Y149.175 E9.55840
G1 X86.589 Y147.594 E9.76848
G1 X85.116 Y145.813 E9.97855
G1 X83.879 Y143.863 E10.18863
G1 X82.895 Y141.772 E10.39870
G1 X82.181 Y139.575 E10.60878
G1 X81.748 Y137.306 E10.81886
G1 X81.603 Y135.000 E11.02893
G1 X81.748 Y132.694 E11.23901
G1 X82.181 Y130.425 E11.44909
G1 X82.895 Y128.228 E11.65917
G1 X83.879 Y126.137 E11.86924
G1 X85.116 Y124.186 E12.07932
G1 X86.600 Y122.393 E12.29092
G1 X86.600 Y77.607 E16.36337
G1 X85.116 Y75.814 E16.57497
G1 X83.879 Y73.863 E16.78504
G1 X82.895 Y71.772 E16.99512
G1 X82.181 Y69.575 E17.20520
G1 X81.748 Y67.306 E17.41527
G1 X81.603 Y65.000 E17.62535
G1 X81.748 Y62.694 E17.83543
G1 X82.181 Y60.425 E18.04550
G1 X82.895 Y58.228 E18.25558
G1 X83.873 Y56.150 E18.46438
G1 X85.117 Y54.186 E18.67577
G1 X86.589 Y52.406 E18.88580
G1 X88.273 Y50.825 E19.09588
G1 X90.142 Y49.467 E19.30595
G1 X92.167 Y48.354 E19.51603
G1 X94.315 Y47.503 E19.72610
G1 X96.553 Y46.929 E19.93618
G1 X98.844 Y46.639 E20.14620
G1 X101.169 Y46.641 E20.35760
G1 X103.447 Y46.929 E20.56640
G1 X105.685 Y47.503 E20.77647
G1 X107.833 Y48.354 E20.98655
G1 X109.858 Y49.467 E21.19663
G1 X111.727 Y50.825 E21.40670
G1 X113.411 Y52.406 E21.61678
G1 X114.883 Y54.186 E21.82685
G1 X116.121 Y56.137 E22.03693
G1 X117.105 Y58.228 E22.24701
G1 X117.819 Y60.425 E22.45709
G1 X118.252 Y62.694 E22.66716
G1 X118.397 Y65.000 E22.87724
G1 X118.252 Y67.306 E23.08732
G1 X117.819 Y69.575 E23.29739
G1 X117.105 Y71.772 E23.50747
G1 X116.121 Y73.863 E23.71755
G1 X114.883 Y75.814 E23.92762
G1 X113.400 Y77.607 E24.13922
G1 X113.400 Y94.659 E25.68979
G1 X114.025 Y94.734 F7800.000
G1 F1800
G1 X114.025 Y122.168 E28.18439
G1 X115.390 Y123.818 E28.37911
G1 X116.670 Y125.835 E28.59633
G1 X117.687 Y127.997 E28.81356
G1 X118.426 Y130.269 E29.03079
G1 X118.873 Y132.616 E29.24801
G1 X119.023 Y135.000 E29.46524
G1 X118.873 Y137.384 E29.68247
G1 X118.426 Y139.731 E29.89969
G1 X117.687 Y142.003 E30.11692
G1 X116.676 Y144.152 E30.33285
G1 X115.390 Y146.182 E30.55140
G1 X113.867 Y148.022 E30.76859
G1 X112.126 Y149.658 E30.98582
G1 X110.193 Y151.062 E31.20304
G1 X108.100 Y152.213 E31.42027
G1 X105.878 Y153.092 E31.63750
G1 X103.565 Y153.686 E31.85472
G1 X101.194 Y153.986 E32.07195
G1 X98.806 Y153.986 E32.28917
G1 X96.436 Y153.686 E32.50636
G1 X94.108 Y153.087 E32.72491
G1 X91.900 Y152.213 E32.94084
G1 X89.807 Y151.062 E33.15807
G1 X87.874 Y149.658 E33.37529
G1 X86.133 Y148.022 E33.59252
G1 X84.610 Y146.182 E33.80974
G1 X83.330 Y144.165 E34.02697
G1 X82.313 Y142.003 E34.24419
G1 X81.574 Y139.731 E34.46142
G1 X81.127 Y137.384 E34.67865
G1 X80.977 Y135.000 E34.89588
G1 X81.127 Y132.616 E35.11310
G1 X81.574 Y130.269 E35.33033
G1 X82.313 Y127.997 E35.54756
G1 X83.330 Y125.835 E35.76478
G1 X84.610 Y123.818 E35.98201
G1 X85.975 Y122.168 E36.17672
G1 X85.975 Y77.832 E40.20826
G1 X84.610 Y76.182 E40.40298
G1 X83.330 Y74.164 E40.62021
G1 X82.313 Y72.003 E40.83743
G1 X81.574 Y69.731 E41.05466
G1 X81.127 Y67.384 E41.27188
G1 X80.977 Y65.000 E41.48911
G1 X81.127 Y62.616 E41.70634
G1 X81.574 Y60.269 E41.92356
G1 X82.313 Y57.997 E42.14079
G1 X83.324 Y55.848 E42.35672
G1 X84.610 Y53.818 E42.57526
G1 X86.133 Y51.978 E42.79245
G1 X87.874 Y50.342 E43.00969
G1 X89.807 Y48.938 E43.22691
G1 X91.900 Y47.787 E43.44413
G1 X94.122 Y46.908 E43.66136
G1 X96.435 Y46.314 E43.87859
G1 X98.805 Y46.014 E44.09578
G1 X101.209 Y46.016 E44.31433
G1 X103.565 Y46.314 E44.53025
G1 X105.878 Y46.908 E44.74748
G1 X108.100 Y47.787 E44.96471
G1 X110.193 Y48.938 E45.18193
G1 X112.126 Y50.342 E45.39916
G1 X113.867 Y51.978 E45.61639
G1 X115.390 Y53.818 E45.83361
G1 X116.670 Y55.836 E46.05084
G1 X117.687 Y57.997 E46.26806
G1 X118.426 Y60.269 E46.48529
G1 X118.873 Y62.616 E46.70252
G1 X119.023 Y65.000 E46.91974
G1 X118.873 Y67.384 E47.13697
G1 X118.426 Y69.731 E47.35419
G1 X117.687 Y72.003 E47.57142
G1 X116.670 Y74.164 E47.78865
G1 X115.390 Y76.182 E48.00588
G1 X114.025 Y77.832 E48.20059
G1 X114.025 Y94.659 E49.73070
G1 X114.650 Y94.734 F7800.000
G1 F1800
G1 X114.650 Y121.944 E52.20485
G1 X115.897 Y123.450 E52.38269
G1 X117.219 Y125.534 E52.60706
G1 X118.269 Y127.767 E52.83144
G1 X119.032 Y130.113 E53.05582
G1 X119.494 Y132.537 E53.28019
G1 X119.649 Y135.000 E53.50457
G1 X119.494 Y137.463 E53.72895
G1 X119.032 Y139.887 E53.95332
G1 X118.269 Y142.233 E54.17770
G1 X117.225 Y144.453 E54.40075
G1 X115.897 Y146.550 E54.62645
G1 X114.324 Y148.451 E54.85081
G1 X112.525 Y150.140 E55.07519
G1 X110.529 Y151.590 E55.29956
G1 X108.366 Y152.779 E55.52394
G1 X106.072 Y153.688 E55.74832
G1 X103.682 Y154.301 E55.97269
G1 X101.234 Y154.611 E56.19707
G1 X98.766 Y154.611 E56.42144
G1 X96.318 Y154.301 E56.64581
G1 X93.915 Y153.682 E56.87151
G1 X91.634 Y152.779 E57.09456
G1 X89.471 Y151.590 E57.31894
G1 X87.475 Y150.140 E57.54331
G1 X85.676 Y148.451 E57.76769
G1 X84.103 Y146.550 E57.99206
G1 X82.781 Y144.466 E58.21644
G1 X81.731 Y142.233 E58.44081
G1 X80.968 Y139.887 E58.66519
G1 X80.506 Y137.463 E58.88956
G1 X80.351 Y135.000 E59.11394
G1 X80.506 Y132.537 E59.33832
G1 X80.968 Y130.113 E59.56270
G1 X81.731 Y127.767 E59.78707
G1 X82.781 Y125.534 E60.01145
G1 X84.103 Y123.450 E60.23582
G1 X85.350 Y121.944 E60.41366
G1 X85.350 Y78.056 E64.40428
G1 X84.103 Y76.550 E64.58212
G1 X82.781 Y74.466 E64.80649
G1 X81.731 Y72.233 E65.03087
G1 X80.968 Y69.887 E65.25525
G1 X80.506 Y67.463 E65.47962
G1 X80.351 Y65.000 E65.70400
G1 X80.506 Y62.537 E65.92837
G1 X80.968 Y60.113 E66.15275
G1 X81.731 Y57.767 E66.37713
G1 X82.775 Y55.547 E66.60018
G1 X84.103 Y53.450 E66.82588
G1 X85.676 Y51.549 E67.05024
G1 X87.475 Y49.860 E67.27462
G1 X89.471 Y48.410 E67.49899
G1 X91.634 Y47.221 E67.72337
G1 X93.928 Y46.312 E67.94775
G1 X96.318 Y45.699 E68.17212
G1 X98.766 Y45.390 E68.39649
G1 X101.248 Y45.391 E68.62218
G1 X103.682 Y45.699 E68.84524
G1 X106.072 Y46.312 E69.06961
G1 X108.366 Y47.221 E69.29399
G1 X110.529 Y48.410 E69.51837
G1 X112.525 Y49.860 E69.74274
G1 X114.324 Y51.549 E69.96712
G1 X115.897 Y53.450 E70.19149
G1 X117.219 Y55.534 E70.41587
G1 X118.269 Y57.767 E70.64025
G1 X119.032 Y60.113 E70.86462
G1 X119.494 Y62.537 E71.08900
G1 X119.649 Y65.000 E71.31337
G1 X119.494 Y67.463 E71.53775
G1 X119.032 Y69.887 E71.76212
G1 X118.269 Y72.233 E71.98650
G1 X117.219 Y74.466 E72.21088
G1 X115.897 Y76.550 E72.43526
G1 X114.650 Y78.056 E72.61309
G1 X114.650 Y94.659 E74.12274
G1 X114.211 Y94.974 F7800.000
G1 E72.12274 F2400.00000
G92 E0
G1 X87.291 Y52.590 F7800.000
G1 E2.00000 F2400.00000
G1 F1800
G1 X86.802 Y53.079 E2.06294
G1 X85.380 Y54.797 E2.26578
G1 X84.365 Y56.400 E2.43842
G1 X91.368 Y49.397 E3.33938
G1 X92.677 Y48.677 E3.47521
G1 X93.165 Y48.484 E3.52299
G1 X83.488 Y58.161 E4.76787
G1 X83.234 Y58.701 E4.82221
G1 X82.946 Y59.587 E4.90693
G1 X94.628 Y47.905 E6.40984
G1 X94.751 Y47.856 E6.42188
G1 X95.841 Y47.576 E6.52421
G1 X82.533 Y60.884 E8.23631
G1 X82.324 Y61.977 E8.33748
G1 X97.013 Y47.288 E10.22717
G1 X98.025 Y47.160 E10.31995
G1 X82.123 Y63.062 E12.36570
G1 X82.064 Y64.006 E12.45169
G1 X99.037 Y47.033 E14.63526
G1 X99.932 Y47.022 E14.71666
G1 X82.005 Y64.949 E17.02298
G1 X81.986 Y65.243 E17.04978
G1 X82.022 Y65.816 E17.10197
G1 X100.815 Y47.022 E19.51970
G1 X101.373 Y47.023 E19.57040
G1 X101.662 Y47.059 E19.59697
G1 X82.074 Y66.647 E22.11694
G1 X82.128 Y67.478 E22.19267
G1 X102.447 Y47.159 E24.80677
G1 X103.232 Y47.258 E24.87874
G1 X82.269 Y68.221 E27.57560
G1 X82.411 Y68.963 E27.64436
G1 X103.971 Y47.403 E30.41805
G1 X104.675 Y47.584 E30.48413
G1 X82.557 Y69.701 E33.32954
G1 X82.774 Y70.369 E33.39336
G1 X105.378 Y47.764 E36.30139
G1 X105.735 Y47.856 E36.33487
G1 X106.047 Y47.979 E36.36543
G1 X82.991 Y71.036 E39.33161
G1 X83.207 Y71.703 E39.39544
G1 X106.680 Y48.230 E42.41521
G1 X107.314 Y48.481 E42.47718
G1 X83.482 Y72.312 E45.54307
G1 X83.765 Y72.914 E45.60352
G1 X107.933 Y48.745 E48.71274
G1 X108.504 Y49.059 E48.77196
G1 X84.048 Y73.515 E51.91818
G1 X84.184 Y73.804 E51.94728
G1 X84.362 Y74.085 E51.97750
G1 X109.074 Y49.373 E55.15669
G1 X109.645 Y49.686 E55.21591
G1 X84.705 Y74.626 E58.42434
G1 X85.049 Y75.166 E58.48261
G1 X110.169 Y50.046 E61.71434
G1 X110.681 Y50.418 E61.77192
G1 X85.394 Y75.705 E65.02512
G1 X85.794 Y76.189 E65.08224
G1 X111.193 Y50.790 E68.34982
G1 X111.571 Y51.064 E68.39226
G1 X111.691 Y51.177 E68.40722
G1 X86.194 Y76.673 E71.68729
G1 X86.595 Y77.157 E71.74442
G1 X112.147 Y51.605 E75.03165
G1 X112.603 Y52.033 E75.08855
G1 X86.982 Y77.654 E78.38466
G1 X86.982 Y78.538 E78.46508
G1 X113.058 Y52.461 E81.81985
G1 X113.197 Y52.592 E81.83720
G1 X113.476 Y52.928 E81.87690
G1 X86.982 Y79.422 E85.28535
G1 X86.982 Y80.306 E85.36577
G1 X113.876 Y53.412 E88.82571
G1 X114.276 Y53.896 E88.88283
G1 X86.982 Y81.190 E92.39426
G1 X86.982 Y82.075 E92.47469
G1 X114.668 Y54.388 E96.03658
G1 X115.012 Y54.929 E96.09485
G1 X86.982 Y82.959 E99.70090
G1 X86.982 Y83.843 E99.78132
G1 X115.355 Y55.470 E103.43153
G1 X115.698 Y56.010 E103.48980
G1 X86.982 Y84.727 E107.18416
G1 X86.982 Y85.611 E107.26459
G1 X116.002 Y56.591 E110.99801
G1 X116.285 Y57.192 E111.05845
G1 X86.982 Y86.495 E114.82827
G1 X86.982 Y87.379 E114.90869
G1 X116.568 Y57.793 E118.71490
G1 X116.766 Y58.215 E118.75731
G1 X116.831 Y58.414 E118.77636
G1 X86.982 Y88.263 E122.61643
G1 X86.982 Y89.147 E122.69685
G1 X117.048 Y59.082 E126.56481
G1 X117.264 Y59.749 E126.62864
G1 X86.982 Y90.032 E130.52450
G1 X86.982 Y90.916 E130.60493
G1 X117.472 Y60.425 E134.52754
G1 X117.614 Y61.167 E134.59630
G1 X86.982 Y91.800 E138.53714
G1 X86.982 Y92.684 E138.61756
G1 X117.756 Y61.910 E142.57662
G1 X117.874 Y62.530 E142.63401
G1 X117.882 Y62.667 E142.64654
G1 X86.982 Y93.568 E146.62192
G1 X86.982 Y94.452 E146.70235
G1 X117.935 Y63.499 E150.68446
G1 X117.987 Y64.331 E150.76027
G1 X86.982 Y95.336 E154.74911
G1 X86.982 Y96.220 E154.82954
G1 X117.985 Y65.217 E158.81811
G1 X117.926 Y66.160 E158.90410
G1 X86.982 Y97.104 E162.88504
G1 X86.982 Y97.989 E162.96546
G1 X117.847 Y67.123 E166.93633
G1 X117.639 Y68.215 E167.03750
G1 X86.982 Y98.873 E170.98156
G1 X86.982 Y99.757 E171.06199
G1 X117.405 Y69.334 E174.97588
G1 X116.979 Y70.644 E175.10115
G1 X86.982 Y100.641 E178.96029
G1 X86.982 Y101.525 E179.04072
G1 X116.373 Y72.133 E182.82195
G1 X115.816 Y73.318 E182.94109
G1 X115.370 Y74.021 E183.01679
G1 X86.982 Y102.409 E186.66892
G1 X86.982 Y103.293 E186.74935
G1 X113.018 Y77.256 E190.09896
G1 X113.018 Y78.141 E190.17938
G1 X86.982 Y104.177 E193.52900
G1 X86.982 Y105.061 E193.60942
G1 X113.018 Y79.025 E196.95903
G1 X113.018 Y79.909 E197.03946
G1 X86.982 Y105.946 E200.38907
G1 X86.982 Y106.830 E200.46950
G1 X113.018 Y80.793 E203.81911
G1 X113.018 Y81.677 E203.89953
G1 X86.982 Y107.714 E207.24915
G1 X86.982 Y108.598 E207.32957
G1 X113.018 Y82.561 E210.67918
G1 X113.018 Y83.445 E210.75961
G1 X86.982 Y109.482 E214.10922
G1 X86.982 Y110.366 E214.18965
G1 X113.018 Y84.329 E217.53926
G1 X113.018 Y85.213 E217.61968
G1 X86.982 Y111.250 E220.96930
G1 X86.982 Y112.134 E221.04972
G1 X113.018 Y86.098 E224.39933
G1 X113.018 Y86.982 E224.47976
G1 X86.982 Y113.018 E227.82937
G1 X86.982 Y113.902 E227.90980
G1 X113.018 Y87.866 E231.25941
G1 X113.018 Y88.750 E231.33983
G1 X86.982 Y114.787 E234.68945
G1 X86.982 Y115.671 E234.76987
G1 X113.018 Y89.634 E238.11948
G1 X113.018 Y90.518 E238.19991
G1 X86.982 Y116.555 E241.54952
G1 X86.982 Y117.439 E241.62995
G1 X113.018 Y91.402 E244.97956
G1 X113.018 Y92.286 E245.05998
G1 X86.982 Y118.323 E248.40960
G1 X86.982 Y119.207 E248.49002
G1 X113.018 Y93.170 E251.83963
G1 X113.018 Y94.054 E251.92006
G1 X86.982 Y120.091 E255.26967
G1 X86.982 Y120.975 E255.35010
G1 X113.018 Y94.939 E258.69971
G1 X113.018 Y95.823 E258.78013
G1 X86.982 Y121.859 E262.12975
