; generated by Slic3r 1.3.0 on 2020-12-25 at 13:52:24

; external perimeters extrusion width = 0.55mm (4.37mm^3/s)
; perimeters extrusion width = 0.70mm (11.44mm^3/s)
; infill extrusion width = 0.62mm (13.45mm^3/s)
; solid infill extrusion width = 0.70mm (3.81mm^3/s)
; top infill extrusion width = 0.70mm (2.86mm^3/s)

M107
M104 S200 ; set temperature
G28 ; home all axes
G1 Z5 F5000 ; lift nozzle

; Filament gcode

M109 S200 ; set temperature and wait for it to be reached
G21 ; set units to millimeters
G90 ; use absolute coordinates
M82 ; use absolute distances for extrusion
G92 E0
G1 Z0.350 F7800.000
G1 E-2.00000 F2400.00000
G92 E0
G1 X82.271 Y52.633 F7800.000
G1 E2.00000 F2400.00000
G1 F1800
G1 X82.760 Y51.960 E2.07562
G1 X83.961 Y50.509 E2.24693
G1 X84.530 Y49.902 E2.32255
G1 X85.904 Y48.613 E2.49384
G1 X86.545 Y48.083 E2.56950
G1 X88.069 Y46.975 E2.74078
G1 X88.771 Y46.530 E2.81638
G1 X90.422 Y45.622 E2.98771
G1 X91.184 Y45.264 E3.06432
G1 X92.926 Y44.575 E3.23465
G1 X93.717 Y44.318 E3.31025
G1 X95.542 Y43.849 E3.48157
G1 X96.359 Y43.693 E3.55723
G1 X98.228 Y43.457 E3.72851
G1 X99.058 Y43.405 E3.80416
G1 X100.942 Y43.405 E3.97545
G1 X101.771 Y43.457 E4.05103
G1 X103.641 Y43.693 E4.22238
G1 X104.458 Y43.849 E4.29803
G1 X106.283 Y44.317 E4.46933
G1 X107.073 Y44.574 E4.54491
G1 X108.825 Y45.268 E4.71624
G1 X109.578 Y45.622 E4.79190
G1 X111.229 Y46.530 E4.96320
G1 X111.931 Y46.975 E5.03883
G1 X113.455 Y48.083 E5.21012
G1 X114.096 Y48.613 E5.28578
G1 X115.470 Y49.903 E5.45708
G1 X116.039 Y50.509 E5.53272
G1 X117.240 Y51.961 E5.70402
G1 X117.729 Y52.633 E5.77963
G1 X118.738 Y54.224 E5.95093
G1 X119.139 Y54.953 E6.02660
G1 X119.941 Y56.658 E6.19791
G1 X120.247 Y57.431 E6.27352
G1 X120.829 Y59.222 E6.44480
G1 X121.036 Y60.028 E6.52044
G1 X121.389 Y61.879 E6.69173
G1 X121.494 Y62.704 E6.76738
G1 X121.625 Y65.000 E6.97650
G1 X121.625 Y135.000 E13.34157
G1 X121.494 Y137.296 E13.55069
G1 X121.389 Y138.122 E13.62635
G1 X121.036 Y139.972 E13.79763
G1 X120.829 Y140.777 E13.87326
G1 X120.251 Y142.559 E14.04355
G1 X119.941 Y143.343 E14.12020
G1 X119.139 Y145.047 E14.29148
G1 X118.738 Y145.776 E14.36715
G1 X117.729 Y147.367 E14.53844
G1 X117.240 Y148.040 E14.61407
G1 X116.039 Y149.491 E14.78541
G1 X115.470 Y150.097 E14.86099
G1 X114.097 Y151.387 E15.03227
G1 X113.455 Y151.917 E15.10795
G1 X111.931 Y153.025 E15.27924
G1 X111.230 Y153.470 E15.35477
G1 X109.578 Y154.378 E15.52616
G1 X108.816 Y154.736 E15.60272
G1 X107.074 Y155.426 E15.77312
G1 X106.285 Y155.682 E15.84856
G1 X104.458 Y156.151 E16.02002
G1 X103.641 Y156.307 E16.09568
G1 X101.772 Y156.543 E16.26697
G1 X100.942 Y156.595 E16.34262
G1 X99.058 Y156.595 E16.51391
G1 X98.228 Y156.543 E16.58950
G1 X96.359 Y156.307 E16.76084
G1 X95.542 Y156.151 E16.83649
G1 X93.717 Y155.683 E17.00778
G1 X92.926 Y155.425 E17.08342
G1 X91.175 Y154.732 E17.25471
G1 X90.422 Y154.378 E17.33036
G1 X88.771 Y153.470 E17.50165
G1 X88.070 Y153.025 E17.57716
G1 X86.545 Y151.917 E17.74857
G1 X85.904 Y151.388 E17.82416
G1 X84.530 Y150.098 E17.99552
G1 X83.961 Y149.491 E18.07116
G1 X82.760 Y148.040 E18.24244
G1 X82.271 Y147.367 E18.31810
G1 X81.261 Y145.775 E18.48946
G1 X80.861 Y145.047 E18.56503
G1 X80.059 Y143.342 E18.73636
G1 X79.753 Y142.569 E18.81197
G1 X79.171 Y140.777 E18.98327
G1 X78.964 Y139.972 E19.05891
G1 X78.611 Y138.121 E19.23019
G1 X78.506 Y137.296 E19.30584
G1 X78.375 Y135.000 E19.51495
G1 X78.375 Y65.000 E25.88002
G1 X78.388 Y64.584 E25.91787
G1 X78.506 Y62.704 E26.08915
G1 X78.611 Y61.879 E26.16480
G1 X78.964 Y60.028 E26.33609
G1 X79.171 Y59.222 E26.41174
G1 X79.753 Y57.431 E26.58302
G1 X80.059 Y56.657 E26.65867
G1 X80.861 Y54.953 E26.82997
G1 X81.262 Y54.224 E26.90561
G1 X82.231 Y52.696 E27.07010
G1 E25.07010 F2400.00000
G92 E0
G1 X113.400 Y102.663 F7800.000
G1 E2.00000 F2400.00000
G1 F1800
G1 X113.400 Y134.950 E4.93584
G1 X113.291 Y136.679 E5.09340
G1 X112.976 Y138.332 E5.24638
G1 X112.456 Y139.932 E5.39937
G1 X111.740 Y141.454 E5.55235
G1 X110.838 Y142.875 E5.70533
G1 X109.766 Y144.171 E5.85831
G1 X108.540 Y145.323 E6.01129
G1 X107.179 Y146.311 E6.16427
G1 X105.704 Y147.122 E6.31725
G1 X104.140 Y147.741 E6.47024
G1 X102.510 Y148.160 E6.62322
G1 X100.841 Y148.371 E6.77620
G1 X99.159 Y148.371 E6.92918
G1 X97.490 Y148.160 E7.08216
G1 X95.860 Y147.741 E7.23514
G1 X94.296 Y147.122 E7.38812
G1 X92.822 Y146.312 E7.54105
G1 X91.453 Y145.315 E7.69502
G1 X90.234 Y144.171 E7.84706
G1 X89.162 Y142.875 E8.00004
G1 X88.260 Y141.454 E8.15302
G1 X87.544 Y139.932 E8.30600
G1 X87.024 Y138.332 E8.45899
G1 X86.709 Y136.679 E8.61196
G1 X86.600 Y134.950 E8.76953
G1 X86.600 Y65.050 E15.12545
G1 X86.709 Y63.321 E15.28302
G1 X87.024 Y61.668 E15.43600
G1 X87.544 Y60.068 E15.58898
G1 X88.256 Y58.555 E15.74101
G1 X89.162 Y57.125 E15.89499
G1 X90.234 Y55.829 E16.04792
G1 X91.460 Y54.677 E16.20090
G1 X92.821 Y53.689 E16.35388
G1 X94.296 Y52.878 E16.50686
G1 X95.860 Y52.259 E16.65984
G1 X97.490 Y51.840 E16.81283
G1 X99.158 Y51.629 E16.96575
G1 X100.851 Y51.631 E17.11972
G1 X102.510 Y51.840 E17.27176
G1 X104.140 Y52.259 E17.42474
G1 X105.704 Y52.878 E17.57772
G1 X107.179 Y53.689 E17.73070
G1 X108.540 Y54.677 E17.88369
G1 X109.766 Y55.829 E18.03666
G1 X110.838 Y57.125 E18.18964
G1 X111.740 Y58.546 E18.34263
G1 X112.456 Y60.068 E18.49561
G1 X112.973 Y61.658 E18.64764
G1 X113.291 Y63.322 E18.80162
G1 X113.400 Y65.050 E18.95913
G1 X113.400 Y102.588 E22.37239
G1 X114.025 Y102.663 F7800.000
G1 F1800
G1 X114.025 Y134.969 E25.31002
G1 X113.913 Y136.758 E25.47294
G1 X113.583 Y138.487 E25.63307
G1 X113.038 Y140.162 E25.79321
G1 X112.289 Y141.756 E25.95333
G1 X111.345 Y143.243 E26.11347
G1 X110.222 Y144.600 E26.27360
G1 X108.939 Y145.805 E26.43372
G1 X107.514 Y146.840 E26.59386
G1 X105.971 Y147.689 E26.75399
G1 X104.333 Y148.337 E26.91412
G1 X102.628 Y148.775 E27.07425
G1 X100.880 Y148.996 E27.23439
G1 X99.119 Y148.996 E27.39452
G1 X97.372 Y148.775 E27.55464
G1 X95.667 Y148.337 E27.71478
G1 X94.029 Y147.689 E27.87491
G1 X92.486 Y146.840 E28.03501
G1 X91.054 Y145.798 E28.19613
G1 X89.778 Y144.600 E28.35529
G1 X88.655 Y143.243 E28.51542
G1 X87.711 Y141.756 E28.67555
G1 X86.962 Y140.162 E28.83568
G1 X86.417 Y138.487 E28.99582
G1 X86.087 Y136.758 E29.15595
G1 X85.975 Y134.969 E29.31887
G1 X85.975 Y65.031 E35.67837
G1 X86.087 Y63.242 E35.84129
G1 X86.417 Y61.513 E36.00142
G1 X86.962 Y59.838 E36.16155
G1 X87.707 Y58.254 E36.32072
G1 X88.655 Y56.757 E36.48184
G1 X89.778 Y55.400 E36.64194
G1 X91.061 Y54.195 E36.80207
G1 X92.486 Y53.160 E36.96220
G1 X94.029 Y52.311 E37.12233
G1 X95.667 Y51.663 E37.28246
G1 X97.372 Y51.225 E37.44260
G1 X99.119 Y51.005 E37.60269
G1 X100.891 Y51.006 E37.76381
G1 X102.628 Y51.225 E37.92298
G1 X104.333 Y51.663 E38.08311
G1 X105.971 Y52.311 E38.24324
G1 X107.514 Y53.160 E38.40337
G1 X108.939 Y54.195 E38.56351
G1 X110.222 Y55.400 E38.72363
G1 X111.345 Y56.757 E38.88376
G1 X112.289 Y58.244 E39.04390
G1 X113.038 Y59.838 E39.20403
G1 X113.579 Y61.502 E39.36319
G1 X113.913 Y63.243 E39.52431
G1 X114.025 Y65.031 E39.68720
G1 X114.025 Y102.588 E43.10226
G1 X114.650 Y102.663 F7800.000
G1 F1800
G1 X114.650 Y134.989 E46.04167
G1 X114.534 Y136.836 E46.20995
G1 X114.189 Y138.643 E46.37723
G1 X113.621 Y140.393 E46.54452
G1 X112.837 Y142.057 E46.71179
G1 X111.851 Y143.611 E46.87908
G1 X110.679 Y145.028 E47.04636
G1 X109.338 Y146.287 E47.21363
G1 X107.849 Y147.369 E47.38091
G1 X106.237 Y148.255 E47.54820
G1 X104.527 Y148.932 E47.71548
G1 X102.745 Y149.390 E47.88276
G1 X100.920 Y149.620 E48.05004
G1 X99.080 Y149.620 E48.21732
G1 X97.255 Y149.390 E48.38460
G1 X95.473 Y148.932 E48.55189
G1 X93.763 Y148.255 E48.71916
G1 X92.151 Y147.369 E48.88643
G1 X90.654 Y146.280 E49.05470
G1 X89.321 Y145.028 E49.22100
G1 X88.148 Y143.611 E49.38828
G1 X87.163 Y142.057 E49.55556
G1 X86.379 Y140.393 E49.72284
G1 X85.811 Y138.643 E49.89012
G1 X85.466 Y136.836 E50.05740
G1 X85.350 Y134.989 E50.22568
G1 X85.350 Y65.011 E56.58875
G1 X85.466 Y63.164 E56.75704
G1 X85.811 Y61.357 E56.92432
G1 X86.379 Y59.607 E57.09160
G1 X87.158 Y57.952 E57.25789
G1 X88.149 Y56.389 E57.42616
G1 X89.321 Y54.972 E57.59343
G1 X90.662 Y53.713 E57.76071
G1 X92.150 Y52.631 E57.92799
G1 X93.763 Y51.745 E58.09528
G1 X95.473 Y51.068 E58.26255
G1 X97.255 Y50.610 E58.42984
G1 X99.080 Y50.380 E58.59710
G1 X100.931 Y50.381 E58.76537
G1 X102.745 Y50.610 E58.93167
G1 X104.527 Y51.068 E59.09895
G1 X106.237 Y51.745 E59.26624
G1 X107.849 Y52.631 E59.43352
G1 X109.338 Y53.713 E59.60080
G1 X110.679 Y54.972 E59.76807
G1 X111.851 Y56.389 E59.93535
G1 X112.837 Y57.943 E60.10264
G1 X113.621 Y59.607 E60.26992
G1 X114.186 Y61.347 E60.43621
G1 X114.534 Y63.164 E60.60448
G1 X114.650 Y65.011 E60.77276
G1 X114.650 Y102.588 E64.18959
G1 X114.217 Y102.913 F7800.000
G1 E62.18959 F2400.00000
G92 E0
G1 X109.064 Y143.988 F7800.000
G1 E2.00000 F2400.00000
G1 F1800
G1 X109.553 Y143.498 E2.06292
G1 X110.575 Y142.264 E2.20874
G1 X111.434 Y140.909 E2.35465
G1 X111.591 Y140.577 E2.38810
G1 X105.582 Y146.585 E3.16119
G1 X105.195 Y146.799 E3.20142
G1 X104.020 Y147.264 E3.31638
G1 X112.258 Y139.026 E4.37629
G1 X112.613 Y137.933 E4.48082
G1 X112.647 Y137.752 E4.49759
G1 X102.771 Y147.628 E5.76830
G1 X102.150 Y147.788 E5.82662
G1 X101.666 Y147.849 E5.87099
G1 X112.856 Y136.659 E7.31067
G1 X112.913 Y136.358 E7.33861
G1 X112.956 Y135.675 E7.40088
G1 X100.654 Y147.977 E8.98370
G1 X99.758 Y147.989 E9.06524
G1 X113.016 Y134.731 E10.77102
G1 X113.018 Y133.844 E10.85171
G1 X98.883 Y147.980 E12.67043
G1 X98.098 Y147.880 E12.74242
G1 X113.018 Y132.960 E14.66214
G1 X113.018 Y132.076 E14.74258
G1 X97.318 Y147.776 E16.76262
G1 X96.614 Y147.595 E16.82871
G1 X113.018 Y131.191 E18.93926
G1 X113.018 Y130.307 E19.01971
G1 X95.911 Y147.415 E21.22078
G1 X95.268 Y147.174 E21.28329
G1 X113.018 Y129.423 E23.56715
G1 X113.018 Y128.539 E23.64759
G1 X94.634 Y146.923 E26.01295
G1 X94.319 Y146.799 E26.04375
G1 X94.032 Y146.641 E26.07355
G1 X113.018 Y127.655 E28.51634
G1 X113.018 Y126.770 E28.59678
G1 X93.462 Y146.327 E31.11297
G1 X92.894 Y146.011 E31.17212
G1 X113.018 Y125.886 E33.76141
G1 X113.018 Y125.002 E33.84185
G1 X92.382 Y145.639 E36.49699
G1 X91.870 Y145.266 E36.55457
G1 X113.018 Y124.118 E39.27556
G1 X113.018 Y123.234 E39.35600
G1 X91.386 Y144.866 E42.13932
G1 X90.930 Y144.438 E42.19623
G1 X113.018 Y122.349 E45.03821
G1 X113.018 Y121.465 E45.11866
G1 X90.474 Y144.010 E48.01931
G1 X90.070 Y143.529 E48.07641
G1 X113.018 Y120.581 E51.02898
G1 X113.018 Y119.697 E51.10942
G1 X89.670 Y143.045 E54.11350
G1 X89.425 Y142.750 E54.14843
G1 X89.292 Y142.539 E54.17108
G1 X113.018 Y118.813 E57.22381
G1 X113.018 Y117.928 E57.30425
G1 X88.948 Y141.998 E60.40115
G1 X88.605 Y141.458 E60.45944
G1 X113.018 Y117.044 E63.60050
G1 X113.018 Y116.160 E63.68094
G1 X88.315 Y140.863 E66.85930
G1 X88.032 Y140.262 E66.91975
G1 X113.018 Y115.276 E70.13451
G1 X113.018 Y114.392 E70.21496
G1 X87.781 Y139.630 E73.46211
G1 X87.564 Y138.962 E73.52595
G1 X113.018 Y113.508 E76.80100
G1 X113.018 Y112.623 E76.88144
G1 X87.361 Y138.281 E80.18259
G1 X87.219 Y137.538 E80.25136
G1 X113.018 Y111.739 E83.57073
G1 X113.018 Y110.855 E83.65117
G1 X87.083 Y136.790 E86.98803
G1 X87.031 Y135.958 E87.06386
G1 X113.018 Y109.971 E90.40745
G1 X113.018 Y109.087 E90.48789
G1 X86.982 Y135.123 E93.83784
G1 X86.982 Y134.239 E93.91828
G1 X113.018 Y108.202 E97.26822
G1 X113.018 Y107.318 E97.34866
G1 X86.982 Y133.355 E100.69861
G1 X86.982 Y132.471 E100.77905
G1 X113.018 Y106.434 E104.12899
G1 X113.018 Y105.550 E104.20943
G1 X86.982 Y131.587 E107.55938
G1 X86.982 Y130.702 E107.63982
G1 X113.018 Y104.666 E110.98976
G1 X113.018 Y103.781 E111.07021
G1 X86.982 Y129.818 E114.42015
G1 X86.982 Y128.934 E114.50059
G1 X113.018 Y102.897 E117.85053
G1 X113.018 Y102.013 E117.93098
G1 X86.982 Y128.050 E121.28092
G1 X86.982 Y127.166 E121.36136
G1 X113.018 Y101.129 E124.71131
G1 X113.018 Y100.245 E124.79175
G1 X86.982 Y126.281 E128.14169
G1 X86.982 Y125.397 E128.22213
G1 X113.018 Y99.360 E131.57208
G1 X113.018 Y98.476 E131.65252
G1 X86.982 Y124.513 E135.00246
G1 X86.982 Y123.629 E135.08290
G1 X113.018 Y97.592 E138.43285
G1 X113.018 Y96.708 E138.51329
G1 X86.982 Y122.745 E141.86323
G1 X86.982 Y121.860 E141.94368
G1 X113.018 Y95.824 E145.29362
G1 X113.018 Y94.939 E145.37406
G1 X86.982 Y120.976 E148.72401
G1 X86.982 Y120.092 E148.80445
G1 X113.018 Y94.055 E152.15439
G1 X113.018 Y93.171 E152.23483
G1 X86.982 Y119.208 E155.58478
G1 X86.982 Y118.324 E155.66522
G1 X113.018 Y92.287 E159.01516
G1 X113.018 Y91.403 E159.09560
G1 X86.982 Y117.439 E162.44555
G1 X86.982 Y116.555 E162.52599
G1 X113.018 Y90.518 E165.87593
G1 X113.018 Y89.634 E165.95638
G1 X86.982 Y115.671 E169.30632
G1 X86.982 Y114.787 E169.38676
G1 X113.018 Y88.750 E172.73670
G1 X113.018 Y87.866 E172.81715
G1 X86.982 Y113.903 E176.16709
G1 X86.982 Y113.018 E176.24753
G1 X113.018 Y86.982 E179.59748
G1 X113.018 Y86.097 E179.67792
G1 X86.982 Y112.134 E183.02786
G1 X86.982 Y111.250 E183.10830
G1 X113.018 Y85.213 E186.45825
G1 X113.018 Y84.329 E186.53869
G1 X86.982 Y110.366 E189.88863
G1 X86.982 Y109.482 E189.96907
G1 X113.018 Y83.445 E193.31902
G1 X113.018 Y82.561 E193.39946
G1 X86.982 Y108.597 E196.74940
G1 X86.982 Y107.713 E196.82985
G1 X113.018 Y81.676 E200.17979
G1 X113.018 Y80.792 E200.26023
G1 X86.982 Y106.829 E203.61018
G1 X86.982 Y105.945 E203.69062
G1 X113.018 Y79.908 E207.04056
G1 X113.018 Y79.024 E207.12100
G1 X86.982 Y105.061 E210.47095
G1 X86.982 Y104.176 E210.55139
G1 X113.018 Y78.140 E213.90133
G1 X113.018 Y77.255 E213.98177
G1 X86.982 Y103.292 E217.33172
G1 X86.982 Y102.408 E217.41216
G1 X113.018 Y76.371 E220.76210
G1 X113.018 Y75.487 E220.84254
G1 X86.982 Y101.524 E224.19249
G1 X86.982 Y100.640 E224.27293
G1 X113.018 Y74.603 E227.62287
G1 X113.018 Y73.719 E227.70332
G1 X86.982 Y99.755 E231.05326
G1 X86.982 Y98.871 E231.13370
G1 X113.018 Y72.835 E234.48364
G1 X113.018 Y71.950 E234.56409
G1 X86.982 Y97.987 E237.91403
G1 X86.982 Y97.103 E237.99447
G1 X113.018 Y71.066 E241.34442
G1 X113.018 Y70.182 E241.42486
G1 X86.982 Y96.219 E244.77480
G1 X86.982 Y95.334 E244.85524
G1 X113.018 Y69.298 E248.20519
G1 X113.018 Y68.414 E248.28563
G1 X86.982 Y94.450 E251.63557
G1 X86.982 Y93.566 E251.71601
G1 X113.018 Y67.529 E255.06596
G1 X113.018 Y66.645 E255.14640
G1 X86.982 Y92.682 E258.49634
G1 X86.982 Y91.798 E258.57679
G1 X113.018 Y65.761 E261.92673
G1 X113.018 Y64.877 E262.00717
G1 X86.982 Y90.913 E265.35712
G1 X86.982 Y90.029 E265.43756
G1 X112.969 Y64.042 E268.78115
G1 X112.917 Y63.210 E268.85697
G1 X86.982 Y89.145 E272.19383
G1 X86.982 Y88.261 E272.27427
G1 X112.780 Y62.462 E275.59357
G1 X112.638 Y61.720 E275.66231
G1 X86.982 Y87.377 E278.96332
G1 X86.982 Y86.493 E279.04377
G1 X112.436 Y61.038 E282.31881
G1 X112.219 Y60.371 E282.38265
G1 X86.982 Y85.608 E285.62980
G1 X86.982 Y84.724 E285.71024
G1 X111.968 Y59.738 E288.92500
G1 X111.685 Y59.137 E288.98545
G1 X86.982 Y83.840 E292.16381
G1 X86.982 Y82.956 E292.24425
G1 X111.395 Y58.542 E295.38531
G1 X111.052 Y58.002 E295.44360
G1 X86.982 Y82.072 E298.54050
G1 X86.982 Y81.187 E298.62094
G1 X110.708 Y57.461 E301.67366
G1 X110.575 Y57.250 E301.69632
G1 X110.330 Y56.955 E301.73125
G1 X86.982 Y80.303 E304.73532
G1 X86.982 Y79.419 E304.81576
G1 X109.930 Y56.471 E307.76833
G1 X109.526 Y55.990 E307.82543
G1 X86.982 Y78.535 E310.72609
G1 X86.982 Y77.651 E310.80653
G1 X109.070 Y55.562 E313.64852
G1 X108.614 Y55.134 E313.70543
G1 X86.982 Y76.766 E316.48875
G1 X86.982 Y75.882 E316.56919
G1 X108.131 Y54.733 E319.29027
G1 X107.619 Y54.361 E319.34787
G1 X86.982 Y74.998 E322.00306
G1 X86.982 Y74.114 E322.08350
G1 X107.106 Y53.989 E324.67281
G1 X106.538 Y53.673 E324.73196
G1 X86.982 Y73.230 E327.24815
G1 X86.982 Y72.345 E327.32859
G1 X105.968 Y53.359 E329.77138
G1 X105.681 Y53.201 E329.80119
G1 X105.366 Y53.077 E329.83198
G1 X86.982 Y71.461 E332.19734
G1 X86.982 Y70.577 E332.27779
G1 X104.732 Y52.826 E334.56165
G1 X104.089 Y52.585 E334.62415
G1 X86.982 Y69.693 E336.82523
G1 X86.982 Y68.809 E336.90568
G1 X103.386 Y52.405 E339.01624
G1 X102.682 Y52.224 E339.08232
G1 X86.982 Y67.924 E341.10236
G1 X86.982 Y67.040 E341.18280
G1 X101.902 Y52.120 E343.10253
G1 X101.117 Y52.020 E343.17452
