; generated by Slic3r 1.3.0 on 2020-12-25 at 09:50:34

; external perimeters extrusion width = 0.55mm (4.37mm^3/s)
; perimeters extrusion width = 0.70mm (11.44mm^3/s)
; infill extrusion width = 0.62mm (13.45mm^3/s)
; solid infill extrusion width = 0.70mm (3.81mm^3/s)
; top infill extrusion width = 0.70mm (2.86mm^3/s)

M107
M104 S200 ; set temperature
G28 ; home all axes
G1 Z5 F5000 ; lift nozzle

; Filament gcode

M109 S200 ; set temperature and wait for it to be reached
G21 ; set units to millimeters
G90 ; use absolute coordinates
M82 ; use absolute distances for extrusion
G92 E0
G1 Z0.350 F7800.000
G1 E-2.00000 F2400.00000
G92 E0
G1 X60.772 Y22.741 F7800.000
G1 E2.00000 F2400.00000
G1 F1800
G1 X61.915 Y20.753 E2.20854
G1 X63.668 Y19.274 E2.41708
G1 X65.820 Y18.481 E2.62563
G1 X67.000 Y18.375 E2.73334
G1 X133.000 Y18.375 E8.73469
G1 X135.259 Y18.772 E8.94323
G1 X137.247 Y19.915 E9.15177
G1 X138.726 Y21.668 E9.36032
G1 X139.519 Y23.820 E9.56886
G1 X139.625 Y25.000 E9.67657
G1 X139.625 Y175.000 E23.31600
G1 X139.228 Y177.259 E23.52455
G1 X138.085 Y179.247 E23.73309
G1 X136.332 Y180.726 E23.94163
G1 X134.180 Y181.519 E24.15017
G1 X133.000 Y181.625 E24.25788
G1 X67.000 Y181.625 E30.25923
G1 X64.741 Y181.228 E30.46778
G1 X62.753 Y180.085 E30.67632
G1 X61.274 Y178.332 E30.88486
G1 X60.481 Y176.180 E31.09340
G1 X60.375 Y175.000 E31.20111
G1 X60.375 Y25.000 E44.84055
G1 X60.759 Y22.815 E45.04227
G1 E43.04227 F2400.00000
G92 E0
G1 X119.747 Y141.288 F7800.000
G1 E2.00000 F2400.00000
G1 F1800
G1 X120.199 Y141.536 E2.04684
G1 X120.616 Y141.840 E2.09380
G1 X120.991 Y142.192 E2.14058
G1 X121.319 Y142.589 E2.18739
G1 X121.595 Y143.024 E2.23423
G1 X121.815 Y143.489 E2.28104
G1 X121.974 Y143.979 E2.32787
G1 X122.071 Y144.486 E2.37483
G1 X122.103 Y145.000 E2.42162
G1 X122.071 Y145.514 E2.46841
G1 X121.974 Y146.021 E2.51537
G1 X121.815 Y146.511 E2.56220
G1 X121.595 Y146.976 E2.60901
G1 X121.319 Y147.411 E2.65585
G1 X120.991 Y147.808 E2.70266
G1 X120.616 Y148.160 E2.74944
G1 X120.199 Y148.464 E2.79640
G1 X119.747 Y148.712 E2.84324
G1 X119.269 Y148.902 E2.89007
G1 X118.768 Y149.031 E2.93709
G1 X118.257 Y149.095 E2.98391
G1 X117.743 Y149.095 E3.03061
G1 X117.232 Y149.031 E3.07743
G1 X116.731 Y148.902 E3.12445
G1 X116.253 Y148.712 E3.17128
G1 X115.801 Y148.464 E3.21812
G1 X115.384 Y148.160 E3.26508
G1 X115.009 Y147.808 E3.31187
G1 X114.679 Y147.409 E3.35898
G1 X114.398 Y146.963 E3.40682
G1 X114.185 Y146.511 E3.45231
G1 X114.026 Y146.021 E3.49914
G1 X113.929 Y145.514 E3.54611
G1 X113.897 Y145.000 E3.59290
G1 X113.929 Y144.486 E3.63968
G1 X114.026 Y143.979 E3.68665
G1 X114.185 Y143.489 E3.73348
G1 X114.405 Y143.024 E3.78028
G1 X114.681 Y142.589 E3.82712
G1 X115.009 Y142.192 E3.87393
G1 X115.384 Y141.840 E3.92072
G1 X115.801 Y141.536 E3.96768
G1 X116.253 Y141.288 E4.01452
G1 X116.731 Y141.098 E4.06134
G1 X117.232 Y140.969 E4.10836
G1 X117.743 Y140.905 E4.15518
G1 X118.257 Y140.905 E4.20189
G1 X118.768 Y140.969 E4.24871
G1 X119.269 Y141.098 E4.29573
G1 X119.677 Y141.260 E4.33574
G1 X119.480 Y141.854 F7800.000
G1 F1800
G1 X119.863 Y142.064 E4.37543
G1 X120.217 Y142.322 E4.41520
G1 X120.535 Y142.621 E4.45487
G1 X120.813 Y142.957 E4.49454
G1 X121.047 Y143.325 E4.53424
G1 X121.232 Y143.720 E4.57391
G1 X121.368 Y144.135 E4.61358
G1 X121.449 Y144.565 E4.65337
G1 X121.477 Y145.000 E4.69302
G1 X121.449 Y145.435 E4.73267
G1 X121.368 Y145.865 E4.77246
G1 X121.232 Y146.280 E4.81213
G1 X121.047 Y146.675 E4.85181
G1 X120.813 Y147.043 E4.89150
G1 X120.535 Y147.379 E4.93118
G1 X120.217 Y147.678 E4.97084
G1 X119.863 Y147.936 E5.01062
G1 X119.480 Y148.146 E5.05031
G1 X119.075 Y148.307 E5.09000
G1 X118.651 Y148.416 E5.12981
G1 X118.218 Y148.470 E5.16948
G1 X117.782 Y148.470 E5.20910
G1 X117.349 Y148.416 E5.24878
G1 X116.925 Y148.307 E5.28858
G1 X116.520 Y148.146 E5.32827
G1 X116.137 Y147.936 E5.36797
G1 X115.783 Y147.678 E5.40774
G1 X115.465 Y147.379 E5.44741
G1 X115.186 Y147.042 E5.48727
G1 X114.948 Y146.663 E5.52796
G1 X114.768 Y146.280 E5.56644
G1 X114.632 Y145.865 E5.60611
G1 X114.551 Y145.435 E5.64590
G1 X114.523 Y145.000 E5.68555
G1 X114.551 Y144.565 E5.72520
G1 X114.632 Y144.135 E5.76500
G1 X114.768 Y143.720 E5.80466
G1 X114.953 Y143.325 E5.84434
G1 X115.187 Y142.957 E5.88403
G1 X115.465 Y142.621 E5.92371
G1 X115.783 Y142.322 E5.96337
G1 X116.137 Y142.064 E6.00315
G1 X116.520 Y141.854 E6.04284
G1 X116.925 Y141.693 E6.08253
G1 X117.349 Y141.584 E6.12234
G1 X117.782 Y141.530 E6.16201
G1 X118.218 Y141.530 E6.20163
G1 X118.651 Y141.584 E6.24131
G1 X119.075 Y141.693 E6.28111
G1 X119.411 Y141.827 E6.31398
G1 X119.214 Y142.421 F7800.000
G1 F1800
G1 X119.528 Y142.593 E6.34653
G1 X119.817 Y142.804 E6.37912
G1 X120.078 Y143.049 E6.41166
G1 X120.306 Y143.325 E6.44421
G1 X120.498 Y143.627 E6.47676
G1 X120.650 Y143.951 E6.50929
G1 X120.761 Y144.291 E6.54180
G1 X120.828 Y144.643 E6.57442
G1 X120.851 Y145.000 E6.60694
G1 X120.828 Y145.357 E6.63945
G1 X120.761 Y145.709 E6.67207
G1 X120.650 Y146.049 E6.70458
G1 X120.498 Y146.373 E6.73711
G1 X120.306 Y146.675 E6.76966
G1 X120.078 Y146.951 E6.80221
G1 X119.817 Y147.196 E6.83475
G1 X119.528 Y147.407 E6.86734
G1 X119.214 Y147.579 E6.89989
G1 X118.881 Y147.711 E6.93245
G1 X118.534 Y147.801 E6.96503
G1 X118.179 Y147.845 E6.99757
G1 X117.821 Y147.845 E7.03009
G1 X117.466 Y147.801 E7.06263
G1 X117.119 Y147.711 E7.09522
G1 X116.786 Y147.579 E7.12778
G1 X116.472 Y147.407 E7.16032
G1 X116.183 Y147.196 E7.19292
G1 X115.922 Y146.951 E7.22546
G1 X115.693 Y146.675 E7.25807
G1 X115.497 Y146.362 E7.29161
G1 X115.350 Y146.049 E7.32308
G1 X115.239 Y145.709 E7.35559
G1 X115.172 Y145.357 E7.38821
G1 X115.149 Y145.000 E7.42072
G1 X115.172 Y144.643 E7.45324
G1 X115.239 Y144.291 E7.48586
G1 X115.350 Y143.951 E7.51837
G1 X115.502 Y143.627 E7.55090
G1 X115.694 Y143.325 E7.58345
G1 X115.922 Y143.049 E7.61600
G1 X116.183 Y142.804 E7.64853
G1 X116.472 Y142.593 E7.68113
G1 X116.786 Y142.421 E7.71368
G1 X117.119 Y142.289 E7.74623
G1 X117.466 Y142.199 E7.77882
G1 X117.821 Y142.155 E7.81136
G1 X118.179 Y142.155 E7.84388
G1 X118.534 Y142.199 E7.87642
G1 X118.881 Y142.289 E7.90901
G1 X119.144 Y142.393 E7.93474
G1 X119.214 Y142.421 F7800.000
G1 E5.93474 F2400.00000
G92 E0
G1 X118.258 Y59.095 F7800.000
G1 E2.00000 F2400.00000
G1 F1800
G1 X117.742 Y59.095 E2.04688
G1 X117.231 Y59.030 E2.09373
G1 X116.732 Y58.902 E2.14056
G1 X116.253 Y58.713 E2.18740
G1 X115.802 Y58.464 E2.23427
G1 X115.382 Y58.159 E2.28144
G1 X115.000 Y57.798 E2.32928
G1 X114.681 Y57.412 E2.37481
G1 X114.404 Y56.977 E2.42168
G1 X114.185 Y56.510 E2.46852
G1 X114.025 Y56.017 E2.51568
G1 X113.928 Y55.500 E2.56354
G1 X113.897 Y55.000 E2.60907
G1 X113.929 Y54.486 E2.65591
G1 X114.026 Y53.980 E2.70278
G1 X114.185 Y53.490 E2.74963
G1 X114.404 Y53.023 E2.79647
G1 X114.681 Y52.588 E2.84334
G1 X115.009 Y52.191 E2.89017
G1 X115.385 Y51.839 E2.93703
G1 X115.802 Y51.536 E2.98389
G1 X116.253 Y51.287 E3.03076
G1 X116.732 Y51.098 E3.07760
G1 X117.231 Y50.970 E3.12443
G1 X117.742 Y50.905 E3.17128
G1 X118.258 Y50.905 E3.21816
G1 X118.769 Y50.970 E3.26501
G1 X119.268 Y51.098 E3.31183
G1 X119.747 Y51.287 E3.35868
G1 X120.198 Y51.536 E3.40555
G1 X120.618 Y51.841 E3.45271
G1 X121.000 Y52.202 E3.50056
G1 X121.319 Y52.588 E3.54608
G1 X121.596 Y53.023 E3.59295
G1 X121.815 Y53.490 E3.63980
G1 X121.974 Y53.980 E3.68664
G1 X122.071 Y54.486 E3.73352
G1 X122.103 Y55.000 E3.78035
G1 X122.071 Y55.514 E3.82719
G1 X121.974 Y56.020 E3.87407
G1 X121.815 Y56.510 E3.92091
G1 X121.596 Y56.977 E3.96776
G1 X121.319 Y57.412 E4.01463
G1 X120.991 Y57.809 E4.06146
G1 X120.615 Y58.161 E4.10831
G1 X120.198 Y58.464 E4.15517
G1 X119.747 Y58.713 E4.20204
G1 X119.268 Y58.902 E4.24888
G1 X118.769 Y59.030 E4.29571
G1 X118.332 Y59.085 E4.33574
G1 X118.218 Y58.470 F7800.000
G1 F1800
G1 X117.782 Y58.470 E4.37546
G1 X117.348 Y58.415 E4.41516
G1 X116.926 Y58.307 E4.45485
G1 X116.520 Y58.146 E4.49454
G1 X116.137 Y57.936 E4.53426
G1 X115.782 Y57.678 E4.57415
G1 X115.457 Y57.370 E4.61485
G1 X115.187 Y57.044 E4.65335
G1 X114.953 Y56.675 E4.69306
G1 X114.767 Y56.280 E4.73276
G1 X114.632 Y55.863 E4.77265
G1 X114.550 Y55.423 E4.81335
G1 X114.523 Y55.000 E4.85186
G1 X114.551 Y54.564 E4.89155
G1 X114.632 Y54.135 E4.93127
G1 X114.767 Y53.720 E4.97096
G1 X114.953 Y53.325 E5.01066
G1 X115.187 Y52.956 E5.05038
G1 X115.465 Y52.620 E5.09007
G1 X115.784 Y52.321 E5.12977
G1 X116.137 Y52.064 E5.16948
G1 X116.520 Y51.854 E5.20919
G1 X116.926 Y51.693 E5.24889
G1 X117.348 Y51.585 E5.28857
G1 X117.782 Y51.530 E5.32827
G1 X118.218 Y51.530 E5.36799
G1 X118.652 Y51.585 E5.40769
G1 X119.074 Y51.693 E5.44738
G1 X119.480 Y51.854 E5.48708
G1 X119.863 Y52.064 E5.52679
G1 X120.218 Y52.322 E5.56668
G1 X120.543 Y52.630 E5.60738
G1 X120.813 Y52.956 E5.64588
G1 X121.047 Y53.325 E5.68560
G1 X121.233 Y53.720 E5.72529
G1 X121.368 Y54.135 E5.76499
G1 X121.449 Y54.564 E5.80471
G1 X121.477 Y55.000 E5.84440
G1 X121.449 Y55.436 E5.88409
G1 X121.368 Y55.865 E5.92381
G1 X121.233 Y56.280 E5.96350
G1 X121.047 Y56.675 E6.00320
G1 X120.813 Y57.044 E6.04292
G1 X120.535 Y57.380 E6.08261
G1 X120.216 Y57.679 E6.12231
G1 X119.863 Y57.936 E6.16202
G1 X119.480 Y58.146 E6.20173
G1 X119.074 Y58.307 E6.24143
G1 X118.652 Y58.415 E6.28111
G1 X118.293 Y58.461 E6.31399
G1 X118.179 Y57.845 F7800.000
G1 F1800
G1 X117.821 Y57.845 E6.34655
G1 X117.466 Y57.800 E6.37910
G1 X117.119 Y57.711 E6.41165
G1 X116.786 Y57.579 E6.44420
G1 X116.473 Y57.407 E6.47676
G1 X116.182 Y57.196 E6.50938
G1 X115.914 Y56.942 E6.54292
G1 X115.694 Y56.676 E6.57440
G1 X115.502 Y56.373 E6.60696
G1 X115.350 Y56.049 E6.63951
G1 X115.239 Y55.708 E6.67213
G1 X115.171 Y55.346 E6.70568
G1 X115.149 Y55.000 E6.73716
G1 X115.172 Y54.643 E6.76971
G1 X115.239 Y54.291 E6.80226
G1 X115.350 Y53.951 E6.83482
G1 X115.502 Y53.627 E6.86737
G1 X115.694 Y53.324 E6.89993
G1 X115.922 Y53.049 E6.93247
G1 X116.183 Y52.803 E6.96502
G1 X116.473 Y52.593 E6.99758
G1 X116.786 Y52.421 E7.03014
G1 X117.119 Y52.289 E7.06269
G1 X117.466 Y52.200 E7.09523
G1 X117.821 Y52.155 E7.12778
G1 X118.179 Y52.155 E7.16034
G1 X118.534 Y52.200 E7.19289
G1 X118.881 Y52.289 E7.22544
G1 X119.214 Y52.421 E7.25799
G1 X119.527 Y52.593 E7.29055
G1 X119.818 Y52.804 E7.32317
G1 X120.086 Y53.058 E7.35671
G1 X120.306 Y53.324 E7.38819
G1 X120.498 Y53.627 E7.42075
G1 X120.650 Y53.951 E7.45330
G1 X120.761 Y54.291 E7.48585
G1 X120.828 Y54.643 E7.51841
G1 X120.851 Y55.000 E7.55096
G1 X120.828 Y55.357 E7.58350
G1 X120.761 Y55.709 E7.61606
G1 X120.650 Y56.049 E7.64861
G1 X120.498 Y56.373 E7.68116
G1 X120.306 Y56.676 E7.71372
G1 X120.078 Y56.951 E7.74627
G1 X119.817 Y57.197 E7.77882
G1 X119.527 Y57.407 E7.81137
G1 X119.214 Y57.579 E7.84393
G1 X118.881 Y57.711 E7.87648
G1 X118.534 Y57.800 E7.90903
G1 X118.253 Y57.836 E7.93476
G1 X118.179 Y57.845 F7800.000
G1 E5.93476 F2400.00000
G92 E0
G1 X131.400 Y26.600 F7800.000
G1 E2.00000 F2400.00000
G1 F1800
G1 X131.400 Y173.400 E15.34850
G1 X104.600 Y173.400 E17.78546
G1 X104.600 Y26.600 E31.13396
G1 X131.325 Y26.600 E33.56409
G1 X132.025 Y25.975 F7800.000
G1 F1800
G1 X132.025 Y174.025 E47.02624
G1 X103.975 Y174.025 E49.57683
G1 X103.975 Y25.975 E63.03898
G1 X131.950 Y25.975 E65.58275
G1 X132.650 Y25.350 F7800.000
G1 F1800
G1 X132.650 Y174.650 E79.15854
G1 X103.350 Y174.650 E81.82277
G1 X103.350 Y25.350 E95.39856
G1 X132.575 Y25.350 E98.05598
G1 X132.618 Y25.849 F7800.000
G1 E96.05598 F2400.00000
G92 E0
G1 X104.982 Y27.468 F7800.000
G1 E2.00000 F2400.00000
G1 F1800
G1 X105.468 Y26.982 E2.06270
G1 X106.354 Y26.982 E2.14357
G1 X104.982 Y28.354 E2.32067
G1 X104.982 Y29.241 E2.40154
G1 X107.241 Y26.982 E2.69301
G1 X108.128 Y26.982 E2.77388
G1 X104.982 Y30.128 E3.17971
G1 X104.982 Y31.014 E3.26058
G1 X109.014 Y26.982 E3.78078
G1 X109.901 Y26.982 E3.86165
G1 X104.982 Y31.901 E4.49621
G1 X104.982 Y32.787 E4.57708
G1 X110.787 Y26.982 E5.32601
G1 X111.674 Y26.982 E5.40688
G1 X104.982 Y33.674 E6.27017
G1 X104.982 Y34.560 E6.35104
G1 X112.560 Y26.982 E7.32869
G1 X113.447 Y26.982 E7.40956
G1 X104.982 Y35.447 E8.50159
G1 X104.982 Y36.333 E8.58245
G1 X114.333 Y26.982 E9.78884
G1 X115.220 Y26.982 E9.86971
G1 X104.982 Y37.220 E11.19046
G1 X104.982 Y38.106 E11.27133
G1 X116.106 Y26.982 E12.70645
G1 X116.993 Y26.982 E12.78732
G1 X104.982 Y38.993 E14.33680
G1 X104.982 Y39.879 E14.41767
G1 X117.879 Y26.982 E16.08151
G1 X118.766 Y26.982 E16.16238
G1 X104.982 Y40.766 E17.94059
G1 X104.982 Y41.652 E18.02146
G1 X119.653 Y26.982 E19.91404
G1 X120.539 Y26.982 E19.99491
G1 X104.982 Y42.539 E22.00185
G1 X104.982 Y43.426 E22.08272
G1 X121.426 Y26.982 E24.20402
G1 X122.312 Y26.982 E24.28489
G1 X104.982 Y44.312 E26.52056
G1 X104.982 Y45.199 E26.60143
G1 X123.199 Y26.982 E28.95147
G1 X124.085 Y26.982 E29.03234
G1 X104.982 Y46.085 E31.49674
G1 X104.982 Y46.972 E31.57760
G1 X124.972 Y26.982 E34.15637
G1 X125.858 Y26.982 E34.23724
G1 X104.982 Y47.858 E36.93037
G1 X104.982 Y48.745 E37.01124
G1 X126.745 Y26.982 E39.81873
G1 X127.631 Y26.982 E39.89960
G1 X104.982 Y49.631 E42.82146
G1 X104.982 Y50.518 E42.90233
G1 X128.518 Y26.982 E45.93856
G1 X129.404 Y26.982 E46.01942
G1 X104.982 Y51.404 E49.17001
G1 X104.982 Y52.291 E49.25088
G1 X130.291 Y26.982 E52.51584
G1 X131.018 Y26.982 E52.58220
G1 X131.018 Y27.141 E52.59670
G1 X104.982 Y53.177 E55.95550
G1 X104.982 Y54.064 E56.03637
G1 X131.018 Y28.027 E59.39517
G1 X131.018 Y28.914 E59.47604
G1 X104.982 Y54.951 E62.83484
G1 X104.982 Y55.837 E62.91571
G1 X131.018 Y29.800 E66.27451
G1 X131.018 Y30.687 E66.35538
G1 X104.982 Y56.724 E69.71418
G1 X104.982 Y57.610 E69.79505
G1 X131.018 Y31.573 E73.15385
G1 X131.018 Y32.460 E73.23471
G1 X104.982 Y58.497 E76.59351
G1 X104.982 Y59.383 E76.67438
G1 X131.018 Y33.346 E80.03318
G1 X131.018 Y34.233 E80.11405
G1 X104.982 Y60.270 E83.47285
G1 X104.982 Y61.156 E83.55372
G1 X131.018 Y35.119 E86.91252
G1 X131.018 Y36.006 E86.99339
G1 X116.268 Y50.756 E88.89623
G1 X116.871 Y50.598 E88.95308
G1 X117.377 Y50.534 E88.99966
G1 X131.018 Y36.893 E90.75940
G1 X131.018 Y37.779 E90.84027
G1 X118.249 Y50.548 E92.48749
G1 X118.643 Y50.598 E92.52370
G1 X118.996 Y50.688 E92.55688
G1 X131.018 Y38.666 E94.10784
G1 X131.018 Y39.552 E94.18871
G1 X119.653 Y50.918 E95.65487
G1 X119.770 Y50.964 E95.66637
G1 X120.237 Y51.220 E95.71492
G1 X131.018 Y40.439 E97.10578
G1 X131.018 Y41.325 E97.18665
G1 X120.756 Y51.588 E98.51055
G1 X121.213 Y52.017 E98.56776
G1 X131.018 Y42.212 E99.83264
G1 X131.018 Y43.098 E99.91351
G1 X121.610 Y52.506 E101.12719
G1 X121.945 Y53.058 E101.18606
G1 X131.018 Y43.985 E102.35654
G1 X131.018 Y44.871 E102.43741
G1 X122.211 Y53.679 E103.57355
G1 X122.337 Y54.067 E103.61080
G1 X122.397 Y54.379 E103.63981
G1 X131.018 Y45.758 E104.75198
G1 X131.018 Y46.644 E104.83285
G1 X122.482 Y55.181 E105.93405
G1 X122.449 Y55.836 E105.99386
G1 X122.386 Y56.163 E106.02427
G1 X131.018 Y47.531 E107.13782
G1 X131.018 Y48.417 E107.21869
G1 X121.878 Y57.558 E108.39786
G1 E106.39786 F2400.00000
G92 E0
G1 X113.768 Y53.256 F7800.000
G1 E2.00000 F2400.00000
G1 F1800
G1 X104.982 Y62.043 E3.13346
G1 X104.982 Y62.929 E3.21433
G1 X113.538 Y54.373 E4.31814
G1 X113.514 Y54.757 E4.35326
G1 X113.545 Y55.252 E4.39853
G1 X104.982 Y63.816 E5.50324
G1 X104.982 Y64.702 E5.58411
G1 X113.684 Y56.000 E6.70676
G1 X113.846 Y56.498 E6.75453
G1 X113.919 Y56.652 E6.77007
G1 X104.982 Y65.589 E7.92296
G1 X104.982 Y66.475 E8.00383
G1 X114.224 Y57.233 E9.19615
G1 X114.417 Y57.537 E9.22900
G1 X114.594 Y57.750 E9.25423
G1 X104.982 Y67.362 E10.49420
G1 X104.982 Y68.249 E10.57507
G1 X115.023 Y58.207 E11.87045
G1 X115.225 Y58.398 E11.89578
G1 X115.511 Y58.606 E11.92804
G1 X104.982 Y69.135 E13.28633
G1 X104.982 Y70.022 E13.36720
G1 X116.060 Y58.943 E14.79637
G1 X116.230 Y59.036 E14.81401
G1 X116.677 Y59.213 E14.85786
G1 X104.982 Y70.908 E16.36656
G1 X104.982 Y71.795 E16.44743
G1 X117.372 Y59.404 E18.04583
G1 X117.946 Y59.477 E18.09859
G1 X118.186 Y59.477 E18.12050
G1 X104.982 Y72.681 E19.82390
G1 X104.982 Y73.568 E19.90477
G1 X119.153 Y59.396 E21.73295
G1 X119.704 Y59.255 E21.78483
G1 X120.256 Y59.036 E21.83900
G1 X120.575 Y58.861 E21.87217
G1 X104.982 Y74.454 E23.88375
G1 X104.982 Y75.341 E23.96462
G1 X131.018 Y49.304 E27.32342
G1 X131.018 Y50.191 E27.40428
