; generated by Slic3r 1.3.0 on 2020-12-24 at 10:35:17

; external perimeters extrusion width = 0.55mm (4.37mm^3/s)
; perimeters extrusion width = 0.70mm (11.44mm^3/s)
; infill extrusion width = 0.62mm (13.45mm^3/s)
; solid infill extrusion width = 0.70mm (3.81mm^3/s)
; top infill extrusion width = 0.70mm (2.86mm^3/s)

M107
M104 S200 ; set temperature
G28 ; home all axes
G1 Z5 F5000 ; lift nozzle

; Filament gcode

M109 S200 ; set temperature and wait for it to be reached
G21 ; set units to millimeters
G90 ; use absolute coordinates
M82 ; use absolute distances for extrusion
G92 E0
G1 Z0.350 F7800.000
G1 E-2.00000 F2400.00000
G92 E0
G1 X70.375 Y11.250 F7800.000
G1 E2.00000 F2400.00000
G1 F1800
G1 X70.772 Y8.991 E2.20854
G1 X71.915 Y7.003 E2.41708
G1 X73.668 Y5.524 E2.62563
G1 X75.820 Y4.731 E2.83417
G1 X77.000 Y4.625 E2.94188
G1 X123.000 Y4.625 E7.12464
G1 X125.259 Y5.022 E7.33318
G1 X127.247 Y6.165 E7.54172
G1 X128.726 Y7.918 E7.75027
G1 X129.519 Y10.070 E7.95881
G1 X129.625 Y11.250 E8.06652
G1 X129.625 Y188.750 E24.20652
G1 X129.228 Y191.009 E24.41506
G1 X128.085 Y192.997 E24.62360
G1 X126.332 Y194.476 E24.83215
G1 X124.180 Y195.269 E25.04069
G1 X123.000 Y195.375 E25.14840
G1 X77.000 Y195.375 E29.33116
G1 X74.741 Y194.978 E29.53970
G1 X72.753 Y193.835 E29.74824
G1 X71.274 Y192.082 E29.95678
G1 X70.481 Y189.930 E30.16533
G1 X70.375 Y188.750 E30.27304
G1 X70.375 Y11.325 E46.40622
G1 E44.40622 F2400.00000
G92 E0
G1 X121.400 Y12.850 F7800.000
G1 E2.00000 F2400.00000
G1 F1800
G1 X121.400 Y187.150 E17.84907
G1 X104.600 Y187.150 E19.37672
G1 X104.600 Y12.850 E35.22579
G1 X121.325 Y12.850 E36.74663
G1 X122.025 Y12.225 F7800.000
G1 F1800
G1 X122.025 Y187.775 E52.70934
G1 X103.975 Y187.775 E54.35063
G1 X103.975 Y12.225 E70.31334
G1 X121.950 Y12.225 E71.94782
G1 X122.650 Y11.600 F7800.000
G1 F1800
G1 X122.650 Y188.400 E88.02417
G1 X103.350 Y188.400 E89.77911
G1 X103.350 Y11.600 E105.85546
G1 X122.575 Y11.600 E107.60358
G1 X122.632 Y12.100 F7800.000
G1 E105.60358 F2400.00000
G92 E0
G1 X104.982 Y13.718 F7800.000
G1 E2.00000 F2400.00000
G1 F1800
G1 X105.468 Y13.232 E2.06262
G1 X106.353 Y13.232 E2.14330
G1 X104.982 Y14.603 E2.32005
G1 X104.982 Y15.489 E2.40072
G1 X107.239 Y13.232 E2.69157
G1 X108.124 Y13.232 E2.77224
G1 X104.982 Y16.374 E3.17716
G1 X104.982 Y17.260 E3.25784
G1 X109.010 Y13.232 E3.77685
G1 X109.895 Y13.232 E3.85752
G1 X104.982 Y18.145 E4.49062
G1 X104.982 Y19.031 E4.57129
G1 X110.781 Y13.232 E5.31847
G1 X111.666 Y13.232 E5.39915
G1 X104.982 Y19.916 E6.26042
G1 X104.982 Y20.802 E6.34109
G1 X112.552 Y13.232 E7.31644
G1 X113.437 Y13.232 E7.39711
G1 X104.982 Y21.687 E8.48655
G1 X104.982 Y22.573 E8.56723
G1 X114.323 Y13.232 E9.77075
G1 X115.208 Y13.232 E9.85142
G1 X104.982 Y23.458 E11.16904
G1 X104.982 Y24.343 E11.24971
G1 X116.093 Y13.232 E12.68140
G1 X116.979 Y13.232 E12.76207
G1 X104.982 Y25.229 E14.30786
G1 X104.982 Y26.114 E14.38853
G1 X117.864 Y13.232 E16.04840
G1 X118.750 Y13.232 E16.12907
G1 X104.982 Y27.000 E17.90302
G1 X104.982 Y27.885 E17.98369
G1 X119.635 Y13.232 E19.87173
G1 X120.521 Y13.232 E19.95240
G1 X104.982 Y28.771 E21.95453
G1 X104.982 Y29.656 E22.03520
G1 X121.018 Y13.619 E24.10145
G1 X121.018 Y14.505 E24.18212
G1 X104.982 Y30.542 E26.24837
G1 X104.982 Y31.427 E26.32904
G1 X121.018 Y15.390 E28.39529
G1 X121.018 Y16.276 E28.47596
G1 X104.982 Y32.312 E30.54221
G1 X104.982 Y33.198 E30.62288
G1 X121.018 Y17.161 E32.68913
G1 X121.018 Y18.047 E32.76980
G1 X104.982 Y34.083 E34.83605
G1 X104.982 Y34.969 E34.91672
G1 X121.018 Y18.932 E36.98297
G1 X121.018 Y19.818 E37.06364
G1 X104.982 Y35.854 E39.12989
G1 X104.982 Y36.740 E39.21056
G1 X121.018 Y20.703 E41.27681
G1 X121.018 Y21.588 E41.35748
G1 X104.982 Y37.625 E43.42373
G1 X104.982 Y38.511 E43.50440
G1 X121.018 Y22.474 E45.57065
G1 X121.018 Y23.359 E45.65132
G1 X104.982 Y39.396 E47.71757
G1 X104.982 Y40.282 E47.79824
G1 X121.018 Y24.245 E49.86449
G1 X121.018 Y25.130 E49.94516
G1 X104.982 Y41.167 E52.01141
G1 X104.982 Y42.052 E52.09209
G1 X121.018 Y26.016 E54.15833
G1 X121.018 Y26.901 E54.23901
G1 X104.982 Y42.938 E56.30526
G1 X104.982 Y43.823 E56.38593
G1 X121.018 Y27.787 E58.45218
G1 X121.018 Y28.672 E58.53285
G1 X104.982 Y44.709 E60.59910
G1 X104.982 Y45.594 E60.67977
G1 X121.018 Y29.557 E62.74602
G1 X121.018 Y30.443 E62.82669
G1 X104.982 Y46.480 E64.89294
G1 X104.982 Y47.365 E64.97361
G1 X121.018 Y31.328 E67.03986
G1 X121.018 Y32.214 E67.12053
G1 X104.982 Y48.251 E69.18678
G1 X104.982 Y49.136 E69.26745
G1 X121.018 Y33.099 E71.33370
G1 X121.018 Y33.985 E71.41437
G1 X104.982 Y50.021 E73.48062
G1 X104.982 Y50.907 E73.56129
G1 X121.018 Y34.870 E75.62754
G1 X121.018 Y35.756 E75.70821
G1 X104.982 Y51.792 E77.77446
G1 X104.982 Y52.678 E77.85513
G1 X121.018 Y36.641 E79.92138
G1 X121.018 Y37.527 E80.00205
G1 X104.982 Y53.563 E82.06830
G1 X104.982 Y54.449 E82.14897
G1 X121.018 Y38.412 E84.21522
G1 X121.018 Y39.297 E84.29589
G1 X104.982 Y55.334 E86.36214
G1 X104.982 Y56.220 E86.44281
G1 X121.018 Y40.183 E88.50906
G1 X121.018 Y41.068 E88.58973
G1 X104.982 Y57.105 E90.65598
G1 X104.982 Y57.991 E90.73665
G1 X121.018 Y41.954 E92.80290
G1 X121.018 Y42.839 E92.88357
G1 X104.982 Y58.876 E94.94982
G1 X104.982 Y59.761 E95.03049
G1 X121.018 Y43.725 E97.09674
G1 X121.018 Y44.610 E97.17741
G1 X104.982 Y60.647 E99.24366
G1 X104.982 Y61.532 E99.32433
G1 X121.018 Y45.496 E101.39058
G1 X121.018 Y46.381 E101.47125
G1 X104.982 Y62.418 E103.53750
G1 X104.982 Y63.303 E103.61817
G1 X121.018 Y47.266 E105.68442
G1 X121.018 Y48.152 E105.76509
G1 X104.982 Y64.189 E107.83134
G1 X104.982 Y65.074 E107.91201
G1 X121.018 Y49.037 E109.97826
G1 X121.018 Y49.923 E110.05893
G1 X104.982 Y65.960 E112.12518
G1 X104.982 Y66.845 E112.20585
G1 X121.018 Y50.808 E114.27210
G1 X121.018 Y51.694 E114.35277
G1 X104.982 Y67.731 E116.41902
G1 X104.982 Y68.616 E116.49969
G1 X121.018 Y52.579 E118.56594
G1 X121.018 Y53.465 E118.64662
G1 X104.982 Y69.501 E120.71286
G1 X104.982 Y70.387 E120.79354
G1 X121.018 Y54.350 E122.85979
G1 X121.018 Y55.236 E122.94046
G1 X104.982 Y71.272 E125.00671
G1 X104.982 Y72.158 E125.08738
G1 X121.018 Y56.121 E127.15363
G1 X121.018 Y57.006 E127.23430
G1 X104.982 Y73.043 E129.30055
G1 X104.982 Y73.929 E129.38122
G1 X121.018 Y57.892 E131.44747
G1 X121.018 Y58.777 E131.52814
G1 X104.982 Y74.814 E133.59439
G1 X104.982 Y75.700 E133.67506
G1 X121.018 Y59.663 E135.74131
G1 X121.018 Y60.548 E135.82198
G1 X104.982 Y76.585 E137.88823
G1 X104.982 Y77.470 E137.96890
G1 X121.018 Y61.434 E140.03515
G1 X121.018 Y62.319 E140.11582
G1 X104.982 Y78.356 E142.18207
G1 X104.982 Y79.241 E142.26274
G1 X121.018 Y63.205 E144.32899
G1 X121.018 Y64.090 E144.40966
G1 X104.982 Y80.127 E146.47591
G1 X104.982 Y81.012 E146.55658
G1 X121.018 Y64.976 E148.62283
G1 X121.018 Y65.861 E148.70350
G1 X104.982 Y81.898 E150.76975
G1 X104.982 Y82.783 E150.85042
G1 X121.018 Y66.746 E152.91667
G1 X121.018 Y67.632 E152.99734
G1 X104.982 Y83.669 E155.06359
G1 X104.982 Y84.554 E155.14426
G1 X121.018 Y68.517 E157.21051
G1 X121.018 Y69.403 E157.29118
G1 X104.982 Y85.440 E159.35743
G1 X104.982 Y86.325 E159.43810
G1 X121.018 Y70.288 E161.50435
G1 X121.018 Y71.174 E161.58502
G1 X104.982 Y87.210 E163.65127
G1 X104.982 Y88.096 E163.73194
G1 X121.018 Y72.059 E165.79819
G1 X121.018 Y72.945 E165.87886
G1 X104.982 Y88.981 E167.94511
G1 X104.982 Y89.867 E168.02578
G1 X121.018 Y73.830 E170.09203
G1 X121.018 Y74.715 E170.17270
G1 X104.982 Y90.752 E172.23895
G1 X104.982 Y91.638 E172.31962
G1 X121.018 Y75.601 E174.38587
G1 X121.018 Y76.486 E174.46654
G1 X104.982 Y92.523 E176.53279
G1 X104.982 Y93.409 E176.61346
G1 X121.018 Y77.372 E178.67971
G1 X121.018 Y78.257 E178.76038
G1 X104.982 Y94.294 E180.82663
G1 X104.982 Y95.179 E180.90730
G1 X121.018 Y79.143 E182.97355
G1 X121.018 Y80.028 E183.05422
G1 X104.982 Y96.065 E185.12047
G1 X104.982 Y96.950 E185.20114
G1 X121.018 Y80.914 E187.26739
G1 X121.018 Y81.799 E187.34806
G1 X104.982 Y97.836 E189.41431
G1 X104.982 Y98.721 E189.49498
G1 X121.018 Y82.685 E191.56123
G1 X121.018 Y83.570 E191.64190
G1 X104.982 Y99.607 E193.70815
G1 X104.982 Y100.492 E193.78883
G1 X121.018 Y84.455 E195.85507
G1 X121.018 Y85.341 E195.93575
G1 X104.982 Y101.378 E198.00200
G1 X104.982 Y102.263 E198.08267
G1 X121.018 Y86.226 E200.14892
G1 X121.018 Y87.112 E200.22959
G1 X104.982 Y103.149 E202.29584
G1 X104.982 Y104.034 E202.37651
G1 X121.018 Y87.997 E204.44276
G1 X121.018 Y88.883 E204.52343
G1 X104.982 Y104.919 E206.58968
G1 X104.982 Y105.805 E206.67035
G1 X121.018 Y89.768 E208.73660
G1 X121.018 Y90.654 E208.81727
G1 X104.982 Y106.690 E210.88352
G1 X104.982 Y107.576 E210.96419
G1 X121.018 Y91.539 E213.03044
G1 X121.018 Y92.424 E213.11111
G1 X104.982 Y108.461 E215.17736
G1 X104.982 Y109.347 E215.25803
G1 X121.018 Y93.310 E217.32428
G1 X121.018 Y94.195 E217.40495
G1 X104.982 Y110.232 E219.47120
G1 X104.982 Y111.118 E219.55187
G1 X121.018 Y95.081 E221.61812
G1 X121.018 Y95.966 E221.69879
G1 X104.982 Y112.003 E223.76504
G1 X104.982 Y112.888 E223.84571
G1 X121.018 Y96.852 E225.91196
G1 X121.018 Y97.737 E225.99263
G1 X104.982 Y113.774 E228.05888
G1 X104.982 Y114.659 E228.13955
G1 X121.018 Y98.623 E230.20580
G1 X121.018 Y99.508 E230.28647
G1 X104.982 Y115.545 E232.35272
G1 X104.982 Y116.430 E232.43339
G1 X121.018 Y100.394 E234.49964
G1 X121.018 Y101.279 E234.58031
G1 X104.982 Y117.316 E236.64656
G1 X104.982 Y118.201 E236.72723
G1 X121.018 Y102.164 E238.79348
G1 X121.018 Y103.050 E238.87415
G1 X104.982 Y119.087 E240.94040
G1 X104.982 Y119.972 E241.02107
G1 X121.018 Y103.935 E243.08732
G1 X121.018 Y104.821 E243.16799
G1 X104.982 Y120.858 E245.23424
G1 X104.982 Y121.743 E245.31491
G1 X121.018 Y105.706 E247.38116
G1 X121.018 Y106.592 E247.46183
G1 X104.982 Y122.628 E249.52808
G1 X104.982 Y123.514 E249.60875
G1 X121.018 Y107.477 E251.67500
G1 X121.018 Y108.363 E251.75567
G1 X104.982 Y124.399 E253.82192
G1 X104.982 Y125.285 E253.90259
G1 X121.018 Y109.248 E255.96884
G1 X121.018 Y110.133 E256.04951
G1 X104.982 Y126.170 E258.11576
G1 X104.982 Y127.056 E258.19643
G1 X121.018 Y111.019 E260.26268
G1 X121.018 Y111.904 E260.34336
G1 X104.982 Y127.941 E262.40960
G1 X104.982 Y128.827 E262.49028
G1 X121.018 Y112.790 E264.55653
G1 X121.018 Y113.675 E264.63720
G1 X104.982 Y129.712 E266.70345
G1 X104.982 Y130.597 E266.78412
G1 X121.018 Y114.561 E268.85037
G1 X121.018 Y115.446 E268.93104
G1 X104.982 Y131.483 E270.99729
G1 X104.982 Y132.368 E271.07796
G1 X121.018 Y116.332 E273.14421
G1 X121.018 Y117.217 E273.22488
G1 X104.982 Y133.254 E275.29113
G1 X104.982 Y134.139 E275.37180
G1 X121.018 Y118.103 E277.43805
G1 X121.018 Y118.988 E277.51872
G1 X104.982 Y135.025 E279.58497
G1 X104.982 Y135.910 E279.66564
G1 X121.018 Y119.873 E281.73189
G1 X121.018 Y120.759 E281.81256
G1 X104.982 Y136.796 E283.87881
G1 X104.982 Y137.681 E283.95948
G1 X121.018 Y121.644 E286.02573
G1 X121.018 Y122.530 E286.10640
G1 X104.982 Y138.567 E288.17265
G1 X104.982 Y139.452 E288.25332
G1 X121.018 Y123.415 E290.31957
G1 X121.018 Y124.301 E290.40024
G1 X104.982 Y140.337 E292.46649
G1 X104.982 Y141.223 E292.54716
G1 X121.018 Y125.186 E294.61341
G1 X121.018 Y126.072 E294.69408
G1 X104.982 Y142.108 E296.76033
G1 X104.982 Y142.994 E296.84100
G1 X121.018 Y126.957 E298.90725
G1 X121.018 Y127.842 E298.98792
G1 X104.982 Y143.879 E301.05417
G1 X104.982 Y144.765 E301.13484
G1 X121.018 Y128.728 E303.20109
G1 X121.018 Y129.613 E303.28176
G1 X104.982 Y145.650 E305.34801
G1 X104.982 Y146.536 E305.42868
G1 X121.018 Y130.499 E307.49493
G1 X121.018 Y131.384 E307.57560
G1 X104.982 Y147.421 E309.64185
G1 X104.982 Y148.306 E309.72252
G1 X121.018 Y132.270 E311.78877
G1 X121.018 Y133.155 E311.86944
G1 X104.982 Y149.192 E313.93569
G1 X104.982 Y150.077 E314.01636
G1 X121.018 Y134.041 E316.08261
G1 X121.018 Y134.926 E316.16328
G1 X104.982 Y150.963 E318.22953
G1 X104.982 Y151.848 E318.31020
G1 X121.018 Y135.812 E320.37645
G1 X121.018 Y136.697 E320.45712
G1 X104.982 Y152.734 E322.52337
G1 X104.982 Y153.619 E322.60404
G1 X121.018 Y137.582 E324.67029
G1 X121.018 Y138.468 E324.75096
G1 X104.982 Y154.505 E326.81721
G1 X104.982 Y155.390 E326.89788
G1 X121.018 Y139.353 E328.96413
G1 X121.018 Y140.239 E329.04480
G1 X104.982 Y156.276 E331.11105
G1 X104.982 Y157.161 E331.19172
G1 X121.018 Y141.124 E333.25797
G1 X121.018 Y142.010 E333.33865
G1 X104.982 Y158.046 E335.40489
G1 X104.982 Y158.932 E335.48557
G1 X121.018 Y142.895 E337.55182
G1 X121.018 Y143.781 E337.63249
G1 X104.982 Y159.817 E339.69874
G1 X104.982 Y160.703 E339.77941
G1 X121.018 Y144.666 E341.84566
G1 X121.018 Y145.551 E341.92633
G1 X104.982 Y161.588 E343.99258
G1 X104.982 Y162.474 E344.07325
G1 X121.018 Y146.437 E346.13950
G1 X121.018 Y147.322 E346.22017
G1 X104.982 Y163.359 E348.28642
G1 X104.982 Y164.245 E348.36709
G1 X121.018 Y148.208 E350.43334
G1 X121.018 Y149.093 E350.51401
G1 X104.982 Y165.130 E352.58026
G1 X104.982 Y166.015 E352.66093
G1 X121.018 Y149.979 E354.72718
G1 X121.018 Y150.864 E354.80785
G1 X104.982 Y166.901 E356.87410
G1 X104.982 Y167.786 E356.95477
G1 X121.018 Y151.750 E359.02102
G1 X121.018 Y152.635 E359.10169
G1 X104.982 Y168.672 E361.16794
G1 X104.982 Y169.557 E361.24861
G1 X121.018 Y153.521 E363.31486
G1 X121.018 Y154.406 E363.39553
G1 X104.982 Y170.443 E365.46178
G1 X104.982 Y171.328 E365.54245
G1 X121.018 Y155.291 E367.60870
G1 X121.018 Y156.177 E367.68937
G1 X104.982 Y172.214 E369.75562
G1 X104.982 Y173.099 E369.83629
G1 X121.018 Y157.062 E371.90254
G1 X121.018 Y157.948 E371.98321
G1 X104.982 Y173.985 E374.04946
G1 X104.982 Y174.870 E374.13013
G1 X121.018 Y158.833 E376.19638
G1 X121.018 Y159.719 E376.27705
G1 X104.982 Y175.755 E378.34330
G1 X104.982 Y176.641 E378.42397
G1 X121.018 Y160.604 E380.49022
G1 X121.018 Y161.490 E380.57089
G1 X104.982 Y177.526 E382.63714
G1 X104.982 Y178.412 E382.71781
G1 X121.018 Y162.375 E384.78406
G1 X121.018 Y163.260 E384.86473
G1 X104.982 Y179.297 E386.93098
G1 X104.982 Y180.183 E387.01165
G1 X121.018 Y164.146 E389.07790
G1 X121.018 Y165.031 E389.15857
G1 X104.982 Y181.068 E391.22482
G1 X104.982 Y181.954 E391.30549
G1 X121.018 Y165.917 E393.37174
G1 X121.018 Y166.802 E393.45241
G1 X104.982 Y182.839 E395.51866
G1 X104.982 Y183.724 E395.59933
G1 X121.018 Y167.688 E397.66558
G1 X121.018 Y168.573 E397.74625
G1 X104.982 Y184.610 E399.81250
G1 X104.982 Y185.495 E399.89317
G1 X121.018 Y169.459 E401.95942
G1 X121.018 Y170.344 E402.04009
G1 X104.982 Y186.381 E404.10634
G1 X104.982 Y186.768 E404.14165
G1 X105.480 Y186.768 E404.18701
G1 X121.018 Y171.230 E406.18911
G1 X121.018 Y172.115 E406.26978
G1 X106.365 Y186.768 E408.15779
G1 X107.250 Y186.768 E408.23846
G1 X121.018 Y173.000 E410.01239
G1 X121.018 Y173.886 E410.09306
G1 X108.136 Y186.768 E411.75290
G1 X109.021 Y186.768 E411.83357
G1 X121.018 Y174.771 E413.37933
G1 X121.018 Y175.657 E413.46000
G1 X109.907 Y186.768 E414.89167
G1 X110.792 Y186.768 E414.97234
G1 X121.018 Y176.542 E416.28992
G1 X121.018 Y177.428 E416.37059
G1 X111.678 Y186.768 E417.57409
G1 X112.563 Y186.768 E417.65476
G1 X121.018 Y178.313 E418.74417
G1 X121.018 Y179.199 E418.82484
G1 X113.449 Y186.768 E419.80017
G1 X114.334 Y186.768 E419.88084
G1 X121.018 Y180.084 E420.74208
G1 X121.018 Y180.969 E420.82275
G1 X115.219 Y186.768 E421.56991
G1 X116.105 Y186.768 E421.65058
G1 X121.018 Y181.855 E422.28365
G1 X121.018 Y182.740 E422.36432
G1 X116.990 Y186.768 E422.88331
G1 X117.876 Y186.768 E422.96398
G1 X121.018 Y183.626 E423.36888
G1 X121.018 Y184.511 E423.44955
G1 X118.761 Y186.768 E423.74036
G1 X119.647 Y186.768 E423.82103
G1 X121.018 Y185.397 E423.99776
G1 X121.018 Y186.282 E424.07843
G1 X120.532 Y186.768 E424.14107
G1 E422.14107 F2400.00000
G92 E0
G1 X95.400 Y12.850 F7800.000
G1 E2.00000 F2400.00000
G1 F1800
G1 X95.400 Y187.150 E17.84907
G1 X78.600 Y187.150 E19.37672
G1 X78.600 Y12.850 E35.22579
G1 X95.325 Y12.850 E36.74663
G1 X96.025 Y12.225 F7800.000
G1 F1800
G1 X96.025 Y187.775 E52.70934
G1 X77.975 Y187.775 E54.35063
G1 X77.975 Y12.225 E70.31334
G1 X95.950 Y12.225 E71.94782
G1 X96.650 Y11.600 F7800.000
G1 F1800
G1 X96.650 Y188.400 E88.02417
G1 X77.350 Y188.400 E89.77911
G1 X77.350 Y11.600 E105.85546
G1 X96.575 Y11.600 E107.60358
G1 X96.632 Y12.100 F7800.000
